; generated by PrusaSlicer 2.4.0+win64 on 2022-11-23 at 11:53:16 UTC

; 

; external perimeters extrusion width = 0.45mm
; perimeters extrusion width = 0.45mm
; infill extrusion width = 0.45mm
; solid infill extrusion width = 0.45mm
; top infill extrusion width = 0.40mm
; first layer extrusion width = 0.70mm

M107
M104 S200 ; set temperature
;TYPE:Custom
G28 ; home all axes
G1 Z5 F5000 ; lift nozzle
M109 S200 ; set temperature and wait for it to be reached
G21 ; set units to millimeters
G90 ; use absolute coordinates
M82 ; use absolute distances for extrusion
G92 E0
; Filament gcode
M107
;LAYER_CHANGE
;Z:0.35
;HEIGHT:0.35
G1 Z.35 F7800
G1 E-2 F2400
G92 E0
G1 X94.551 Y94.239 F7800
G1 E2 F2400
;TYPE:Skirt/Brim
;WIDTH:0.7
G1 F932
G1 X95.906 Y93.209 E2.15484
G1 X97.17 Y92.593 E2.28269
G1 X98.817 Y92.159 E2.43753
G1 X100.22 Y92.074 E2.56535
G1 X101.908 Y92.303 E2.7202
G1 X103.237 Y92.761 E2.84805
G1 X104.708 Y93.619 E3.00289
G1 X105.761 Y94.551 E3.13072
G1 X106.791 Y95.906 E3.28555
G1 X107.407 Y97.17 E3.4134
G1 X107.841 Y98.817 E3.56824
G1 X107.926 Y100.22 E3.69607
G1 X107.697 Y101.908 E3.85092
G1 X107.239 Y103.237 E3.97876
G1 X106.381 Y104.708 E4.1336
G1 X105.449 Y105.761 E4.26143
G1 X104.094 Y106.791 E4.41627
G1 X102.83 Y107.407 E4.54412
G1 X101.183 Y107.841 E4.69896
G1 X99.78 Y107.926 E4.82678
G1 X98.092 Y107.697 E4.98164
G1 X96.763 Y107.239 E5.10948
G1 X95.292 Y106.381 E5.26432
G1 X94.239 Y105.449 E5.39215
G1 X93.209 Y104.094 E5.54699
G1 X92.593 Y102.83 E5.67484
G1 X92.159 Y101.183 E5.82968
G1 X92.074 Y99.78 E5.9575
G1 X92.303 Y98.092 E6.11235
G1 X92.761 Y96.763 E6.2402
G1 X93.619 Y95.292 E6.39503
G1 X94.511 Y94.284 E6.51741
G1 E4.51741 F2400
G92 E0
G1 X100.082 Y99.684 F7800
G1 E2 F2400
;TYPE:Perimeter
G1 F932
G1 X100.16 Y99.716 E2.0077
G1 X100.263 Y99.808 E2.02025
G1 X100.323 Y99.957 E2.03486
G1 X100.321 Y100.05 E2.04332
G1 X100.278 Y100.17 E2.05486
G1 X100.192 Y100.263 E2.0664
G1 X100.043 Y100.323 E2.08102
G1 X99.95 Y100.321 E2.08947
G1 X99.83 Y100.278 E2.10101
G1 X99.737 Y100.192 E2.11256
G1 X99.677 Y100.043 E2.12717
G1 X99.679 Y99.95 E2.13562
G1 X99.722 Y99.83 E2.14716
G1 X99.808 Y99.737 E2.15871
G1 X99.953 Y99.678 E2.17293
G1 X100.022 Y99.678 E2.17918
G1 X99.324 Y99.327 F7800
;TYPE:External perimeter
G1 F932
G1 X99.453 Y99.219 E2.1945
G1 X99.63 Y99.122 E2.21284
G1 X99.839 Y99.06 E2.23265
G1 X100.006 Y99.047 E2.24788
G1 X100.211 Y99.07 E2.26668
G1 X100.361 Y99.117 E2.28089
G1 X100.499 Y99.188 E2.29502
G1 X100.673 Y99.325 E2.31519
G1 X100.781 Y99.453 E2.33042
G1 X100.878 Y99.63 E2.34877
G1 X100.94 Y99.841 E2.36871
G1 X100.954 Y99.994 E2.3827
G1 X100.939 Y100.166 E2.39838
G1 X100.882 Y100.363 E2.41704
G1 X100.804 Y100.512 E2.43236
G1 X100.676 Y100.673 E2.45102
G1 X100.547 Y100.781 E2.46634
G1 X100.37 Y100.878 E2.48469
G1 X100.159 Y100.94 E2.50463
G1 X100.006 Y100.954 E2.51862
G1 X99.834 Y100.939 E2.5343
G1 X99.637 Y100.882 E2.55296
G1 X99.488 Y100.804 E2.56828
G1 X99.327 Y100.676 E2.58694
G1 X99.219 Y100.547 E2.60226
G1 X99.122 Y100.37 E2.6206
G1 X99.06 Y100.159 E2.64055
G1 X99.046 Y100.006 E2.65454
G1 X99.061 Y99.834 E2.67022
G1 X99.118 Y99.637 E2.68888
G1 X99.196 Y99.488 E2.7042
G1 X99.287 Y99.374 E2.7174
G1 X99.487 Y99.37 F7800
;LAYER_CHANGE
;Z:0.65
;HEIGHT:0.3
G1 Z.65 F7800
G1 X99.121 Y99.22
;TYPE:Perimeter
;WIDTH:0.45
G1 F600
G1 X99.211 Y99.124 E2.7237
G1 X99.482 Y98.938 E2.73953
G1 X99.81 Y98.835 E2.75607
G1 X99.928 Y98.821 E2.76178
G1 X100.271 Y98.851 E2.77835
G1 X100.385 Y98.883 E2.784
G1 X100.69 Y99.042 E2.80055
G1 X100.783 Y99.116 E2.80624
G1 X100.867 Y99.199 E2.81194
G1 X101.062 Y99.482 E2.82848
G1 X101.165 Y99.81 E2.84502
G1 X101.179 Y99.928 E2.85072
G1 X101.149 Y100.271 E2.86726
G1 X101.117 Y100.385 E2.87295
G1 X101.067 Y100.507 E2.87932
G1 X100.937 Y100.717 E2.89118
G1 X100.789 Y100.876 E2.90162
G1 X100.621 Y101.004 E2.91179
G1 X100.408 Y101.107 E2.92316
G1 X100.19 Y101.165 E2.93404
G1 X99.94 Y101.179 E2.94609
G1 X99.696 Y101.14 E2.95794
G1 X99.48 Y101.059 E2.96906
G1 X99.283 Y100.937 E2.9802
G1 X99.124 Y100.789 E2.99064
G1 X98.996 Y100.621 E3.00081
G1 X98.893 Y100.408 E3.01218
G1 X98.835 Y100.19 E3.02306
G1 X98.821 Y99.954 E3.03444
G1 X98.851 Y99.729 E3.04532
G1 X98.933 Y99.493 E3.05737
G1 X99.08 Y99.264 E3.07046
G1 X98.799 Y99.001 F7800
;TYPE:Overhang perimeter
;WIDTH:0.4
;HEIGHT:0.4
G1 F900
G1 X98.951 Y98.837 E3.08214
G1 X99.167 Y98.673 E3.09632
G1 X99.313 Y98.591 E3.10505
G1 X99.467 Y98.527 E3.11378
G1 X99.738 Y98.455 E3.12844
G1 X99.905 Y98.436 E3.13718
G1 X100.067 Y98.435 E3.14567
G1 X100.35 Y98.473 E3.16058
G1 X100.51 Y98.518 E3.16929
G1 X100.665 Y98.581 E3.17802
G1 X100.907 Y98.723 E3.19268
G1 X101.039 Y98.826 E3.20141
G1 X101.157 Y98.944 E3.21014
G1 X101.327 Y99.167 E3.22479
G1 X101.409 Y99.313 E3.23353
G1 X101.473 Y99.467 E3.24226
G1 X101.545 Y99.738 E3.25691
G1 X101.564 Y99.904 E3.26565
G1 X101.565 Y100.072 E3.27438
G1 X101.527 Y100.35 E3.28903
G1 X101.482 Y100.51 E3.29777
G1 X101.415 Y100.673 E3.30695
G1 X101.238 Y100.961 E3.3246
G1 X101.049 Y101.163 E3.33906
G1 X100.833 Y101.327 E3.35324
G1 X100.533 Y101.473 E3.37068
G1 X100.262 Y101.545 E3.38533
G1 X99.92 Y101.565 E3.40322
G1 X99.586 Y101.511 E3.42087
G1 X99.319 Y101.411 E3.43578
G1 X99.039 Y101.238 E3.45296
G1 X98.837 Y101.049 E3.46742
G1 X98.673 Y100.833 E3.4816
G1 X98.527 Y100.533 E3.49904
G1 X98.455 Y100.262 E3.51369
G1 X98.435 Y99.928 E3.53113
G1 X98.473 Y99.65 E3.54578
G1 X98.585 Y99.327 E3.56367
G1 X98.758 Y99.045 E3.58096
G1 X98.443 Y98.824 F7800
G1 F900
G1 X98.692 Y98.55 E3.6003
G1 X98.955 Y98.35 E3.6176
G1 X99.343 Y98.161 E3.64013
G1 X99.666 Y98.075 E3.65761
G1 X100.092 Y98.049 E3.67988
G1 X100.429 Y98.094 E3.69763
G1 X100.836 Y98.235 E3.72014
G1 X101.125 Y98.403 E3.73762
G1 X101.448 Y98.689 E3.76015
G1 X101.65 Y98.955 E3.77763
G1 X101.839 Y99.343 E3.80015
G1 X101.925 Y99.666 E3.81764
G1 X101.951 Y100.097 E3.84016
G1 X101.906 Y100.428 E3.85764
G1 X101.764 Y100.839 E3.88033
G1 X101.538 Y101.204 E3.90277
G1 X101.308 Y101.45 E3.92035
G1 X101.045 Y101.65 E3.93766
G1 X100.657 Y101.839 E3.96018
G1 X100.334 Y101.925 E3.97766
G1 X99.9 Y101.951 E4.00035
G1 X99.476 Y101.882 E4.02279
G1 X99.158 Y101.763 E4.04053
G1 X98.796 Y101.538 E4.06279
G1 X98.55 Y101.308 E4.08037
G1 X98.35 Y101.045 E4.09768
G1 X98.161 Y100.657 E4.1202
G1 X98.075 Y100.334 E4.13769
G1 X98.049 Y99.903 E4.16021
G1 X98.094 Y99.572 E4.17769
G1 X98.236 Y99.161 E4.20038
G1 X98.408 Y98.873 E4.21793
G1 E2.21793 F2400
G92 E0
G1 X101.045 Y100.178 F7800
G1 E2 F2400
;TYPE:Solid infill
;WIDTH:0.49668
;HEIGHT:0.3
G1 F600
G1 X100.464 Y100.758 E2.04426
G1 X100.307 Y100.835 E2.05368
G1 X100.144 Y100.878 E2.06278
G1 X99.954 Y100.889 E2.07303
G1 X99.757 Y100.854 E2.08383
G1 X100.852 Y99.759 E2.16736
G1 X100.756 Y99.531 E2.18068
G1 X100.627 Y99.373 E2.1917
G1 X99.374 Y100.626 E2.28729
G1 X99.34 Y100.595 E2.28979
G1 X99.244 Y100.469 E2.29833
G1 X99.148 Y100.241 E2.31165
G1 X100.242 Y99.147 E2.39507
G1 X100.204 Y99.134 E2.39719
G1 X100.032 Y99.111 E2.40657
G1 X99.857 Y99.122 E2.41604
G1 X99.693 Y99.165 E2.42518
G1 X99.535 Y99.242 E2.43462
G1 X98.955 Y99.822 E2.47886
;LAYER_CHANGE
;Z:0.95
;HEIGHT:0.3
G1 Z.95 F7800
G1 X98.316 Y99.735
;TYPE:Perimeter
;WIDTH:0.45
G1 F696
G1 X98.381 Y99.442 E2.49327
G1 X98.448 Y99.277 E2.50183
G1 X98.607 Y99.005 E2.51701
G1 X98.843 Y98.739 E2.53411
G1 X99.094 Y98.547 E2.5493
G1 X99.413 Y98.392 E2.56639
G1 X99.719 Y98.311 E2.58158
G1 X100.044 Y98.289 E2.59728
G1 X100.39 Y98.333 E2.61405
G1 X100.723 Y98.448 E2.63095
G1 X100.995 Y98.607 E2.64614
G1 X101.261 Y98.843 E2.66323
G1 X101.453 Y99.094 E2.67842
G1 X101.608 Y99.413 E2.69552
G1 X101.689 Y99.719 E2.7107
G1 X101.71 Y100.074 E2.7278
G1 X101.668 Y100.386 E2.74298
G1 X101.552 Y100.723 E2.76008
G1 X101.393 Y100.995 E2.77526
G1 X101.157 Y101.261 E2.79236
G1 X100.906 Y101.453 E2.80754
G1 X100.587 Y101.608 E2.82464
G1 X100.281 Y101.689 E2.83983
G1 X99.926 Y101.71 E2.85692
G1 X99.614 Y101.668 E2.87211
G1 X99.277 Y101.552 E2.88921
G1 X99.005 Y101.393 E2.90439
G1 X98.739 Y101.157 E2.92149
G1 X98.547 Y100.906 E2.93667
G1 X98.392 Y100.587 E2.95377
G1 X98.311 Y100.281 E2.96895
G1 X98.291 Y100.104 E2.97752
G1 X98.308 Y99.794 E2.99246
G1 X97.926 Y99.742 F7800
G1 F696
G1 X97.954 Y99.535 E3.00253
G1 X98.016 Y99.316 E3.01344
G1 X98.101 Y99.107 E3.02434
G1 X98.288 Y98.787 E3.04213
G1 X98.428 Y98.609 E3.05304
G1 X98.588 Y98.448 E3.06395
G1 X98.882 Y98.224 E3.08173
G1 X99.08 Y98.113 E3.09264
G1 X99.289 Y98.026 E3.10355
G1 X99.647 Y97.932 E3.12134
G1 X100.067 Y97.903 E3.14161
G1 X100.468 Y97.954 E3.16102
G1 X100.684 Y98.016 E3.17181
G1 X100.893 Y98.101 E3.18271
G1 X101.213 Y98.288 E3.2005
G1 X101.391 Y98.428 E3.21141
G1 X101.552 Y98.588 E3.22232
G1 X101.776 Y98.882 E3.24011
G1 X101.887 Y99.08 E3.25101
G1 X101.974 Y99.289 E3.26192
G1 X102.068 Y99.647 E3.27971
G1 X102.095 Y99.872 E3.29062
G1 X102.096 Y100.099 E3.30152
G1 X102.046 Y100.465 E3.31931
G1 X101.984 Y100.684 E3.33022
G1 X101.899 Y100.893 E3.34113
G1 X101.712 Y101.213 E3.35892
G1 X101.572 Y101.391 E3.36982
G1 X101.412 Y101.552 E3.38073
G1 X101.118 Y101.776 E3.39852
G1 X100.92 Y101.887 E3.40942
G1 X100.711 Y101.974 E3.42033
G1 X100.353 Y102.068 E3.43812
G1 X100.128 Y102.095 E3.44903
G1 X99.901 Y102.096 E3.45994
G1 X99.535 Y102.046 E3.47772
G1 X99.316 Y101.984 E3.48863
G1 X99.107 Y101.899 E3.49954
G1 X98.787 Y101.712 E3.51733
G1 X98.609 Y101.572 E3.52823
G1 X98.448 Y101.412 E3.53914
G1 X98.224 Y101.118 E3.55693
G1 X98.113 Y100.92 E3.56784
G1 X98.026 Y100.711 E3.57874
G1 X97.932 Y100.353 E3.59653
G1 X97.905 Y100.128 E3.60744
G1 X97.917 Y99.802 E3.62314
G1 X97.535 Y99.75 F7800
;TYPE:Overhang perimeter
;WIDTH:0.4
;HEIGHT:0.4
G1 F900
G1 X97.575 Y99.456 E3.63863
G1 X97.65 Y99.191 E3.65303
G1 X97.755 Y98.936 E3.66742
G1 X97.968 Y98.569 E3.68958
G1 X98.139 Y98.353 E3.70397
G1 X98.333 Y98.157 E3.71837
G1 X98.67 Y97.901 E3.74052
G1 X98.911 Y97.766 E3.75491
G1 X99.165 Y97.66 E3.76931
G1 X99.575 Y97.552 E3.79146
G1 X99.849 Y97.519 E3.80588
G1 X100.09 Y97.517 E3.81849
G1 X100.545 Y97.576 E3.84244
G1 X100.809 Y97.65 E3.85679
G1 X101.064 Y97.755 E3.87118
G1 X101.431 Y97.968 E3.89333
G1 X101.647 Y98.139 E3.90773
G1 X101.843 Y98.333 E3.92212
G1 X102.099 Y98.67 E3.94428
G1 X102.234 Y98.911 E3.95867
G1 X102.34 Y99.165 E3.97306
G1 X102.448 Y99.575 E3.99522
G1 X102.481 Y99.849 E4.00961
G1 X102.482 Y100.124 E4.02401
G1 X102.425 Y100.544 E4.04616
G1 X102.35 Y100.809 E4.06055
G1 X102.245 Y101.064 E4.07495
G1 X102.032 Y101.431 E4.0971
G1 X101.861 Y101.647 E4.11149
G1 X101.667 Y101.843 E4.12589
G1 X101.33 Y102.099 E4.14804
G1 X101.089 Y102.234 E4.16244
G1 X100.835 Y102.34 E4.17683
G1 X100.425 Y102.448 E4.19898
G1 X100.151 Y102.481 E4.21338
G1 X99.876 Y102.482 E4.22777
G1 X99.456 Y102.425 E4.24993
G1 X99.191 Y102.35 E4.26432
G1 X98.936 Y102.245 E4.27871
G1 X98.569 Y102.032 E4.30087
G1 X98.353 Y101.861 E4.31526
G1 X98.157 Y101.667 E4.32966
G1 X97.901 Y101.33 E4.35181
G1 X97.766 Y101.089 E4.3662
G1 X97.66 Y100.835 E4.3806
G1 X97.552 Y100.425 E4.40275
G1 X97.519 Y100.151 E4.41715
G1 X97.527 Y99.809 E4.43504
G1 E2.43504 F2400
G92 E0
G1 X100.485 Y98.488 F7800
G1 E2 F2400
;TYPE:Solid infill
;WIDTH:0.467771
;HEIGHT:0.3
G1 F696
G1 X101.085 Y99.088 E2.04269
G1 X101.205 Y99.246 E2.05267
G1 X101.336 Y99.515 E2.06769
G1 X101.402 Y99.765 E2.08071
G1 X101.415 Y99.989 E2.09203
G1 X100.008 Y98.581 E2.1922
G1 X99.766 Y98.598 E2.20439
G1 X99.519 Y98.663 E2.21725
G1 X101.331 Y100.476 E2.34622
G1 X101.288 Y100.601 E2.35292
G1 X101.135 Y100.85 E2.36759
G1 X99.152 Y98.867 E2.50871
G1 X99.04 Y98.952 E2.51576
G1 X98.865 Y99.15 E2.5291
G1 X100.848 Y101.133 E2.67022
G1 X100.754 Y101.205 E2.67618
G1 X100.481 Y101.337 E2.69141
G1 X98.669 Y99.525 E2.82037
G1 X98.615 Y99.681 E2.82869
G1 X98.585 Y100.011 E2.84536
G1 X99.99 Y101.417 E2.9454
G1 X99.681 Y101.385 E2.96105
G1 X99.399 Y101.288 E2.97607
G1 X99.175 Y101.157 E2.98909
G1 X98.483 Y100.48 E3.03781
M106 S252.45
;LAYER_CHANGE
;Z:1.25
;HEIGHT:0.3
G1 Z1.25 F7800
G1 E1.03781 F2400
G92 E0
G1 X99.146 Y98.052 F7800
G1 E2 F2400
;TYPE:Perimeter
;WIDTH:0.45
G1 F900
G1 X99.274 Y97.998 E2.00667
G1 X99.647 Y97.9 E2.02523
G1 X99.871 Y97.873 E2.03607
G1 X100.087 Y97.872 E2.04647
G1 X100.478 Y97.925 E2.06547
G1 X100.694 Y97.986 E2.07624
G1 X100.902 Y98.071 E2.08705
G1 X101.235 Y98.265 E2.10562
G1 X101.412 Y98.404 E2.11643
G1 X101.572 Y98.563 E2.12725
G1 X101.805 Y98.87 E2.14581
G1 X101.915 Y99.066 E2.15663
G1 X102.007 Y99.286 E2.16812
G1 X102.075 Y99.516 E2.17961
G1 X102.113 Y99.737 E2.19042
G1 X102.126 Y100.123 E2.20899
G1 X102.102 Y100.347 E2.2198
G1 X102.053 Y100.566 E2.23062
G1 X101.922 Y100.914 E2.2485
G1 X101.735 Y101.235 E2.26639
G1 X101.596 Y101.412 E2.2772
G1 X101.437 Y101.572 E2.28802
G1 X101.13 Y101.805 E2.30658
G1 X100.934 Y101.915 E2.3174
G1 X100.714 Y102.007 E2.32889
G1 X100.484 Y102.075 E2.34038
G1 X100.263 Y102.113 E2.3512
G1 X99.877 Y102.126 E2.36976
G1 X99.653 Y102.102 E2.38057
G1 X99.434 Y102.053 E2.39139
G1 X99.086 Y101.922 E2.40928
G1 X98.765 Y101.735 E2.42716
G1 X98.588 Y101.596 E2.43798
G1 X98.428 Y101.437 E2.44879
G1 X98.195 Y101.13 E2.46736
G1 X98.085 Y100.934 E2.47817
G1 X97.993 Y100.714 E2.48966
G1 X97.925 Y100.484 E2.50115
G1 X97.887 Y100.263 E2.51197
G1 X97.874 Y99.877 E2.53053
G1 X97.898 Y99.653 E2.54135
G1 X97.947 Y99.434 E2.55216
G1 X98.078 Y99.086 E2.57005
G1 X98.265 Y98.765 E2.58793
G1 X98.404 Y98.588 E2.59875
G1 X98.563 Y98.428 E2.60957
G1 X98.87 Y98.195 E2.62813
G1 X99.09 Y98.075 E2.6402
G1 X98.523 Y97.974 F7800
G1 F900
G1 X98.658 Y97.871 E2.64838
G1 X98.897 Y97.738 E2.66154
G1 X99.149 Y97.632 E2.6747
G1 X99.575 Y97.52 E2.69587
G1 X99.847 Y97.488 E2.70904
G1 X100.112 Y97.486 E2.72178
G1 X100.557 Y97.546 E2.74339
G1 X100.82 Y97.62 E2.75652
G1 X101.073 Y97.724 E2.76968
G1 X101.453 Y97.946 E2.79084
G1 X101.668 Y98.115 E2.804
G1 X101.862 Y98.308 E2.81716
G1 X102.129 Y98.658 E2.83833
G1 X102.262 Y98.897 E2.85149
G1 X102.371 Y99.157 E2.86507
G1 X102.451 Y99.428 E2.87864
G1 X102.498 Y99.698 E2.8918
G1 X102.512 Y100.137 E2.91297
G1 X102.483 Y100.409 E2.92613
G1 X102.424 Y100.676 E2.93929
G1 X102.272 Y101.08 E2.96004
G1 X102.054 Y101.453 E2.98079
G1 X101.885 Y101.668 E2.99395
G1 X101.692 Y101.862 E3.00712
G1 X101.342 Y102.129 E3.02828
G1 X101.103 Y102.262 E3.04144
G1 X100.843 Y102.371 E3.05502
G1 X100.572 Y102.451 E3.06859
G1 X100.302 Y102.498 E3.08175
G1 X99.863 Y102.512 E3.10292
G1 X99.591 Y102.483 E3.11608
G1 X99.324 Y102.424 E3.12924
G1 X98.92 Y102.272 E3.14999
G1 X98.547 Y102.054 E3.17074
G1 X98.332 Y101.885 E3.1839
G1 X98.138 Y101.692 E3.19707
G1 X97.871 Y101.342 E3.21823
G1 X97.738 Y101.103 E3.23139
G1 X97.629 Y100.843 E3.24497
G1 X97.549 Y100.572 E3.25854
G1 X97.502 Y100.302 E3.2717
G1 X97.488 Y99.863 E3.29287
G1 X97.517 Y99.591 E3.30603
G1 X97.576 Y99.324 E3.31919
G1 X97.728 Y98.92 E3.33994
G1 X97.946 Y98.547 E3.36069
G1 X98.115 Y98.332 E3.37385
G1 X98.308 Y98.138 E3.38702
G1 X98.475 Y98.011 E3.39711
G1 X97.942 Y97.959 F7800
;TYPE:External perimeter
G1 F900
G1 X98.053 Y97.847 E3.40467
G1 X98.446 Y97.548 E3.42844
G1 X98.728 Y97.391 E3.44395
G1 X99.025 Y97.266 E3.45945
G1 X99.503 Y97.14 E3.48322
G1 X99.823 Y97.102 E3.49873
G1 X100.136 Y97.101 E3.5138
G1 X100.635 Y97.168 E3.53802
G1 X100.945 Y97.255 E3.55351
G1 X101.244 Y97.377 E3.56901
G1 X101.671 Y97.626 E3.59279
G1 X101.924 Y97.826 E3.60829
G1 X102.153 Y98.053 E3.6238
G1 X102.452 Y98.446 E3.64757
G1 X102.609 Y98.728 E3.66307
G1 X102.735 Y99.028 E3.67873
G1 X102.827 Y99.34 E3.69439
G1 X102.883 Y99.658 E3.70989
G1 X102.899 Y100.152 E3.73367
G1 X102.864 Y100.472 E3.74917
G1 X102.794 Y100.787 E3.76468
G1 X102.621 Y101.247 E3.78829
G1 X102.374 Y101.671 E3.81191
G1 X102.174 Y101.924 E3.82742
G1 X101.947 Y102.153 E3.84292
G1 X101.554 Y102.452 E3.8667
G1 X101.272 Y102.609 E3.8822
G1 X100.972 Y102.735 E3.89786
G1 X100.66 Y102.827 E3.91352
G1 X100.342 Y102.883 E3.92902
G1 X99.848 Y102.899 E3.95279
G1 X99.528 Y102.864 E3.9683
G1 X99.213 Y102.794 E3.9838
G1 X98.753 Y102.621 E4.00742
G1 X98.329 Y102.374 E4.03104
G1 X98.076 Y102.174 E4.04655
G1 X97.847 Y101.947 E4.06205
G1 X97.548 Y101.554 E4.08582
G1 X97.391 Y101.272 E4.10133
G1 X97.265 Y100.972 E4.11699
G1 X97.173 Y100.66 E4.13264
G1 X97.117 Y100.342 E4.14815
G1 X97.101 Y99.848 E4.17192
G1 X97.136 Y99.528 E4.18743
G1 X97.206 Y99.213 E4.20293
G1 X97.379 Y98.753 E4.22655
G1 X97.626 Y98.329 E4.25017
G1 X97.9 Y98.002 E4.27071
G1 X98.096 Y97.99 F7800
G1 E2.27071 F2400
G92 E0
G1 X100.696 Y101.889 F7800
G1 E2 F2400
;TYPE:Solid infill
;WIDTH:0.47062
G1 F1200
G1 X101.495 Y101.072 E2.05793
G1 X101.66 Y100.789 E2.07451
G1 X101.775 Y100.483 E2.09108
G1 X101.829 Y100.182 E2.1066
G1 X100.184 Y101.827 E2.22448
G1 X99.888 Y101.836 E2.23949
G1 X99.635 Y101.802 E2.25244
G1 X101.802 Y99.634 E2.40774
G1 X101.735 Y99.383 E2.4209
G1 X101.659 Y99.203 E2.43082
G1 X99.205 Y101.657 E2.60665
G1 X98.852 Y101.435 E2.62777
G1 X101.431 Y98.856 E2.81259
G1 X101.354 Y98.754 E2.81908
G1 X101.148 Y98.565 E2.83325
G1 X98.569 Y101.144 E3.01807
G1 X98.437 Y100.971 E3.02907
G1 X98.341 Y100.797 E3.03915
G1 X100.795 Y98.343 E3.21498
G1 X100.599 Y98.26 E3.22576
G1 X100.363 Y98.201 E3.23812
G1 X98.198 Y100.366 E3.39322
G1 X98.175 Y100.233 E3.40005
G1 X98.171 Y99.818 E3.42106
G1 X99.81 Y98.179 E3.53849
G1 X99.693 Y98.187 E3.54442
G1 X99.367 Y98.272 E3.56152
G1 X99.029 Y98.437 E3.58057
G1 X98.814 Y98.601 E3.59423
G1 X98.125 Y99.29 E3.64365
M106 S249.9
;LAYER_CHANGE
;Z:1.55
;HEIGHT:0.3
G1 Z1.55 F7800
G1 X98.895 Y97.803
;TYPE:Perimeter
;WIDTH:0.45
G1 F900
G1 X99.057 Y97.718 E3.65244
G1 X99.305 Y97.63 E3.66508
G1 X99.574 Y97.567 E3.6784
G1 X99.857 Y97.534 E3.69207
G1 X100.262 Y97.544 E3.71156
G1 X100.524 Y97.587 E3.72434
G1 X100.933 Y97.716 E3.74496
G1 X101.315 Y97.911 E3.76559
G1 X101.53 Y98.062 E3.77823
G1 X101.738 Y98.245 E3.79155
G1 X101.923 Y98.451 E3.80487
G1 X102.076 Y98.664 E3.81752
G1 X102.282 Y99.057 E3.83882
G1 X102.413 Y99.477 E3.85998
G1 X102.452 Y99.709 E3.8713
G1 X102.47 Y99.988 E3.88475
G1 X102.43 Y100.44 E3.90658
G1 X102.377 Y100.669 E3.9179
G1 X102.291 Y100.921 E3.93067
G1 X102.089 Y101.315 E3.95197
G1 X101.938 Y101.53 E3.96462
G1 X101.755 Y101.738 E3.97794
G1 X101.549 Y101.923 E3.99126
G1 X101.336 Y102.076 E4.0039
G1 X100.943 Y102.282 E4.02521
G1 X100.523 Y102.413 E4.04637
G1 X100.291 Y102.452 E4.05768
G1 X100.012 Y102.47 E4.07113
G1 X99.56 Y102.43 E4.09297
G1 X99.331 Y102.377 E4.10428
G1 X99.079 Y102.291 E4.11706
G1 X98.685 Y102.089 E4.13836
G1 X98.47 Y101.938 E4.151
G1 X98.262 Y101.755 E4.16432
G1 X98.077 Y101.549 E4.17764
G1 X97.924 Y101.336 E4.19029
G1 X97.718 Y100.943 E4.21159
G1 X97.587 Y100.523 E4.23275
G1 X97.548 Y100.291 E4.24407
G1 X97.53 Y100.012 E4.25752
G1 X97.57 Y99.56 E4.27935
G1 X97.623 Y99.331 E4.29067
G1 X97.709 Y99.079 E4.30344
G1 X97.911 Y98.685 E4.32474
G1 X98.062 Y98.47 E4.33739
G1 X98.245 Y98.262 E4.35071
G1 X98.451 Y98.077 E4.36403
G1 X98.664 Y97.924 E4.37667
G1 X98.842 Y97.831 E4.3863
G1 X98.273 Y97.73 F7800
G1 F900
G1 X98.462 Y97.594 E4.39745
G1 X98.902 Y97.364 E4.42136
G1 X99.196 Y97.26 E4.43635
G1 X99.508 Y97.187 E4.45175
G1 X99.83 Y97.149 E4.46737
G1 X100.304 Y97.16 E4.49017
G1 X100.613 Y97.211 E4.50524
G1 X101.079 Y97.357 E4.52873
G1 X101.515 Y97.579 E4.55222
G1 X101.77 Y97.759 E4.56721
G1 X102.009 Y97.971 E4.58261
G1 X102.224 Y98.209 E4.59802
G1 X102.406 Y98.462 E4.61301
G1 X102.636 Y98.902 E4.63691
G1 X102.742 Y99.2 E4.65212
G1 X102.836 Y99.665 E4.67492
G1 X102.856 Y99.986 E4.6904
G1 X102.839 Y100.31 E4.70601
G1 X102.749 Y100.776 E4.72881
G1 X102.647 Y101.072 E4.74388
G1 X102.421 Y101.515 E4.76779
G1 X102.241 Y101.77 E4.78278
G1 X102.029 Y102.009 E4.79818
G1 X101.791 Y102.224 E4.81359
G1 X101.538 Y102.406 E4.82857
G1 X101.098 Y102.636 E4.85248
G1 X100.8 Y102.742 E4.86768
G1 X100.335 Y102.836 E4.89049
G1 X100.014 Y102.856 E4.90597
G1 X99.69 Y102.839 E4.92158
G1 X99.224 Y102.749 E4.94438
G1 X98.928 Y102.647 E4.95945
G1 X98.485 Y102.421 E4.98336
G1 X98.23 Y102.241 E4.99835
G1 X97.991 Y102.029 E5.01375
G1 X97.776 Y101.791 E5.02916
G1 X97.594 Y101.538 E5.04414
G1 X97.364 Y101.098 E5.06805
G1 X97.258 Y100.8 E5.08325
G1 X97.164 Y100.335 E5.10605
G1 X97.144 Y100.014 E5.12154
G1 X97.161 Y99.69 E5.13715
G1 X97.251 Y99.224 E5.15995
G1 X97.353 Y98.928 E5.17502
G1 X97.579 Y98.485 E5.19893
G1 X97.759 Y98.23 E5.21392
G1 X97.971 Y97.991 E5.22932
G1 X98.225 Y97.764 E5.24567
G1 X97.712 Y97.704 F7800
;TYPE:External perimeter
G1 F900
G1 X97.966 Y97.475 E5.26211
G1 X98.259 Y97.265 E5.27945
G1 X98.748 Y97.01 E5.30596
G1 X99.087 Y96.889 E5.32329
G1 X99.441 Y96.807 E5.34078
G1 X99.804 Y96.764 E5.35834
G1 X100.041 Y96.759 E5.36976
G1 X100.347 Y96.777 E5.38447
G1 X100.703 Y96.835 E5.40183
G1 X101.226 Y96.999 E5.42819
G1 X101.714 Y97.248 E5.45455
G1 X102.009 Y97.455 E5.47189
G1 X102.281 Y97.696 E5.48937
G1 X102.525 Y97.966 E5.50686
G1 X102.735 Y98.259 E5.52419
G1 X102.99 Y98.748 E5.5507
G1 X103.111 Y99.089 E5.56812
G1 X103.169 Y99.319 E5.57953
G1 X103.22 Y99.621 E5.59424
G1 X103.242 Y99.984 E5.61175
G1 X103.223 Y100.349 E5.62932
G1 X103.188 Y100.584 E5.64074
G1 X103.12 Y100.882 E5.65544
G1 X103.002 Y101.223 E5.67281
G1 X102.752 Y101.714 E5.69932
G1 X102.545 Y102.009 E5.71665
G1 X102.304 Y102.281 E5.73414
G1 X102.034 Y102.525 E5.75163
G1 X101.741 Y102.735 E5.76896
G1 X101.252 Y102.99 E5.79547
G1 X100.911 Y103.111 E5.81288
G1 X100.681 Y103.169 E5.8243
G1 X100.379 Y103.22 E5.83901
G1 X100.016 Y103.242 E5.85652
G1 X99.651 Y103.223 E5.87409
G1 X99.416 Y103.188 E5.8855
G1 X99.118 Y103.12 E5.90021
G1 X98.777 Y103.002 E5.91757
G1 X98.286 Y102.752 E5.94409
G1 X97.991 Y102.545 E5.96142
G1 X97.719 Y102.304 E5.97891
G1 X97.475 Y102.034 E5.99639
G1 X97.265 Y101.741 E6.01373
G1 X97.01 Y101.252 E6.04024
G1 X96.889 Y100.911 E6.05765
G1 X96.831 Y100.681 E6.06907
G1 X96.78 Y100.379 E6.08378
G1 X96.758 Y100.016 E6.10129
G1 X96.777 Y99.651 E6.11886
G1 X96.812 Y99.416 E6.13027
G1 X96.88 Y99.118 E6.14498
G1 X96.998 Y98.777 E6.16234
G1 X97.248 Y98.286 E6.18886
G1 X97.455 Y97.991 E6.20619
G1 X97.671 Y97.747 E6.22183
G1 X98.043 Y97.792 F7800
G1 E4.22183 F2400
G92 E0
G1 X100.91 Y97.834 F7800
G1 E2 F2400
;TYPE:Solid infill
;WIDTH:0.459874
G1 F1200
G1 X101.595 Y98.519 E2.04781
G1 X101.83 Y98.816 E2.06649
G1 X102.016 Y99.173 E2.08634
G1 X102.093 Y99.389 E2.09765
G1 X102.14 Y99.623 E2.10943
G1 X100.372 Y97.856 E2.23275
G1 X100.235 Y97.833 E2.23964
G1 X99.791 Y97.833 E2.26153
G1 X102.168 Y100.211 E2.42741
G1 X102.07 Y100.672 E2.45067
G1 X99.327 Y97.929 E2.64202
G1 X99.173 Y97.984 E2.65011
G1 X98.943 Y98.104 E2.6629
G1 X101.896 Y101.057 E2.86891
G1 X101.841 Y101.166 E2.8749
G1 X101.673 Y101.394 E2.88887
G1 X98.606 Y98.326 E3.10283
G1 X98.327 Y98.607 E3.12234
G1 X101.394 Y101.674 E3.33631
G1 X101.184 Y101.83 E3.34922
G1 X101.057 Y101.896 E3.35628
G1 X98.104 Y98.943 E3.56228
G1 X97.976 Y99.193 E3.57613
G1 X97.93 Y99.328 E3.58318
G1 X100.672 Y102.071 E3.77453
G1 X100.21 Y102.168 E3.79783
G1 X97.832 Y99.789 E3.96376
G1 X97.82 Y100.011 E3.9747
G1 X97.86 Y100.377 E3.99287
G1 X99.623 Y102.14 E4.11584
G1 X99.406 Y102.097 E4.12675
G1 X99.193 Y102.024 E4.13785
G1 X98.834 Y101.841 E4.1577
G1 X98.523 Y101.599 E4.17717
G1 X97.829 Y100.906 E4.22553
M106 S247.35
;LAYER_CHANGE
;Z:1.85
;HEIGHT:0.3
G1 Z1.85 F7800
G1 E2.22553 F2400
G92 E0
G1 X98.7 Y97.575 F7800
G1 E2 F2400
;TYPE:Perimeter
;WIDTH:0.45
G1 F900
G1 X99.077 Y97.404 E2.01994
G1 X99.539 Y97.282 E2.04289
G1 X99.833 Y97.248 E2.05714
G1 X100.285 Y97.257 E2.07889
G1 X100.6 Y97.309 E2.09425
G1 X100.898 Y97.393 E2.10912
G1 X101.171 Y97.505 E2.12332
G1 X101.595 Y97.752 E2.14695
G1 X101.827 Y97.935 E2.16115
G1 X102.047 Y98.153 E2.17602
G1 X102.241 Y98.393 E2.19089
G1 X102.399 Y98.643 E2.20508
G1 X102.602 Y99.09 E2.22871
G1 X102.685 Y99.373 E2.24291
G1 X102.736 Y99.664 E2.25711
G1 X102.752 Y100.155 E2.28073
G1 X102.72 Y100.449 E2.29493
G1 X102.656 Y100.737 E2.30913
G1 X102.488 Y101.183 E2.33208
G1 X102.248 Y101.595 E2.35503
G1 X102.065 Y101.827 E2.36923
G1 X101.847 Y102.047 E2.3841
G1 X101.607 Y102.241 E2.39897
G1 X101.357 Y102.399 E2.41317
G1 X100.91 Y102.602 E2.4368
G1 X100.627 Y102.685 E2.45099
G1 X100.336 Y102.736 E2.46519
G1 X99.845 Y102.752 E2.48882
G1 X99.551 Y102.72 E2.50301
G1 X99.263 Y102.656 E2.51721
G1 X98.817 Y102.488 E2.54016
G1 X98.405 Y102.248 E2.56312
G1 X98.173 Y102.065 E2.57731
G1 X97.953 Y101.847 E2.59218
G1 X97.759 Y101.607 E2.60705
G1 X97.601 Y101.357 E2.62125
G1 X97.398 Y100.91 E2.64488
G1 X97.315 Y100.627 E2.65908
G1 X97.264 Y100.336 E2.67327
G1 X97.248 Y99.845 E2.6969
G1 X97.28 Y99.551 E2.7111
G1 X97.344 Y99.263 E2.72529
G1 X97.512 Y98.817 E2.74825
G1 X97.752 Y98.405 E2.7712
G1 X97.935 Y98.173 E2.78539
G1 X98.153 Y97.953 E2.80027
G1 X98.393 Y97.759 E2.81514
G1 X98.645 Y97.6 E2.82946
G1 X98.085 Y97.512 F7800
G1 F900
G1 X98.459 Y97.261 E2.85113
G1 X98.948 Y97.039 E2.87695
G1 X99.467 Y96.903 E2.90277
G1 X99.809 Y96.862 E2.91934
G1 X100.33 Y96.874 E2.94442
G1 X100.684 Y96.932 E2.96168
G1 X101.024 Y97.028 E2.97864
G1 X101.342 Y97.158 E2.99518
G1 X101.813 Y97.433 E3.02141
G1 X102.083 Y97.646 E3.03795
G1 X102.334 Y97.894 E3.05491
G1 X102.555 Y98.168 E3.07186
G1 X102.739 Y98.459 E3.0884
G1 X102.964 Y98.956 E3.11463
G1 X103.061 Y99.286 E3.13118
G1 X103.12 Y99.624 E3.14772
G1 X103.138 Y100.169 E3.17395
G1 X103.102 Y100.511 E3.19049
G1 X103.027 Y100.847 E3.20703
G1 X102.838 Y101.349 E3.23285
G1 X102.567 Y101.813 E3.25867
G1 X102.354 Y102.083 E3.27521
G1 X102.106 Y102.334 E3.29217
G1 X101.832 Y102.555 E3.30912
G1 X101.541 Y102.739 E3.32566
G1 X101.044 Y102.964 E3.3519
G1 X100.714 Y103.061 E3.36844
G1 X100.376 Y103.12 E3.38498
G1 X99.831 Y103.138 E3.41121
G1 X99.489 Y103.102 E3.42775
G1 X99.153 Y103.027 E3.44429
G1 X98.651 Y102.838 E3.47011
G1 X98.187 Y102.567 E3.49593
G1 X97.917 Y102.354 E3.51247
G1 X97.666 Y102.106 E3.52943
G1 X97.445 Y101.832 E3.54638
G1 X97.261 Y101.541 E3.56292
G1 X97.036 Y101.044 E3.58916
G1 X96.939 Y100.714 E3.6057
G1 X96.88 Y100.376 E3.62224
G1 X96.862 Y99.831 E3.64847
G1 X96.898 Y99.489 E3.66501
G1 X96.973 Y99.153 E3.68155
G1 X97.162 Y98.651 E3.70737
G1 X97.433 Y98.187 E3.73319
G1 X97.646 Y97.917 E3.74973
G1 X97.894 Y97.666 E3.76669
G1 X98.038 Y97.55 E3.77561
G1 X97.511 Y97.505 F7800
;TYPE:External perimeter
G1 F900
G1 X97.635 Y97.38 E3.78408
G1 X97.943 Y97.131 E3.80312
G1 X98.275 Y96.921 E3.822
G1 X98.818 Y96.675 E3.85069
G1 X99.395 Y96.523 E3.87938
G1 X99.785 Y96.477 E3.89828
G1 X100.376 Y96.49 E3.92669
G1 X100.769 Y96.555 E3.94584
G1 X101.149 Y96.663 E3.96488
G1 X101.513 Y96.811 E3.98376
G1 X102.031 Y97.113 E4.0126
G1 X102.339 Y97.357 E4.03149
G1 X102.62 Y97.635 E4.05052
G1 X102.869 Y97.943 E4.06956
G1 X103.079 Y98.275 E4.08845
G1 X103.327 Y98.821 E4.11728
G1 X103.437 Y99.198 E4.13617
G1 X103.505 Y99.585 E4.15506
G1 X103.525 Y100.184 E4.1839
G1 X103.483 Y100.574 E4.20278
G1 X103.397 Y100.957 E4.22167
G1 X103.187 Y101.516 E4.25035
G1 X102.887 Y102.031 E4.27904
G1 X102.643 Y102.339 E4.29792
G1 X102.365 Y102.62 E4.31696
G1 X102.057 Y102.869 E4.336
G1 X101.725 Y103.079 E4.35488
G1 X101.179 Y103.327 E4.38372
G1 X100.802 Y103.437 E4.40261
G1 X100.415 Y103.505 E4.42149
G1 X99.816 Y103.525 E4.45033
G1 X99.426 Y103.483 E4.46922
G1 X99.043 Y103.397 E4.4881
G1 X98.484 Y103.187 E4.51679
G1 X97.969 Y102.887 E4.54548
G1 X97.661 Y102.643 E4.56436
G1 X97.38 Y102.365 E4.5834
G1 X97.131 Y102.057 E4.60244
G1 X96.921 Y101.725 E4.62132
G1 X96.673 Y101.179 E4.65016
G1 X96.563 Y100.802 E4.66905
G1 X96.495 Y100.415 E4.68793
G1 X96.475 Y99.816 E4.71677
G1 X96.517 Y99.426 E4.73566
G1 X96.603 Y99.043 E4.75454
G1 X96.813 Y98.484 E4.78323
G1 X97.113 Y97.969 E4.81191
G1 X97.357 Y97.661 E4.8308
G1 X97.469 Y97.548 E4.83847
G1 X97.683 Y97.546 F7800
G1 E2.83847 F2400
G92 E0
G1 X102.412 Y101.056 F7800
G1 E2 F2400
;TYPE:Solid infill
;WIDTH:0.473174
G1 F1200
G1 X101.569 Y101.9 E2.06081
G1 X101.438 Y102.005 E2.06941
G1 X101.219 Y102.144 E2.08259
G1 X100.809 Y102.33 E2.10557
G1 X100.472 Y102.418 E2.12333
G1 X102.419 Y100.472 E2.26372
G1 X102.462 Y100.144 E2.28055
G1 X102.453 Y99.859 E2.29508
G1 X99.851 Y102.462 E2.48273
G1 X99.599 Y102.435 E2.49565
G1 X99.354 Y102.38 E2.50842
G1 X102.378 Y99.356 E2.72649
G1 X102.33 Y99.191 E2.73525
G1 X102.216 Y98.94 E2.74931
G1 X98.934 Y102.222 E2.98596
G1 X98.569 Y102.009 E3.00752
G1 X102.009 Y98.569 E3.25559
G1 X101.742 Y98.258 E3.27649
G1 X98.258 Y101.742 E3.52772
G1 X97.991 Y101.431 E3.54862
G1 X101.431 Y97.991 E3.79669
G1 X101.066 Y97.778 E3.81824
G1 X97.784 Y101.06 E4.0549
G1 X97.67 Y100.809 E4.06895
G1 X97.621 Y100.644 E4.07771
G1 X100.644 Y97.622 E4.29564
G1 X100.259 Y97.546 E4.31566
G1 X100.144 Y97.543 E4.3215
G1 X97.547 Y100.14 E4.50876
G1 X97.538 Y99.856 E4.52328
G1 X97.581 Y99.528 E4.54012
G1 X99.524 Y97.585 E4.68022
G1 X99.174 Y97.677 E4.69865
G1 X98.781 Y97.856 E4.7207
G1 X98.562 Y97.995 E4.73389
G1 X98.43 Y98.101 E4.74252
G1 X97.588 Y98.944 E4.80328
M106 S244.8
;LAYER_CHANGE
;Z:2.15
;HEIGHT:0.3
G1 Z2.15 F7800
G1 X98.503 Y97.406
;TYPE:Perimeter
;WIDTH:0.45
G1 F900
G1 X98.825 Y97.239 E4.82075
G1 X99.155 Y97.122 E4.8376
G1 X99.483 Y97.045 E4.85379
G1 X99.822 Y97.005 E4.87021
G1 X100.063 Y97.002 E4.88177
G1 X100.317 Y97.017 E4.89403
G1 X100.658 Y97.073 E4.91066
G1 X101.131 Y97.221 E4.93447
G1 X101.438 Y97.367 E4.95085
G1 X101.736 Y97.552 E4.96771
G1 X102.111 Y97.869 E4.99129
G1 X102.336 Y98.118 E5.00747
G1 X102.532 Y98.392 E5.02365
G1 X102.767 Y98.838 E5.04791
G1 X102.921 Y99.318 E5.07217
G1 X102.979 Y99.65 E5.08835
G1 X103 Y99.985 E5.10453
G1 X102.982 Y100.326 E5.12095
G1 X102.946 Y100.564 E5.13251
G1 X102.888 Y100.812 E5.14478
G1 X102.777 Y101.134 E5.16116
G1 X102.633 Y101.438 E5.17734
G1 X102.448 Y101.736 E5.19419
G1 X102.131 Y102.111 E5.21778
G1 X101.882 Y102.336 E5.23396
G1 X101.608 Y102.532 E5.25014
G1 X101.162 Y102.767 E5.2744
G1 X100.682 Y102.921 E5.29865
G1 X100.35 Y102.979 E5.31483
G1 X100.015 Y103 E5.33101
G1 X99.674 Y102.982 E5.34744
G1 X99.436 Y102.946 E5.359
G1 X99.188 Y102.888 E5.37126
G1 X98.866 Y102.777 E5.38764
G1 X98.562 Y102.633 E5.40383
G1 X98.264 Y102.448 E5.42068
G1 X97.889 Y102.131 E5.44426
G1 X97.664 Y101.882 E5.46044
G1 X97.468 Y101.608 E5.47662
G1 X97.297 Y101.303 E5.49348
G1 X97.177 Y101.018 E5.50832
G1 X97.079 Y100.682 E5.52517
G1 X97.021 Y100.35 E5.54135
G1 X97 Y100.015 E5.55753
G1 X97.018 Y99.674 E5.57395
G1 X97.112 Y99.188 E5.59776
G1 X97.223 Y98.866 E5.61414
G1 X97.367 Y98.562 E5.63032
G1 X97.636 Y98.152 E5.65391
G1 X97.869 Y97.889 E5.67076
G1 X98.118 Y97.664 E5.68694
G1 X98.45 Y97.435 E5.70634
G1 X97.904 Y97.343 F7800
G1 F900
G1 X98.185 Y97.142 E5.72296
G1 X98.523 Y96.952 E5.74163
G1 X99.047 Y96.751 E5.7686
G1 X99.416 Y96.665 E5.78686
G1 X99.797 Y96.62 E5.80528
G1 X100.36 Y96.633 E5.83238
G1 X100.74 Y96.696 E5.85092
G1 X101.005 Y96.768 E5.86412
G1 X101.278 Y96.864 E5.87804
G1 X101.623 Y97.029 E5.89643
G1 X102.092 Y97.337 E5.92339
G1 X102.382 Y97.594 E5.94207
G1 X102.637 Y97.876 E5.96033
G1 X102.858 Y98.185 E5.97859
G1 X103.048 Y98.523 E5.99727
G1 X103.188 Y98.858 E6.01471
G1 X103.297 Y99.23 E6.03339
G1 X103.363 Y99.604 E6.05165
G1 X103.386 Y99.983 E6.06991
G1 X103.366 Y100.366 E6.08832
G1 X103.259 Y100.919 E6.11543
G1 X103.135 Y101.28 E6.13381
G1 X102.971 Y101.623 E6.15208
G1 X102.663 Y102.092 E6.17904
G1 X102.406 Y102.382 E6.19772
G1 X102.124 Y102.637 E6.21598
G1 X101.815 Y102.858 E6.23424
G1 X101.477 Y103.048 E6.25292
G1 X101.142 Y103.188 E6.27036
G1 X100.77 Y103.297 E6.28904
G1 X100.396 Y103.363 E6.3073
G1 X100.017 Y103.386 E6.32556
G1 X99.634 Y103.366 E6.34397
G1 X99.081 Y103.259 E6.37108
G1 X98.72 Y103.135 E6.38946
G1 X98.377 Y102.971 E6.40773
G1 X97.908 Y102.663 E6.43469
G1 X97.618 Y102.406 E6.45337
G1 X97.363 Y102.124 E6.47163
G1 X97.142 Y101.815 E6.4899
G1 X96.952 Y101.477 E6.50857
G1 X96.812 Y101.142 E6.52601
G1 X96.703 Y100.77 E6.54469
G1 X96.637 Y100.396 E6.56295
G1 X96.614 Y100.017 E6.58121
G1 X96.634 Y99.634 E6.59963
G1 X96.741 Y99.081 E6.62673
G1 X96.865 Y98.72 E6.64512
G1 X97.029 Y98.377 E6.66338
G1 X97.337 Y97.908 E6.69035
G1 X97.594 Y97.618 E6.70902
G1 X97.857 Y97.38 E6.72604
G1 X97.346 Y97.322 F7800
;TYPE:External perimeter
G1 F900
G1 X97.634 Y97.062 E6.74468
G1 X97.977 Y96.816 E6.76502
G1 X98.536 Y96.523 E6.79537
G1 X98.938 Y96.38 E6.81587
G1 X99.35 Y96.284 E6.83622
G1 X99.771 Y96.235 E6.85662
G1 X100.08 Y96.23 E6.87146
G1 X100.403 Y96.249 E6.88704
G1 X100.823 Y96.319 E6.90748
G1 X101.426 Y96.507 E6.93788
G1 X101.808 Y96.69 E6.95827
G1 X102.17 Y96.915 E6.97877
G1 X102.654 Y97.32 E7.00912
G1 X102.938 Y97.634 E7.02946
G1 X103.184 Y97.977 E7.04981
G1 X103.478 Y98.539 E7.08031
G1 X103.673 Y99.143 E7.11081
G1 X103.746 Y99.559 E7.13115
G1 X103.772 Y99.982 E7.1515
G1 X103.75 Y100.405 E7.1719
G1 X103.703 Y100.71 E7.18674
G1 X103.63 Y101.026 E7.20232
G1 X103.492 Y101.426 E7.22271
G1 X103.31 Y101.808 E7.24306
G1 X103.085 Y102.17 E7.26356
G1 X102.68 Y102.654 E7.2939
G1 X102.366 Y102.938 E7.31425
G1 X102.023 Y103.184 E7.3346
G1 X101.461 Y103.478 E7.3651
G1 X100.857 Y103.673 E7.39559
G1 X100.441 Y103.746 E7.41594
G1 X100.018 Y103.772 E7.43629
G1 X99.595 Y103.75 E7.45669
G1 X99.29 Y103.703 E7.47153
G1 X98.974 Y103.63 E7.48711
G1 X98.574 Y103.492 E7.5075
G1 X98.192 Y103.31 E7.52784
G1 X97.83 Y103.085 E7.54834
G1 X97.346 Y102.68 E7.57869
G1 X97.062 Y102.366 E7.59903
G1 X96.816 Y102.023 E7.61938
G1 X96.522 Y101.461 E7.64988
G1 X96.327 Y100.857 E7.68038
G1 X96.254 Y100.441 E7.70073
G1 X96.228 Y100.018 E7.72107
G1 X96.25 Y99.595 E7.74147
G1 X96.297 Y99.29 E7.75631
G1 X96.37 Y98.974 E7.77189
G1 X96.508 Y98.574 E7.79228
G1 X96.69 Y98.192 E7.81263
G1 X96.915 Y97.83 E7.83313
G1 X97.303 Y97.364 E7.8623
G1 X97.721 Y97.418 F7800
G1 E5.8623 F2400
G92 E0
G1 X102.613 Y98.781 F7800
G1 E2 F2400
;TYPE:Solid infill
;WIDTH:0.451467
G1 F1200
G1 X101.901 Y98.069 E2.04859
G1 X101.672 Y97.867 E2.06333
G1 X101.296 Y97.62 E2.08504
G1 X101.02 Y97.489 E2.09981
G1 X100.657 Y97.372 E2.11822
G1 X102.627 Y99.342 E2.25273
G1 X102.692 Y99.683 E2.26948
G1 X102.709 Y99.972 E2.28344
G1 X100.037 Y97.3 E2.46592
G1 X99.836 Y97.295 E2.47562
G1 X99.523 Y97.333 E2.49085
G1 X102.66 Y100.47 E2.70505
G1 X102.608 Y100.737 E2.71819
G1 X102.549 Y100.907 E2.72687
G1 X99.096 Y97.454 E2.96264
G1 X98.714 Y97.619 E2.98275
G1 X102.383 Y101.289 E3.23329
G1 X102.167 Y101.62 E3.25239
G1 X98.38 Y97.832 E3.51101
G1 X98.084 Y98.084 E3.52976
G1 X101.916 Y101.916 E3.79137
G1 X101.62 Y102.168 E3.81012
G1 X97.832 Y98.38 E4.06874
G1 X97.617 Y98.711 E4.08784
G1 X101.286 Y102.381 E4.33838
G1 X101.176 Y102.443 E4.3445
G1 X100.91 Y102.553 E4.35836
G1 X97.451 Y99.093 E4.59458
G1 X97.392 Y99.263 E4.60325
G1 X97.34 Y99.53 E4.6164
G1 X100.474 Y102.664 E4.83037
G1 X100.317 Y102.692 E4.8381
G1 X99.971 Y102.708 E4.85482
G1 X97.291 Y100.028 E5.03779
G1 X97.308 Y100.317 E5.05175
G1 X97.373 Y100.658 E5.06851
G1 X99.338 Y102.622 E5.20265
G1 X98.975 Y102.509 E5.221
G1 X98.704 Y102.38 E5.23551
G1 X98.328 Y102.133 E5.25722
G1 X98.098 Y101.93 E5.27204
G1 X97.388 Y101.22 E5.32054
M106 S242.25
;LAYER_CHANGE
;Z:2.45
;HEIGHT:0.3
G1 Z2.45 F7800
G1 E3.32054 F2400
G92 E0
G1 X98.353 Y97.25 F7800
G1 E2 F2400
;TYPE:Perimeter
;WIDTH:0.45
G1 F900
G1 X98.757 Y97.041 E2.0219
G1 X99.096 Y96.921 E2.03921
G1 X99.447 Y96.839 E2.05652
G1 X100.004 Y96.791 E2.08341
G1 X100.342 Y96.809 E2.09971
G1 X100.86 Y96.907 E2.12505
G1 X101.214 Y97.029 E2.14303
G1 X101.539 Y97.184 E2.16034
G1 X101.978 Y97.472 E2.18562
G1 X102.258 Y97.72 E2.2036
G1 X102.506 Y97.994 E2.2214
G1 X102.801 Y98.433 E2.2468
G1 X102.959 Y98.757 E2.26417
G1 X103.079 Y99.096 E2.28148
G1 X103.186 Y99.611 E2.30676
G1 X103.206 Y100.15 E2.33272
G1 X103.166 Y100.522 E2.3507
G1 X103.088 Y100.873 E2.36801
G1 X102.971 Y101.214 E2.38532
G1 X102.816 Y101.539 E2.40263
G1 X102.528 Y101.978 E2.42791
G1 X102.28 Y102.258 E2.44589
G1 X102.006 Y102.506 E2.46368
G1 X101.567 Y102.801 E2.48909
G1 X101.243 Y102.959 E2.50646
G1 X100.904 Y103.079 E2.52377
G1 X100.389 Y103.186 E2.54905
G1 X99.85 Y103.206 E2.575
G1 X99.478 Y103.166 E2.59298
G1 X99.127 Y103.088 E2.61029
G1 X98.786 Y102.971 E2.6276
G1 X98.461 Y102.816 E2.64491
G1 X98.022 Y102.528 E2.67019
G1 X97.742 Y102.28 E2.68817
G1 X97.494 Y102.006 E2.70596
G1 X97.199 Y101.567 E2.73137
G1 X97.041 Y101.243 E2.74874
G1 X96.921 Y100.904 E2.76605
G1 X96.814 Y100.389 E2.79133
G1 X96.794 Y99.85 E2.81729
G1 X96.834 Y99.478 E2.83527
G1 X96.912 Y99.127 E2.85258
G1 X97.029 Y98.786 E2.86989
G1 X97.184 Y98.461 E2.8872
G1 X97.472 Y98.022 E2.91247
G1 X97.72 Y97.742 E2.93046
G1 X97.994 Y97.494 E2.94825
G1 X98.302 Y97.282 E2.96623
G1 X97.762 Y97.186 F7800
G1 F900
G1 X98.245 Y96.862 E2.99418
G1 X98.608 Y96.685 E3.01361
G1 X98.988 Y96.55 E3.03301
G1 X99.38 Y96.458 E3.0524
G1 X99.787 Y96.411 E3.07209
G1 X100.384 Y96.425 E3.10082
G1 X100.97 Y96.537 E3.12952
G1 X101.36 Y96.672 E3.14933
G1 X101.724 Y96.845 E3.16872
G1 X102.221 Y97.172 E3.19738
G1 X102.53 Y97.445 E3.21719
G1 X102.804 Y97.749 E3.23687
G1 X103.138 Y98.245 E3.26561
G1 X103.315 Y98.608 E3.28504
G1 X103.45 Y98.988 E3.30444
G1 X103.57 Y99.571 E3.3331
G1 X103.596 Y99.991 E3.35331
G1 X103.548 Y100.585 E3.38197
G1 X103.46 Y100.978 E3.40137
G1 X103.328 Y101.36 E3.42076
G1 X103.155 Y101.724 E3.44015
G1 X102.828 Y102.221 E3.46881
G1 X102.555 Y102.53 E3.48862
G1 X102.251 Y102.804 E3.5083
G1 X101.755 Y103.138 E3.53704
G1 X101.392 Y103.315 E3.55647
G1 X101.012 Y103.45 E3.57587
G1 X100.429 Y103.57 E3.60453
G1 X100.009 Y103.596 E3.62474
G1 X99.415 Y103.548 E3.6534
G1 X99.022 Y103.46 E3.6728
G1 X98.64 Y103.328 E3.69219
G1 X98.276 Y103.155 E3.71158
G1 X97.779 Y102.828 E3.74024
G1 X97.47 Y102.555 E3.76005
G1 X97.196 Y102.251 E3.77974
G1 X96.862 Y101.755 E3.80847
G1 X96.685 Y101.392 E3.8279
G1 X96.55 Y101.012 E3.8473
G1 X96.43 Y100.429 E3.87596
G1 X96.408 Y99.825 E3.90503
G1 X96.452 Y99.415 E3.92484
G1 X96.54 Y99.022 E3.94423
G1 X96.672 Y98.64 E3.96362
G1 X96.845 Y98.276 E3.98301
G1 X97.172 Y97.779 E4.01167
G1 X97.445 Y97.47 E4.03148
G1 X97.717 Y97.225 E4.04906
G1 X97.206 Y97.167 F7800
;TYPE:External perimeter
G1 F900
G1 X97.504 Y96.898 E4.06837
G1 X97.709 Y96.745 E4.08068
G1 X98.057 Y96.525 E4.10047
G1 X98.458 Y96.329 E4.12196
G1 X98.879 Y96.179 E4.14343
G1 X99.314 Y96.078 E4.16491
G1 X99.76 Y96.025 E4.18649
G1 X100.015 Y96.019 E4.19879
G1 X100.426 Y96.041 E4.21858
G1 X100.87 Y96.114 E4.24023
G1 X101.506 Y96.314 E4.27227
G1 X101.909 Y96.506 E4.29374
G1 X102.291 Y96.743 E4.31537
G1 X102.802 Y97.171 E4.34741
G1 X103.102 Y97.504 E4.369
G1 X103.255 Y97.709 E4.3813
G1 X103.475 Y98.057 E4.40109
G1 X103.671 Y98.458 E4.42258
G1 X103.821 Y98.879 E4.44406
G1 X103.923 Y99.317 E4.46568
G1 X103.982 Y99.984 E4.49788
G1 X103.929 Y100.648 E4.52992
G1 X103.831 Y101.084 E4.55139
G1 X103.686 Y101.506 E4.57287
G1 X103.494 Y101.909 E4.59434
G1 X103.257 Y102.291 E4.61597
G1 X102.829 Y102.802 E4.64801
G1 X102.496 Y103.102 E4.6696
G1 X102.291 Y103.255 E4.6819
G1 X101.943 Y103.475 E4.70169
G1 X101.542 Y103.671 E4.72318
G1 X101.121 Y103.821 E4.74466
G1 X100.683 Y103.923 E4.76628
G1 X100.016 Y103.982 E4.79848
G1 X99.352 Y103.929 E4.83052
G1 X98.916 Y103.831 E4.85199
G1 X98.494 Y103.686 E4.87347
G1 X98.091 Y103.494 E4.89494
G1 X97.709 Y103.257 E4.91657
G1 X97.198 Y102.829 E4.94861
G1 X96.898 Y102.496 E4.9702
G1 X96.745 Y102.291 E4.9825
G1 X96.525 Y101.943 E5.00229
G1 X96.329 Y101.542 E5.02378
G1 X96.179 Y101.121 E5.04526
G1 X96.077 Y100.683 E5.06688
G1 X96.018 Y100.016 E5.09908
G1 X96.071 Y99.352 E5.13112
G1 X96.169 Y98.916 E5.15259
G1 X96.314 Y98.494 E5.17407
G1 X96.506 Y98.091 E5.19554
G1 X96.743 Y97.709 E5.21717
G1 X97.162 Y97.208 E5.2486
G1 X97.593 Y97.266 F7800
G1 E3.2486 F2400
G92 E0
G1 X101.347 Y102.779 F7800
G1 E2 F2400
;TYPE:Solid infill
;WIDTH:0.453444
G1 F1200
G1 X102.083 Y102.043 E2.05049
G1 X102.384 Y101.686 E2.07318
G1 X102.562 Y101.4 E2.08952
G1 X102.703 Y101.104 E2.10541
G1 X102.817 Y100.759 E2.12305
G1 X100.76 Y102.816 E2.26421
G1 X100.494 Y102.878 E2.27748
G1 X100.116 Y102.91 E2.2959
G1 X102.916 Y100.11 E2.48803
G1 X102.886 Y99.589 E2.51335
G1 X99.588 Y102.887 E2.73969
G1 X99.139 Y102.786 E2.76203
G1 X102.787 Y99.138 E3.01239
G1 X102.631 Y98.745 E3.03295
G1 X98.745 Y102.631 E3.29965
G1 X98.392 Y102.433 E3.31926
G1 X102.428 Y98.397 E3.59622
G1 X102.194 Y98.081 E3.61531
G1 X98.084 Y102.191 E3.89737
G1 X97.947 Y102.075 E3.90609
G1 X97.811 Y101.914 E3.91631
G1 X101.919 Y97.806 E4.19825
G1 X101.802 Y97.702 E4.20583
G1 X101.603 Y97.572 E4.21739
G1 X97.567 Y101.608 E4.49435
G1 X97.369 Y101.255 E4.51396
G1 X101.255 Y97.369 E4.78065
G1 X100.861 Y97.213 E4.80123
G1 X97.213 Y100.861 E5.05158
G1 X97.115 Y100.409 E5.07404
G1 X100.408 Y97.116 E5.30004
G1 X100.312 Y97.098 E5.3048
G1 X99.887 Y97.087 E5.32541
G1 X97.082 Y99.892 E5.51791
G1 X97.119 Y99.525 E5.5358
G1 X97.183 Y99.241 E5.54994
G1 X99.239 Y97.184 E5.69105
G1 X98.87 Y97.308 E5.70996
G1 X98.577 Y97.451 E5.72573
G1 X98.173 Y97.723 E5.7494
G1 X97.221 Y98.652 E5.81395
M106 S239.7
;LAYER_CHANGE
;Z:2.75
;HEIGHT:0.3
G1 Z2.75 F7800
G1 X98.247 Y97.105
;TYPE:Perimeter
;WIDTH:0.45
G1 F900
G1 X98.515 Y96.955 E5.82871
G1 X98.878 Y96.802 E5.84766
G1 X99.416 Y96.663 E5.87439
G1 X99.794 Y96.618 E5.89269
G1 X100.171 Y96.616 E5.91082
G1 X100.738 Y96.693 E5.93833
G1 X101.103 Y96.797 E5.9566
G1 X101.455 Y96.94 E5.97487
G1 X101.788 Y97.123 E5.99314
G1 X102.1 Y97.341 E6.01144
G1 X102.382 Y97.591 E6.02958
G1 X102.508 Y97.721 E6.03826
G1 X102.853 Y98.171 E6.06556
G1 X103.045 Y98.515 E6.08451
G1 X103.192 Y98.865 E6.10278
G1 X103.299 Y99.23 E6.12108
G1 X103.382 Y99.781 E6.14787
G1 X103.383 Y100.173 E6.16672
G1 X103.31 Y100.724 E6.19345
G1 X103.203 Y101.103 E6.21239
G1 X103.06 Y101.455 E6.23067
G1 X102.877 Y101.788 E6.24894
G1 X102.659 Y102.1 E6.26724
G1 X102.409 Y102.382 E6.28538
G1 X102.279 Y102.508 E6.29405
G1 X101.829 Y102.853 E6.32135
G1 X101.485 Y103.045 E6.3403
G1 X101.135 Y103.192 E6.35857
G1 X100.77 Y103.299 E6.37687
G1 X100.219 Y103.382 E6.40367
G1 X99.827 Y103.383 E6.42252
G1 X99.276 Y103.31 E6.44924
G1 X98.897 Y103.203 E6.46819
G1 X98.545 Y103.06 E6.48646
G1 X98.212 Y102.877 E6.50474
G1 X97.9 Y102.659 E6.52304
G1 X97.618 Y102.409 E6.54117
G1 X97.492 Y102.279 E6.54985
G1 X97.147 Y101.829 E6.57715
G1 X96.955 Y101.485 E6.5961
G1 X96.808 Y101.135 E6.61437
G1 X96.701 Y100.77 E6.63267
G1 X96.618 Y100.219 E6.65946
G1 X96.617 Y99.827 E6.67831
G1 X96.69 Y99.276 E6.70504
G1 X96.797 Y98.897 E6.72399
G1 X96.94 Y98.545 E6.74226
G1 X97.123 Y98.212 E6.76053
G1 X97.341 Y97.9 E6.77883
G1 X97.721 Y97.492 E6.80562
G1 X98.195 Y97.134 E6.83421
G1 X97.651 Y97.054 F7800
G1 F900
G1 X97.969 Y96.818 E6.85323
G1 X98.346 Y96.608 E6.874
G1 X98.929 Y96.38 E6.9041
G1 X99.35 Y96.282 E6.92487
G1 X99.77 Y96.233 E6.94524
G1 X100.397 Y96.246 E6.97539
G1 X100.822 Y96.316 E6.9961
G1 X101.229 Y96.432 E7.01646
G1 X101.621 Y96.592 E7.03681
G1 X101.992 Y96.795 E7.05717
G1 X102.339 Y97.038 E7.07754
G1 X102.797 Y97.466 E7.10769
G1 X103.182 Y97.969 E7.13815
G1 X103.392 Y98.346 E7.15892
G1 X103.556 Y98.736 E7.17928
G1 X103.675 Y99.142 E7.19965
G1 X103.747 Y99.55 E7.21957
G1 X103.767 Y99.763 E7.22982
G1 X103.769 Y100.193 E7.25053
G1 X103.686 Y100.814 E7.28063
G1 X103.568 Y101.229 E7.3014
G1 X103.408 Y101.621 E7.32176
G1 X103.205 Y101.992 E7.34211
G1 X102.962 Y102.339 E7.36249
G1 X102.534 Y102.797 E7.39264
G1 X102.031 Y103.182 E7.42309
G1 X101.654 Y103.392 E7.44386
G1 X101.264 Y103.556 E7.46422
G1 X100.858 Y103.675 E7.48459
G1 X100.45 Y103.747 E7.50451
G1 X100.237 Y103.767 E7.51476
G1 X99.807 Y103.769 E7.53547
G1 X99.186 Y103.686 E7.56558
G1 X98.771 Y103.568 E7.58635
G1 X98.379 Y103.408 E7.6067
G1 X98.008 Y103.205 E7.62706
G1 X97.661 Y102.962 E7.64743
G1 X97.203 Y102.534 E7.67758
G1 X96.818 Y102.031 E7.70804
G1 X96.608 Y101.654 E7.72881
G1 X96.444 Y101.264 E7.74916
G1 X96.325 Y100.858 E7.76954
G1 X96.253 Y100.45 E7.78946
G1 X96.233 Y100.237 E7.79971
G1 X96.231 Y99.807 E7.82042
G1 X96.314 Y99.186 E7.85052
G1 X96.432 Y98.771 E7.87129
G1 X96.592 Y98.379 E7.89165
G1 X96.795 Y98.008 E7.912
G1 X97.038 Y97.661 E7.93238
G1 X97.312 Y97.351 E7.9523
G1 X97.604 Y97.091 E7.97109
G1 X97.081 Y97.037 F7800
;TYPE:External perimeter
G1 F900
G1 X97.578 Y96.617 E8.0024
G1 X97.767 Y96.49 E8.01332
G1 X98.177 Y96.261 E8.03591
G1 X98.61 Y96.079 E8.0585
G1 X98.826 Y96.009 E8.06942
G1 X99.283 Y95.902 E8.09201
G1 X99.747 Y95.847 E8.11446
G1 X100.198 Y95.845 E8.13616
G1 X100.443 Y95.863 E8.14798
G1 X100.906 Y95.939 E8.17056
G1 X101.355 Y96.066 E8.19299
G1 X101.787 Y96.243 E8.21543
G1 X102.196 Y96.467 E8.23787
G1 X102.578 Y96.735 E8.26032
G1 X102.916 Y97.033 E8.28202
G1 X103.087 Y97.21 E8.29385
G1 X103.383 Y97.578 E8.31657
G1 X103.51 Y97.767 E8.32749
G1 X103.739 Y98.177 E8.35008
G1 X103.92 Y98.607 E8.37252
G1 X104.052 Y99.054 E8.39496
G1 X104.13 Y99.499 E8.41667
G1 X104.153 Y99.744 E8.42849
G1 X104.155 Y100.213 E8.45106
G1 X104.105 Y100.68 E8.47365
G1 X104.061 Y100.903 E8.48457
G1 X103.934 Y101.355 E8.50717
G1 X103.757 Y101.787 E8.5296
G1 X103.533 Y102.196 E8.55204
G1 X103.265 Y102.578 E8.57449
G1 X102.967 Y102.916 E8.5962
G1 X102.79 Y103.087 E8.60802
G1 X102.422 Y103.383 E8.63074
G1 X102.233 Y103.51 E8.64166
G1 X101.823 Y103.739 E8.66425
G1 X101.393 Y103.92 E8.68669
G1 X100.946 Y104.052 E8.70914
G1 X100.501 Y104.13 E8.73084
G1 X100.256 Y104.153 E8.74266
G1 X99.787 Y104.155 E8.76523
G1 X99.32 Y104.105 E8.78782
G1 X99.097 Y104.061 E8.79874
G1 X98.645 Y103.934 E8.82134
G1 X98.213 Y103.757 E8.84378
G1 X97.804 Y103.533 E8.86621
G1 X97.422 Y103.265 E8.88866
G1 X97.084 Y102.967 E8.91037
G1 X96.913 Y102.79 E8.92219
G1 X96.617 Y102.422 E8.94491
G1 X96.49 Y102.233 E8.95583
G1 X96.261 Y101.823 E8.97842
G1 X96.08 Y101.393 E9.00086
G1 X95.948 Y100.946 E9.02331
G1 X95.87 Y100.501 E9.04501
G1 X95.847 Y100.256 E9.05683
G1 X95.845 Y99.787 E9.0794
G1 X95.895 Y99.32 E9.10199
G1 X95.939 Y99.097 E9.11292
G1 X96.066 Y98.645 E9.13551
G1 X96.243 Y98.213 E9.15795
G1 X96.467 Y97.804 E9.18039
G1 X96.735 Y97.422 E9.20283
G1 X97.038 Y97.079 E9.22486
G1 X97.466 Y97.148 F7800
G1 E7.22486 F2400
G92 E0
G1 X101.441 Y97.065 F7800
G1 E2 F2400
;TYPE:Solid infill
;WIDTH:0.451219
G1 F1200
G1 X102.294 Y97.917 E2.05817
G1 X102.611 Y98.331 E2.0833
G1 X102.785 Y98.642 E2.10052
G1 X102.919 Y98.962 E2.11728
G1 X102.972 Y99.143 E2.12635
G1 X100.857 Y97.028 E2.27068
G1 X100.675 Y96.976 E2.27983
G1 X100.324 Y96.918 E2.29696
G1 X100.198 Y96.916 E2.30305
G1 X103.082 Y99.8 E2.49981
G1 X103.094 Y100.159 E2.51717
G1 X103.07 Y100.335 E2.52573
G1 X99.661 Y96.925 E2.7584
G1 X99.47 Y96.948 E2.76767
G1 X99.205 Y97.016 E2.78088
G1 X102.988 Y100.8 E3.03906
G1 X102.848 Y101.207 E3.05983
G1 X98.793 Y97.152 E3.33654
G1 X98.429 Y97.335 E3.35621
G1 X102.666 Y101.572 E3.64535
G1 X102.446 Y101.899 E3.66437
G1 X98.107 Y97.56 E3.96042
G1 X97.916 Y97.707 E3.97206
G1 X97.815 Y97.815 E3.97919
G1 X102.185 Y102.185 E4.27732
G1 X102.084 Y102.293 E4.28445
G1 X101.892 Y102.44 E4.29609
G1 X97.554 Y98.101 E4.59214
G1 X97.334 Y98.428 E4.61116
G1 X101.571 Y102.666 E4.9003
G1 X101.207 Y102.848 E4.91996
G1 X97.152 Y98.793 E5.19668
G1 X97.012 Y99.2 E5.21745
G1 X100.801 Y102.989 E5.47598
G1 X100.342 Y103.077 E5.49852
G1 X96.93 Y99.665 E5.73134
G1 X96.906 Y99.841 E5.73991
G1 X96.918 Y100.201 E5.75726
G1 X99.807 Y103.089 E5.95436
G1 X99.334 Y103.026 E5.97734
G1 X99.143 Y102.972 E5.98695
G1 X97.028 Y100.857 E6.13126
G1 X97.081 Y101.038 E6.14032
G1 X97.215 Y101.358 E6.15709
G1 X97.389 Y101.669 E6.1743
G1 X97.707 Y102.083 E6.19947
G1 X98.558 Y102.935 E6.25759
;LAYER_CHANGE
;Z:3.05
;HEIGHT:0.3
G1 Z3.05 F7800
G1 E4.25759 F2400
G92 E0
G1 X98.153 Y96.985 F7800
G1 E2 F2400
;TYPE:Perimeter
;WIDTH:0.45
G1 F900
G1 X98.449 Y96.82 E2.0163
G1 X98.817 Y96.665 E2.03549
G1 X99.382 Y96.516 E2.06361
G1 X99.787 Y96.468 E2.08319
G1 X100.133 Y96.465 E2.09986
G1 X100.371 Y96.481 E2.11133
G1 X100.77 Y96.547 E2.13079
G1 X101.152 Y96.655 E2.14988
G1 X101.532 Y96.81 E2.16963
G1 X102.033 Y97.104 E2.19757
G1 X102.345 Y97.35 E2.21665
G1 X102.637 Y97.639 E2.23641
G1 X102.987 Y98.103 E2.26435
G1 X103.18 Y98.449 E2.28343
G1 X103.335 Y98.817 E2.30262
G1 X103.484 Y99.382 E2.33074
G1 X103.532 Y99.784 E2.35021
G1 X103.533 Y100.181 E2.36929
G1 X103.491 Y100.576 E2.38838
G1 X103.402 Y100.976 E2.40813
G1 X103.19 Y101.532 E2.43674
G1 X102.896 Y102.033 E2.46468
G1 X102.65 Y102.345 E2.48377
G1 X102.361 Y102.637 E2.50352
G1 X101.897 Y102.987 E2.53146
G1 X101.551 Y103.18 E2.55054
G1 X101.183 Y103.335 E2.56974
G1 X100.618 Y103.484 E2.59786
G1 X100.216 Y103.532 E2.61732
G1 X99.819 Y103.533 E2.63641
G1 X99.424 Y103.491 E2.65549
G1 X99.024 Y103.402 E2.67524
G1 X98.468 Y103.19 E2.70386
G1 X97.967 Y102.896 E2.7318
G1 X97.655 Y102.65 E2.75088
G1 X97.363 Y102.361 E2.77064
G1 X97.013 Y101.897 E2.79858
G1 X96.82 Y101.551 E2.81766
G1 X96.665 Y101.183 E2.83685
G1 X96.516 Y100.618 E2.86497
G1 X96.468 Y100.216 E2.88444
G1 X96.467 Y99.819 E2.90352
G1 X96.509 Y99.424 E2.9226
G1 X96.649 Y98.861 E2.95054
G1 X96.81 Y98.468 E2.97097
G1 X97.104 Y97.967 E2.99891
G1 X97.35 Y97.655 E3.01799
G1 X97.639 Y97.363 E3.03775
G1 X98.101 Y97.015 E3.06558
G1 X97.547 Y96.937 F7800
G1 F900
G1 X97.896 Y96.687 E3.08621
G1 X98.28 Y96.473 E3.10737
G1 X98.687 Y96.302 E3.12861
G1 X99.053 Y96.193 E3.14698
G1 X99.319 Y96.135 E3.16006
G1 X99.762 Y96.083 E3.18153
G1 X100.415 Y96.097 E3.21296
G1 X100.854 Y96.17 E3.23436
G1 X101.278 Y96.29 E3.25552
G1 X101.874 Y96.552 E3.28684
G1 X102.255 Y96.788 E3.30842
G1 X102.601 Y97.061 E3.32959
G1 X103.051 Y97.531 E3.36091
G1 X103.313 Y97.896 E3.38249
G1 X103.527 Y98.28 E3.40365
G1 X103.698 Y98.687 E3.42489
G1 X103.865 Y99.319 E3.45632
G1 X103.917 Y99.761 E3.47772
G1 X103.919 Y100.201 E3.49888
G1 X103.872 Y100.638 E3.52005
G1 X103.774 Y101.076 E3.54163
G1 X103.541 Y101.693 E3.57336
G1 X103.212 Y102.255 E3.60468
G1 X102.939 Y102.601 E3.62585
G1 X102.469 Y103.051 E3.65717
G1 X102.104 Y103.313 E3.67875
G1 X101.72 Y103.527 E3.69991
G1 X101.313 Y103.698 E3.72114
G1 X100.681 Y103.865 E3.75258
G1 X100.239 Y103.917 E3.77398
G1 X99.799 Y103.919 E3.79514
G1 X99.362 Y103.872 E3.81631
G1 X98.924 Y103.774 E3.83789
G1 X98.307 Y103.541 E3.86962
G1 X97.745 Y103.212 E3.90094
G1 X97.399 Y102.939 E3.92211
G1 X96.949 Y102.469 E3.95343
G1 X96.687 Y102.104 E3.975
G1 X96.473 Y101.72 E3.99617
G1 X96.302 Y101.313 E4.0174
G1 X96.135 Y100.681 E4.04883
G1 X96.083 Y100.239 E4.07024
G1 X96.081 Y99.799 E4.0914
G1 X96.128 Y99.362 E4.11257
G1 X96.226 Y98.924 E4.13415
G1 X96.459 Y98.307 E4.16588
G1 X96.788 Y97.745 E4.1972
G1 X97.061 Y97.399 E4.21836
G1 X97.501 Y96.975 E4.24776
G1 X96.978 Y96.935 F7800
;TYPE:External perimeter
G1 F900
G1 X97.293 Y96.645 E4.26837
G1 X97.689 Y96.361 E4.29177
G1 X98.111 Y96.126 E4.31502
G1 X98.557 Y95.938 E4.33829
G1 X98.957 Y95.819 E4.35838
G1 X99.255 Y95.754 E4.37306
G1 X99.738 Y95.697 E4.39642
G1 X100.155 Y95.693 E4.41651
G1 X100.46 Y95.714 E4.43118
G1 X100.939 Y95.793 E4.45452
G1 X101.404 Y95.924 E4.47777
G1 X101.854 Y96.108 E4.50117
G1 X102.064 Y96.215 E4.5125
G1 X102.477 Y96.472 E4.5359
G1 X102.857 Y96.772 E4.55915
G1 X103.202 Y97.114 E4.58255
G1 X103.355 Y97.293 E4.59387
G1 X103.639 Y97.689 E4.61728
G1 X103.874 Y98.111 E4.64052
G1 X104.062 Y98.557 E4.6638
G1 X104.181 Y98.957 E4.68389
G1 X104.246 Y99.255 E4.69856
G1 X104.303 Y99.737 E4.7219
G1 X104.305 Y100.221 E4.74515
G1 X104.253 Y100.701 E4.7684
G1 X104.147 Y101.176 E4.7918
G1 X104.077 Y101.401 E4.80313
G1 X103.892 Y101.854 E4.82668
G1 X103.785 Y102.064 E4.83801
G1 X103.528 Y102.477 E4.86141
G1 X103.228 Y102.857 E4.88466
G1 X102.886 Y103.202 E4.90806
G1 X102.707 Y103.355 E4.91938
G1 X102.311 Y103.639 E4.94279
G1 X101.889 Y103.874 E4.96604
G1 X101.443 Y104.062 E4.98931
G1 X101.043 Y104.181 E5.0094
G1 X100.745 Y104.246 E5.02408
G1 X100.263 Y104.303 E5.04741
G1 X99.779 Y104.305 E5.07066
G1 X99.299 Y104.253 E5.09391
G1 X98.824 Y104.147 E5.11731
G1 X98.599 Y104.077 E5.12864
G1 X98.146 Y103.892 E5.15219
G1 X97.936 Y103.785 E5.16352
G1 X97.523 Y103.528 E5.18692
G1 X97.143 Y103.228 E5.21017
G1 X96.798 Y102.886 E5.23357
G1 X96.645 Y102.707 E5.2449
G1 X96.361 Y102.311 E5.2683
G1 X96.126 Y101.889 E5.29155
G1 X95.938 Y101.443 E5.31482
G1 X95.819 Y101.043 E5.33491
G1 X95.754 Y100.745 E5.34959
G1 X95.697 Y100.263 E5.37292
G1 X95.695 Y99.779 E5.39617
G1 X95.747 Y99.299 E5.41942
G1 X95.853 Y98.824 E5.44282
G1 X95.923 Y98.599 E5.45415
G1 X96.108 Y98.146 E5.4777
G1 X96.215 Y97.936 E5.48903
G1 X96.472 Y97.523 E5.51243
G1 X96.772 Y97.143 E5.53568
G1 X96.936 Y96.978 E5.5469
G1 X97.364 Y97.04 F7800
G1 E3.5469 F2400
G92 E0
G1 X103.075 Y101.5 F7800
G1 E2 F2400
;TYPE:Solid infill
;WIDTH:0.468744
G1 F1200
G1 X102.116 Y102.459 E2.0684
G1 X101.739 Y102.744 E2.09224
G1 X101.424 Y102.92 E2.11043
G1 X101.089 Y103.06 E2.12872
G1 X100.89 Y103.113 E2.13913
G1 X103.128 Y100.875 E2.29874
G1 X103.205 Y100.528 E2.31666
G1 X103.242 Y100.189 E2.33386
G1 X100.189 Y103.242 E2.55161
G1 X99.834 Y103.244 E2.56951
G1 X99.636 Y103.223 E2.57953
G1 X103.223 Y99.636 E2.83534
G1 X103.199 Y99.437 E2.84549
G1 X103.126 Y99.161 E2.85987
G1 X99.153 Y103.134 E3.14326
G1 X98.734 Y102.982 E3.16577
G1 X102.985 Y98.731 E3.46897
G1 X102.793 Y98.35 E3.49045
G1 X98.355 Y102.788 E3.807
G1 X98.13 Y102.656 E3.82015
G1 X98.01 Y102.561 E3.82787
G1 X102.557 Y98.014 E4.15219
G1 X102.418 Y97.83 E4.16383
G1 X102.293 Y97.707 E4.17269
G1 X97.707 Y102.293 E4.49984
G1 X97.582 Y102.17 E4.5087
G1 X97.443 Y101.985 E4.52035
G1 X101.99 Y97.438 E4.84466
G1 X101.65 Y97.207 E4.86542
G1 X97.207 Y101.65 E5.18232
G1 X97.015 Y101.269 E5.20381
G1 X101.265 Y97.02 E5.5069
G1 X101.054 Y96.928 E5.51847
G1 X100.844 Y96.868 E5.52949
G1 X96.874 Y100.839 E5.8127
G1 X96.801 Y100.563 E5.82708
G1 X96.777 Y100.364 E5.83723
G1 X100.367 Y96.773 E6.09329
G1 X99.811 Y96.758 E6.12137
G1 X96.758 Y99.81 E6.33908
G1 X96.795 Y99.472 E6.35627
G1 X96.872 Y99.125 E6.3742
G1 X99.11 Y96.887 E6.5338
G1 X98.911 Y96.94 E6.5442
G1 X98.576 Y97.08 E6.56249
G1 X98.261 Y97.256 E6.58068
G1 X97.884 Y97.541 E6.60455
G1 X96.925 Y98.5 E6.6729
M106 S237.15
;LAYER_CHANGE
;Z:3.35
;HEIGHT:0.3
G1 Z3.35 F7800
G1 X98.061 Y96.892
;TYPE:Perimeter
;WIDTH:0.45
G1 F900
G1 X98.394 Y96.706 E6.69125
G1 X98.776 Y96.545 E6.71121
G1 X99.363 Y96.391 E6.74039
G1 X99.78 Y96.341 E6.76061
G1 X100.099 Y96.337 E6.77596
G1 X100.387 Y96.355 E6.78981
G1 X100.798 Y96.423 E6.80985
G1 X101.193 Y96.535 E6.82961
G1 X101.578 Y96.692 E6.84957
G1 X102.102 Y96.997 E6.87875
G1 X102.429 Y97.255 E6.89878
G1 X102.731 Y97.554 E6.91922
G1 X103.094 Y98.035 E6.94819
G1 X103.294 Y98.394 E6.96795
G1 X103.455 Y98.776 E6.98791
G1 X103.609 Y99.363 E7.01709
G1 X103.658 Y99.777 E7.03712
G1 X103.66 Y100.188 E7.05689
G1 X103.616 Y100.596 E7.07666
G1 X103.527 Y100.997 E7.09642
G1 X103.388 Y101.399 E7.11686
G1 X103.157 Y101.859 E7.1416
G1 X103.003 Y102.102 E7.15546
G1 X102.745 Y102.429 E7.17549
G1 X102.446 Y102.731 E7.19593
G1 X101.965 Y103.094 E7.22489
G1 X101.606 Y103.294 E7.24466
G1 X101.224 Y103.455 E7.26462
G1 X100.637 Y103.609 E7.2938
G1 X100.223 Y103.658 E7.31383
G1 X99.812 Y103.66 E7.3336
G1 X99.404 Y103.616 E7.35336
G1 X99.003 Y103.527 E7.37313
G1 X98.601 Y103.388 E7.39357
G1 X98.141 Y103.157 E7.4183
G1 X97.898 Y103.003 E7.43216
G1 X97.571 Y102.745 E7.45219
G1 X97.269 Y102.446 E7.47263
G1 X96.906 Y101.965 E7.5016
G1 X96.706 Y101.606 E7.52136
G1 X96.545 Y101.224 E7.54132
G1 X96.391 Y100.637 E7.5705
G1 X96.342 Y100.223 E7.59054
G1 X96.34 Y99.812 E7.6103
G1 X96.384 Y99.404 E7.63007
G1 X96.473 Y99.003 E7.64983
G1 X96.612 Y98.601 E7.67028
G1 X96.843 Y98.141 E7.69501
G1 X96.997 Y97.898 E7.70887
G1 X97.255 Y97.571 E7.7289
G1 X97.554 Y97.269 E7.74934
G1 X98.01 Y96.924 E7.77683
G1 X97.456 Y96.847 F7800
G1 F900
G1 X97.828 Y96.58 E7.79882
G1 X98.224 Y96.359 E7.82067
G1 X98.646 Y96.182 E7.84264
G1 X98.984 Y96.08 E7.85964
G1 X99.299 Y96.01 E7.87514
G1 X99.755 Y95.956 E7.89727
G1 X100.109 Y95.952 E7.91427
G1 X100.431 Y95.972 E7.92977
G1 X100.882 Y96.046 E7.95178
G1 X101.319 Y96.17 E7.97363
G1 X101.742 Y96.342 E7.9956
G1 X102.054 Y96.509 E8.0126
G1 X102.325 Y96.683 E8.0281
G1 X102.685 Y96.966 E8.05011
G1 X103.15 Y97.452 E8.08246
G1 X103.42 Y97.828 E8.10472
G1 X103.641 Y98.224 E8.12657
G1 X103.818 Y98.646 E8.14853
G1 X103.92 Y98.984 E8.16554
G1 X103.99 Y99.299 E8.18104
G1 X104.044 Y99.753 E8.20305
G1 X104.046 Y100.207 E8.2249
G1 X103.997 Y100.659 E8.24675
G1 X103.898 Y101.102 E8.2686
G1 X103.662 Y101.734 E8.30106
G1 X103.491 Y102.054 E8.31848
G1 X103.317 Y102.325 E8.33397
G1 X103.034 Y102.685 E8.35598
G1 X102.548 Y103.15 E8.38833
G1 X102.172 Y103.42 E8.41059
G1 X101.776 Y103.641 E8.43244
G1 X101.354 Y103.818 E8.45441
G1 X101.016 Y103.92 E8.47141
G1 X100.701 Y103.99 E8.48691
G1 X100.247 Y104.044 E8.50892
G1 X99.793 Y104.046 E8.53077
G1 X99.341 Y103.997 E8.55262
G1 X98.898 Y103.898 E8.57447
G1 X98.266 Y103.662 E8.60693
G1 X97.946 Y103.491 E8.62435
G1 X97.675 Y103.317 E8.63985
G1 X97.315 Y103.034 E8.66186
G1 X96.85 Y102.548 E8.6942
G1 X96.58 Y102.172 E8.71646
G1 X96.359 Y101.776 E8.73831
G1 X96.182 Y101.354 E8.76028
G1 X96.08 Y101.016 E8.77729
G1 X96.01 Y100.701 E8.79278
G1 X95.956 Y100.247 E8.81479
G1 X95.954 Y99.793 E8.83664
G1 X96.003 Y99.341 E8.85849
G1 X96.102 Y98.898 E8.88034
G1 X96.338 Y98.266 E8.9128
G1 X96.509 Y97.946 E8.93022
G1 X96.683 Y97.675 E8.94572
G1 X96.966 Y97.315 E8.96773
G1 X97.41 Y96.885 E8.99747
G1 X96.888 Y96.846 F7800
;TYPE:External perimeter
G1 F900
G1 X97.214 Y96.546 E9.01876
G1 X97.621 Y96.254 E9.04284
G1 X98.055 Y96.012 E9.06677
G1 X98.515 Y95.819 E9.09075
G1 X98.886 Y95.706 E9.10942
G1 X99.234 Y95.629 E9.12655
G1 X99.73 Y95.571 E9.15059
G1 X100.119 Y95.566 E9.16926
G1 X100.474 Y95.588 E9.18639
G1 X100.966 Y95.669 E9.21038
G1 X101.445 Y95.805 E9.23431
G1 X101.907 Y95.993 E9.25829
G1 X102.249 Y96.176 E9.27696
G1 X102.549 Y96.368 E9.29409
G1 X102.941 Y96.677 E9.31808
G1 X103.296 Y97.029 E9.34217
G1 X103.454 Y97.214 E9.35383
G1 X103.746 Y97.621 E9.37792
G1 X103.988 Y98.055 E9.40185
G1 X104.181 Y98.515 E9.42583
G1 X104.294 Y98.886 E9.4445
G1 X104.371 Y99.234 E9.46163
G1 X104.429 Y99.73 E9.48562
G1 X104.432 Y100.227 E9.50956
G1 X104.378 Y100.722 E9.53349
G1 X104.27 Y101.208 E9.55742
G1 X104.107 Y101.681 E9.58151
G1 X104.008 Y101.904 E9.59322
G1 X103.824 Y102.249 E9.61204
G1 X103.632 Y102.549 E9.62917
G1 X103.323 Y102.941 E9.65316
G1 X102.971 Y103.296 E9.67725
G1 X102.786 Y103.454 E9.68892
G1 X102.379 Y103.746 E9.713
G1 X101.945 Y103.988 E9.73693
G1 X101.485 Y104.181 E9.76091
G1 X101.114 Y104.294 E9.77958
G1 X100.766 Y104.371 E9.79671
G1 X100.27 Y104.429 E9.8207
G1 X99.773 Y104.432 E9.84464
G1 X99.278 Y104.378 E9.86857
G1 X98.792 Y104.27 E9.8925
G1 X98.319 Y104.107 E9.91659
G1 X98.096 Y104.008 E9.9283
G1 X97.751 Y103.824 E9.94712
G1 X97.451 Y103.632 E9.96425
G1 X97.059 Y103.323 E9.98824
G1 X96.704 Y102.971 E10.01233
G1 X96.546 Y102.786 E10.024
G1 X96.254 Y102.379 E10.04808
G1 X96.012 Y101.945 E10.07201
G1 X95.819 Y101.485 E10.09599
G1 X95.706 Y101.114 E10.11466
G1 X95.629 Y100.766 E10.13179
G1 X95.571 Y100.27 E10.15578
G1 X95.568 Y99.773 E10.17972
G1 X95.622 Y99.278 E10.20365
G1 X95.73 Y98.792 E10.22758
G1 X95.893 Y98.319 E10.25167
G1 X95.992 Y98.096 E10.26338
G1 X96.176 Y97.751 E10.2822
G1 X96.368 Y97.451 E10.29933
G1 X96.677 Y97.059 E10.32332
G1 X96.846 Y96.889 E10.33488
G1 X97.274 Y96.951 F7800
G1 E8.33488 F2400
G92 E0
G1 X101.597 Y96.837 F7800
G1 E2 F2400
;TYPE:Solid infill
;WIDTH:0.460348
G1 F1200
G1 X102.535 Y97.775 E2.06554
G1 X102.851 Y98.193 E2.09143
G1 X103.034 Y98.521 E2.10994
G1 X103.18 Y98.87 E2.12863
G1 X103.22 Y99.02 E2.13633
G1 X100.973 Y96.773 E2.29327
G1 X100.735 Y96.706 E2.30548
G1 X100.282 Y96.642 E2.32807
G1 X103.36 Y99.72 E2.54307
G1 X103.359 Y100.279 E2.57068
G1 X99.72 Y96.64 E2.82488
G1 X99.417 Y96.675 E2.83993
G1 X99.242 Y96.722 E2.8489
G1 X103.283 Y100.763 E3.13114
G1 X103.249 Y100.915 E3.13884
G1 X103.147 Y101.187 E3.15319
G1 X98.806 Y96.846 E3.45638
G1 X98.422 Y97.022 E3.47726
G1 X102.975 Y101.575 E3.79526
G1 X102.769 Y101.929 E3.81549
G1 X98.077 Y97.237 E4.14318
G1 X97.758 Y97.478 E4.16292
G1 X102.522 Y102.242 E4.49568
G1 X102.255 Y102.512 E4.51445
G1 X102.242 Y102.522 E4.51524
G1 X97.478 Y97.758 E4.84799
G1 X97.231 Y98.071 E4.86769
G1 X101.923 Y102.763 E5.19537
G1 X101.807 Y102.851 E5.20257
G1 X101.578 Y102.978 E5.21548
G1 X97.025 Y98.425 E5.53349
G1 X96.948 Y98.559 E5.54112
G1 X96.853 Y98.813 E5.55451
G1 X101.194 Y103.154 E5.85769
G1 X100.758 Y103.278 E5.88006
G1 X96.717 Y99.237 E6.16229
G1 X96.67 Y99.451 E6.1731
G1 X96.641 Y99.721 E6.1865
G1 X100.28 Y103.36 E6.4407
G1 X99.719 Y103.359 E6.4684
G1 X96.64 Y100.28 E6.68348
G1 X96.675 Y100.583 E6.69857
G1 X96.78 Y100.98 E6.71884
G1 X99.027 Y103.227 E6.87578
G1 X98.559 Y103.052 E6.90046
G1 X98.061 Y102.763 E6.92889
G1 X97.785 Y102.545 E6.9463
G1 X96.828 Y101.588 E7.01309
M106 S234.6
;LAYER_CHANGE
;Z:3.65
;HEIGHT:0.3
G1 Z3.65 F7800
G1 E5.01309 F2400
G92 E0
G1 X97.953 Y96.836 F7800
G1 E2 F2400
;TYPE:Perimeter
;WIDTH:0.45
G1 F900
G1 X98.527 Y96.529 E2.0313
G1 X98.939 Y96.383 E2.0523
G1 X99.35 Y96.287 E2.07263
G1 X99.776 Y96.236 E2.09324
G1 X100.07 Y96.232 E2.10739
G1 X100.4 Y96.251 E2.12329
G1 X100.821 Y96.321 E2.14381
G1 X101.241 Y96.439 E2.16481
G1 X101.607 Y96.589 E2.18381
G1 X101.99 Y96.798 E2.20481
G1 X102.336 Y97.041 E2.22515
G1 X102.653 Y97.321 E2.24548
G1 X102.936 Y97.635 E2.26581
G1 X103.182 Y97.979 E2.28615
G1 X103.471 Y98.527 E2.31596
G1 X103.617 Y98.939 E2.33697
G1 X103.717 Y99.364 E2.35797
G1 X103.77 Y99.982 E2.38778
G1 X103.748 Y100.404 E2.40812
G1 X103.679 Y100.821 E2.42845
G1 X103.561 Y101.241 E2.44946
G1 X103.411 Y101.607 E2.46845
G1 X103.202 Y101.99 E2.48946
G1 X102.959 Y102.336 E2.50979
G1 X102.679 Y102.653 E2.53013
G1 X102.365 Y102.936 E2.55046
G1 X102.021 Y103.182 E2.57079
G1 X101.473 Y103.471 E2.60061
G1 X101.061 Y103.617 E2.62161
G1 X100.636 Y103.717 E2.64262
G1 X100.018 Y103.77 E2.67243
G1 X99.596 Y103.748 E2.69276
G1 X99.179 Y103.679 E2.7131
G1 X98.759 Y103.561 E2.7341
G1 X98.393 Y103.411 E2.7531
G1 X98.01 Y103.202 E2.77411
G1 X97.664 Y102.959 E2.79444
G1 X97.347 Y102.679 E2.81477
G1 X97.064 Y102.365 E2.8351
G1 X96.818 Y102.021 E2.85544
G1 X96.529 Y101.473 E2.88525
G1 X96.383 Y101.061 E2.90626
G1 X96.283 Y100.636 E2.92726
G1 X96.23 Y100.018 E2.95708
G1 X96.252 Y99.596 E2.97741
G1 X96.321 Y99.179 E2.99774
G1 X96.509 Y98.574 E3.02823
G1 X96.798 Y98.01 E3.05871
G1 X97.041 Y97.664 E3.07904
G1 X97.321 Y97.347 E3.09938
G1 X97.635 Y97.064 E3.11971
G1 X97.905 Y96.871 E3.13566
G1 X97.371 Y96.783 F7800
G1 F900
G1 X97.772 Y96.492 E3.15951
G1 X98.186 Y96.26 E3.18234
G1 X98.83 Y96.012 E3.21554
G1 X99.284 Y95.906 E3.23795
G1 X99.75 Y95.851 E3.26053
G1 X100.078 Y95.846 E3.27632
G1 X100.443 Y95.867 E3.29388
G1 X100.905 Y95.944 E3.31641
G1 X101.362 Y96.073 E3.33924
G1 X101.777 Y96.243 E3.36084
G1 X102.194 Y96.47 E3.38367
G1 X102.575 Y96.738 E3.40608
G1 X102.924 Y97.047 E3.4285
G1 X103.237 Y97.393 E3.45092
G1 X103.508 Y97.772 E3.47333
G1 X103.74 Y98.186 E3.49616
G1 X103.988 Y98.83 E3.52936
G1 X104.127 Y99.506 E3.56255
G1 X104.156 Y99.98 E3.58538
G1 X104.132 Y100.445 E3.60779
G1 X104.056 Y100.905 E3.63021
G1 X103.927 Y101.362 E3.65304
G1 X103.757 Y101.777 E3.67463
G1 X103.53 Y102.194 E3.69746
G1 X103.262 Y102.575 E3.71988
G1 X102.953 Y102.924 E3.7423
G1 X102.607 Y103.237 E3.76471
G1 X102.228 Y103.508 E3.78713
G1 X101.814 Y103.74 E3.80996
G1 X101.17 Y103.988 E3.84315
G1 X100.494 Y104.127 E3.87635
G1 X100.02 Y104.156 E3.89917
G1 X99.555 Y104.132 E3.92159
G1 X99.095 Y104.056 E3.94401
G1 X98.638 Y103.927 E3.96684
G1 X98.223 Y103.757 E3.98843
G1 X97.806 Y103.53 E4.01126
G1 X97.425 Y103.262 E4.03368
G1 X97.076 Y102.953 E4.05609
G1 X96.763 Y102.607 E4.07851
G1 X96.492 Y102.228 E4.10093
G1 X96.26 Y101.814 E4.12375
G1 X96.012 Y101.17 E4.15695
G1 X95.873 Y100.494 E4.19014
G1 X95.844 Y100.02 E4.21297
G1 X95.868 Y99.555 E4.23539
G1 X95.944 Y99.095 E4.2578
G1 X96.073 Y98.638 E4.28063
G1 X96.243 Y98.223 E4.30223
G1 X96.47 Y97.806 E4.32506
G1 X96.738 Y97.425 E4.34747
G1 X97.047 Y97.076 E4.36989
G1 X97.326 Y96.824 E4.38798
G1 X96.815 Y96.765 F7800
;TYPE:External perimeter
G1 F900
G1 X97.151 Y96.463 E4.4097
G1 X97.565 Y96.166 E4.4342
G1 X98.012 Y95.916 E4.45885
G1 X98.238 Y95.813 E4.4708
G1 X98.721 Y95.641 E4.49546
G1 X99.217 Y95.526 E4.51995
G1 X99.724 Y95.466 E4.54451
G1 X100.087 Y95.46 E4.56194
G1 X100.486 Y95.484 E4.58116
G1 X100.989 Y95.567 E4.6057
G1 X101.482 Y95.706 E4.63036
G1 X101.718 Y95.795 E4.64246
G1 X101.948 Y95.896 E4.65456
G1 X102.398 Y96.142 E4.67921
G1 X102.815 Y96.435 E4.70371
G1 X103.196 Y96.772 E4.72821
G1 X103.537 Y97.151 E4.75271
G1 X103.834 Y97.565 E4.77721
G1 X104.084 Y98.012 E4.80186
G1 X104.187 Y98.238 E4.81382
G1 X104.359 Y98.721 E4.83847
G1 X104.475 Y99.22 E4.86312
G1 X104.511 Y99.466 E4.87507
G1 X104.542 Y99.978 E4.89972
G1 X104.516 Y100.486 E4.92422
G1 X104.433 Y100.989 E4.94872
G1 X104.294 Y101.482 E4.97337
G1 X104.205 Y101.718 E4.98547
G1 X104.104 Y101.948 E4.99758
G1 X103.858 Y102.398 E5.02223
G1 X103.565 Y102.815 E5.04673
G1 X103.228 Y103.196 E5.07123
G1 X102.849 Y103.537 E5.09573
G1 X102.435 Y103.834 E5.12023
G1 X101.988 Y104.084 E5.14488
G1 X101.762 Y104.187 E5.15683
G1 X101.279 Y104.359 E5.18148
G1 X100.78 Y104.475 E5.20613
G1 X100.534 Y104.511 E5.21808
G1 X100.022 Y104.542 E5.24273
G1 X99.514 Y104.516 E5.26723
G1 X99.011 Y104.433 E5.29173
G1 X98.518 Y104.294 E5.31639
G1 X98.282 Y104.205 E5.32849
G1 X98.052 Y104.104 E5.34059
G1 X97.602 Y103.858 E5.36524
G1 X97.185 Y103.565 E5.38974
G1 X96.804 Y103.228 E5.41424
G1 X96.463 Y102.849 E5.43874
G1 X96.166 Y102.435 E5.46324
G1 X95.916 Y101.988 E5.48789
G1 X95.813 Y101.762 E5.49985
G1 X95.641 Y101.279 E5.5245
G1 X95.525 Y100.78 E5.54915
G1 X95.489 Y100.534 E5.5611
G1 X95.458 Y100.022 E5.58575
G1 X95.484 Y99.514 E5.61025
G1 X95.567 Y99.011 E5.63475
G1 X95.706 Y98.518 E5.6594
G1 X95.795 Y98.282 E5.6715
G1 X95.896 Y98.052 E5.68361
G1 X96.142 Y97.602 E5.70826
G1 X96.435 Y97.185 E5.73276
G1 X96.771 Y96.806 E5.75715
G1 X97.202 Y96.868 F7800
G1 E3.75715 F2400
G92 E0
G1 X101.682 Y103.239 F7800
G1 E2 F2400
;TYPE:Solid infill
;WIDTH:0.45104
G1 F1200
G1 X102.476 Y102.445 E2.05415
G1 X102.732 Y102.157 E2.07275
G1 X102.956 Y101.837 E2.09158
G1 X103.15 Y101.482 E2.11107
G1 X103.31 Y101.065 E2.13265
G1 X101.07 Y103.304 E2.2854
G1 X100.98 Y103.339 E2.29008
G1 X100.369 Y103.459 E2.32009
G1 X103.46 Y100.367 E2.53094
G1 X103.48 Y99.983 E2.54949
G1 X103.47 Y99.811 E2.55779
G1 X99.811 Y103.47 E2.80731
G1 X99.627 Y103.46 E2.81619
G1 X99.324 Y103.41 E2.83102
G1 X103.403 Y99.331 E3.10924
G1 X103.339 Y99.02 E3.12453
G1 X103.291 Y98.896 E3.13096
G1 X98.89 Y103.297 E3.43112
G1 X98.5 Y103.14 E3.45139
G1 X103.14 Y98.501 E3.7678
G1 X103.133 Y98.483 E3.76872
G1 X102.946 Y98.148 E3.78723
G1 X98.148 Y102.945 E4.11442
G1 X97.828 Y102.718 E4.13333
G1 X102.718 Y97.828 E4.46684
G1 X102.46 Y97.54 E4.48551
G1 X97.54 Y102.46 E4.8211
G1 X97.281 Y102.172 E4.83977
G1 X102.171 Y97.282 E5.17328
G1 X101.852 Y97.055 E5.19219
G1 X97.054 Y101.852 E5.51938
G1 X96.86 Y101.499 E5.5388
G1 X101.5 Y96.86 E5.85521
G1 X101.11 Y96.703 E5.87547
G1 X96.709 Y101.104 E6.17563
G1 X96.661 Y100.98 E6.18205
G1 X96.597 Y100.669 E6.19735
G1 X100.676 Y96.59 E6.47557
G1 X100.373 Y96.54 E6.49038
G1 X100.184 Y96.535 E6.49951
G1 X96.53 Y100.189 E6.74867
G1 X96.52 Y100.017 E6.75697
G1 X96.54 Y99.633 E6.77553
G1 X99.627 Y96.545 E6.9861
G1 X99.4 Y96.572 E6.99711
G1 X98.929 Y96.696 E7.02059
G1 X96.69 Y98.935 E7.17332
G1 X96.85 Y98.518 E7.19489
G1 X97.044 Y98.163 E7.21439
G1 X97.268 Y97.843 E7.23321
G1 X97.525 Y97.553 E7.25189
G1 X98.318 Y96.761 E7.30595
;LAYER_CHANGE
;Z:3.95
;HEIGHT:0.3
G1 Z3.95 F7800
G1 X97.897 Y96.773
;TYPE:Perimeter
;WIDTH:0.45
G1 F900
G1 X98.323 Y96.529 E7.32957
G1 X98.494 Y96.451 E7.33863
G1 X98.915 Y96.302 E7.36009
G1 X99.336 Y96.203 E7.38088
G1 X99.772 Y96.152 E7.40202
G1 X100.044 Y96.147 E7.41511
G1 X100.41 Y96.167 E7.43273
G1 X100.846 Y96.239 E7.454
G1 X101.455 Y96.431 E7.48468
G1 X101.848 Y96.618 E7.5056
G1 X102.221 Y96.85 E7.52674
G1 X102.71 Y97.259 E7.55743
G1 X103.002 Y97.582 E7.57834
G1 X103.253 Y97.933 E7.59913
G1 X103.549 Y98.494 E7.62963
G1 X103.701 Y98.922 E7.65144
G1 X103.767 Y99.186 E7.66453
G1 X103.828 Y99.547 E7.68215
G1 X103.854 Y99.981 E7.70307
G1 X103.832 Y100.42 E7.7242
G1 X103.791 Y100.689 E7.7373
G1 X103.71 Y101.046 E7.75492
G1 X103.568 Y101.458 E7.77583
G1 X103.382 Y101.848 E7.79662
G1 X103.15 Y102.221 E7.81776
G1 X102.741 Y102.71 E7.84845
G1 X102.418 Y103.002 E7.86937
G1 X102.067 Y103.253 E7.89016
G1 X101.506 Y103.549 E7.92065
G1 X101.078 Y103.701 E7.94246
G1 X100.814 Y103.767 E7.95555
G1 X100.453 Y103.828 E7.97317
G1 X100.019 Y103.854 E7.99409
G1 X99.58 Y103.832 E8.01523
G1 X99.311 Y103.791 E8.02832
G1 X98.954 Y103.71 E8.04594
G1 X98.542 Y103.568 E8.06685
G1 X98.152 Y103.382 E8.08764
G1 X97.779 Y103.15 E8.10878
G1 X97.29 Y102.741 E8.13947
G1 X96.998 Y102.418 E8.16039
G1 X96.747 Y102.067 E8.18118
G1 X96.451 Y101.506 E8.21167
G1 X96.299 Y101.078 E8.23348
G1 X96.233 Y100.814 E8.24658
G1 X96.172 Y100.453 E8.26419
G1 X96.146 Y100.019 E8.28511
G1 X96.168 Y99.58 E8.30625
G1 X96.209 Y99.311 E8.31934
G1 X96.29 Y98.954 E8.33696
G1 X96.432 Y98.542 E8.35788
G1 X96.618 Y98.152 E8.37866
G1 X96.85 Y97.779 E8.3998
G1 X97.259 Y97.29 E8.43049
G1 X97.582 Y96.998 E8.45141
G1 X97.848 Y96.808 E8.46713
G1 X97.314 Y96.721 F7800
G1 F900
G1 X97.726 Y96.421 E8.49166
G1 X98.149 Y96.184 E8.51495
G1 X98.35 Y96.093 E8.52557
G1 X98.806 Y95.931 E8.54885
G1 X99.269 Y95.823 E8.57172
G1 X99.746 Y95.767 E8.59481
G1 X100.052 Y95.761 E8.60951
G1 X100.453 Y95.784 E8.62883
G1 X100.928 Y95.862 E8.65199
G1 X101.223 Y95.941 E8.6667
G1 X101.602 Y96.074 E8.68601
G1 X102.033 Y96.279 E8.70896
G1 X102.441 Y96.532 E8.73205
G1 X102.683 Y96.718 E8.74675
G1 X102.983 Y96.986 E8.76607
G1 X103.302 Y97.34 E8.78902
G1 X103.579 Y97.726 E8.81189
G1 X103.816 Y98.149 E8.83517
G1 X103.907 Y98.35 E8.84579
G1 X104.07 Y98.81 E8.86929
G1 X104.144 Y99.107 E8.88399
G1 X104.211 Y99.503 E8.90331
G1 X104.24 Y99.979 E8.92626
G1 X104.216 Y100.459 E8.94934
G1 X104.171 Y100.761 E8.96405
G1 X104.081 Y101.152 E8.98336
G1 X103.926 Y101.604 E9.00631
G1 X103.721 Y102.033 E9.02918
G1 X103.468 Y102.441 E9.05227
G1 X103.282 Y102.683 E9.06697
G1 X103.014 Y102.983 E9.08629
G1 X102.66 Y103.302 E9.10924
G1 X102.274 Y103.579 E9.13211
G1 X101.851 Y103.816 E9.15539
G1 X101.65 Y103.907 E9.16601
G1 X101.19 Y104.07 E9.18951
G1 X100.893 Y104.144 E9.20422
G1 X100.497 Y104.211 E9.22353
G1 X100.021 Y104.24 E9.24648
G1 X99.541 Y104.216 E9.26957
G1 X99.239 Y104.171 E9.28427
G1 X98.848 Y104.081 E9.30359
G1 X98.396 Y103.926 E9.32654
G1 X97.967 Y103.721 E9.34941
G1 X97.559 Y103.468 E9.37249
G1 X97.317 Y103.282 E9.3872
G1 X97.017 Y103.014 E9.40651
G1 X96.698 Y102.66 E9.42946
G1 X96.421 Y102.274 E9.45233
G1 X96.184 Y101.851 E9.47562
G1 X96.093 Y101.65 E9.48624
G1 X95.93 Y101.19 E9.50973
G1 X95.856 Y100.893 E9.52444
G1 X95.789 Y100.497 E9.54375
G1 X95.76 Y100.021 E9.5667
G1 X95.784 Y99.541 E9.58979
G1 X95.829 Y99.239 E9.6045
G1 X95.919 Y98.848 E9.62381
G1 X96.074 Y98.396 E9.64676
G1 X96.279 Y97.967 E9.66963
G1 X96.532 Y97.559 E9.69272
G1 X96.718 Y97.317 E9.70742
G1 X96.986 Y97.017 E9.72674
G1 X97.27 Y96.761 E9.74513
G1 X96.759 Y96.703 F7800
;TYPE:External perimeter
G1 F900
G1 X97.098 Y96.397 E9.76708
G1 X97.519 Y96.095 E9.79204
G1 X97.975 Y95.84 E9.81714
G1 X98.206 Y95.735 E9.82932
G1 X98.697 Y95.56 E9.85443
G1 X99.203 Y95.442 E9.87938
G1 X99.72 Y95.382 E9.90442
G1 X100.059 Y95.375 E9.92073
G1 X100.495 Y95.4 E9.94174
G1 X101.009 Y95.485 E9.96681
G1 X101.337 Y95.572 E9.98312
G1 X101.749 Y95.717 E10.00413
G1 X102.218 Y95.94 E10.02912
G1 X102.66 Y96.214 E10.05415
G1 X102.93 Y96.421 E10.07047
G1 X103.255 Y96.712 E10.09148
G1 X103.603 Y97.098 E10.11646
G1 X103.905 Y97.519 E10.14142
G1 X104.16 Y97.975 E10.16652
G1 X104.265 Y98.206 E10.1787
G1 X104.44 Y98.699 E10.20389
G1 X104.522 Y99.028 E10.2202
G1 X104.595 Y99.459 E10.24122
G1 X104.627 Y99.977 E10.2662
G1 X104.6 Y100.497 E10.29123
G1 X104.55 Y100.833 E10.30755
G1 X104.452 Y101.258 E10.32856
G1 X104.283 Y101.75 E10.35354
G1 X104.06 Y102.218 E10.3785
G1 X103.786 Y102.66 E10.40353
G1 X103.579 Y102.93 E10.41985
G1 X103.288 Y103.255 E10.44086
G1 X102.902 Y103.603 E10.46584
G1 X102.481 Y103.905 E10.4908
G1 X102.025 Y104.16 E10.5159
G1 X101.794 Y104.265 E10.52808
G1 X101.301 Y104.44 E10.55327
G1 X100.972 Y104.522 E10.56959
G1 X100.541 Y104.595 E10.5906
G1 X100.023 Y104.627 E10.61558
G1 X99.503 Y104.6 E10.64061
G1 X99.167 Y104.55 E10.65693
G1 X98.742 Y104.452 E10.67794
G1 X98.25 Y104.283 E10.70293
G1 X97.782 Y104.06 E10.72788
G1 X97.34 Y103.786 E10.75291
G1 X97.07 Y103.579 E10.76923
G1 X96.745 Y103.288 E10.79024
G1 X96.397 Y102.902 E10.81522
G1 X96.095 Y102.481 E10.84018
G1 X95.84 Y102.025 E10.86529
G1 X95.735 Y101.794 E10.87747
G1 X95.56 Y101.301 E10.90265
G1 X95.478 Y100.972 E10.91897
G1 X95.405 Y100.541 E10.93998
G1 X95.373 Y100.023 E10.96496
G1 X95.4 Y99.503 E10.99
G1 X95.45 Y99.167 E11.00631
G1 X95.548 Y98.742 E11.02732
G1 X95.717 Y98.25 E11.05231
G1 X95.94 Y97.782 E11.07726
G1 X96.214 Y97.34 E11.1023
G1 X96.421 Y97.07 E11.11861
G1 X96.714 Y96.743 E11.13977
G1 X97.144 Y96.809 F7800
G1 E9.13977 F2400
G92 E0
G1 X103.315 Y98.28 F7800
G1 E2 F2400
;TYPE:Solid infill
;WIDTH:0.459942
G1 F1200
G1 X102.442 Y97.408 E2.06087
G1 X102.056 Y97.088 E2.0856
G1 X101.709 Y96.872 E2.10579
G1 X101.345 Y96.699 E2.12568
G1 X101.082 Y96.606 E2.13944
G1 X103.387 Y98.912 E2.30033
G1 X103.422 Y99.003 E2.30512
G1 X103.543 Y99.627 E2.33649
G1 X100.372 Y96.456 E2.55775
G1 X99.798 Y96.442 E2.58604
G1 X103.554 Y100.197 E2.84806
G1 X103.544 Y100.385 E2.85732
G1 X103.485 Y100.688 E2.87256
G1 X99.305 Y96.508 E3.16423
G1 X99 Y96.579 E3.17966
G1 X98.867 Y96.63 E3.18668
G1 X103.373 Y101.136 E3.50106
G1 X103.212 Y101.534 E3.52225
G1 X98.463 Y96.785 E3.85358
G1 X98.446 Y96.791 E3.85448
G1 X98.102 Y96.984 E3.8739
G1 X103.013 Y101.894 E4.21654
G1 X102.784 Y102.224 E4.23637
G1 X97.775 Y97.216 E4.58582
G1 X97.48 Y97.48 E4.60537
G1 X102.52 Y102.52 E4.95701
G1 X102.225 Y102.784 E4.97655
G1 X97.216 Y97.776 E5.326
G1 X96.987 Y98.106 E5.34583
G1 X101.898 Y103.017 E5.68846
G1 X101.537 Y103.215 E5.70878
G1 X96.788 Y98.467 E6.04011
G1 X96.627 Y98.865 E6.0613
G1 X101.133 Y103.37 E6.37567
G1 X100.997 Y103.422 E6.38282
G1 X100.688 Y103.485 E6.39839
G1 X96.515 Y99.312 E6.68954
G1 X96.456 Y99.615 E6.70477
G1 X96.446 Y99.803 E6.71404
G1 X100.197 Y103.554 E6.97574
G1 X100.017 Y103.565 E6.98461
G1 X99.629 Y103.545 E7.00382
G1 X96.457 Y100.373 E7.22511
G1 X96.578 Y100.997 E7.25647
G1 X96.613 Y101.088 E7.26127
G1 X98.915 Y103.391 E7.42193
G1 X98.652 Y103.3 E7.43566
G1 X98.291 Y103.128 E7.45539
G1 X97.944 Y102.912 E7.47557
G1 X97.557 Y102.591 E7.50038
G1 X96.685 Y101.72 E7.56116
;LAYER_CHANGE
;Z:4.25
;HEIGHT:0.3
G1 Z4.25 F7800
G1 E5.56116 F2400
G92 E0
G1 X97.853 Y96.725 F7800
G1 E2 F2400
;TYPE:Perimeter
;WIDTH:0.45
G1 F900
G1 X98.295 Y96.471 E2.0245
G1 X98.469 Y96.391 E2.03373
G1 X98.897 Y96.239 E2.05554
G1 X99.325 Y96.14 E2.07668
G1 X99.77 Y96.087 E2.09824
G1 X100.022 Y96.081 E2.11037
G1 X100.418 Y96.103 E2.12945
G1 X100.867 Y96.177 E2.15134
G1 X101.482 Y96.372 E2.18236
G1 X101.879 Y96.561 E2.2035
G1 X102.26 Y96.797 E2.22507
G1 X102.756 Y97.214 E2.25625
G1 X103.052 Y97.541 E2.27747
G1 X103.308 Y97.899 E2.29861
G1 X103.609 Y98.469 E2.32963
G1 X103.764 Y98.905 E2.35187
G1 X103.825 Y99.149 E2.36399
G1 X103.892 Y99.54 E2.38307
G1 X103.919 Y99.981 E2.40429
G1 X103.896 Y100.429 E2.42586
G1 X103.86 Y100.678 E2.43798
G1 X103.772 Y101.065 E2.45706
G1 X103.628 Y101.482 E2.47828
G1 X103.439 Y101.879 E2.49942
G1 X103.203 Y102.26 E2.52098
G1 X102.786 Y102.756 E2.55216
G1 X102.459 Y103.052 E2.57339
G1 X102.101 Y103.308 E2.59452
G1 X101.531 Y103.609 E2.62554
G1 X101.095 Y103.764 E2.64778
G1 X100.851 Y103.825 E2.65991
G1 X100.46 Y103.892 E2.67898
G1 X100.019 Y103.919 E2.70021
G1 X99.571 Y103.896 E2.72177
G1 X99.322 Y103.86 E2.7339
G1 X98.935 Y103.772 E2.75297
G1 X98.518 Y103.628 E2.7742
G1 X98.121 Y103.439 E2.79534
G1 X97.74 Y103.203 E2.8169
G1 X97.244 Y102.786 E2.84808
G1 X96.948 Y102.459 E2.8693
G1 X96.692 Y102.101 E2.89044
G1 X96.391 Y101.531 E2.92146
G1 X96.236 Y101.095 E2.9437
G1 X96.175 Y100.851 E2.95583
G1 X96.108 Y100.46 E2.9749
G1 X96.081 Y100.019 E2.99612
G1 X96.104 Y99.571 E3.01769
G1 X96.14 Y99.322 E3.02982
G1 X96.228 Y98.935 E3.04889
G1 X96.372 Y98.518 E3.07011
G1 X96.561 Y98.121 E3.09125
G1 X96.797 Y97.74 E3.11282
G1 X97.214 Y97.244 E3.144
G1 X97.541 Y96.948 E3.16522
G1 X97.804 Y96.76 E3.18077
G1 X97.271 Y96.673 F7800
G1 F900
G1 X97.692 Y96.366 E3.20583
G1 X98.12 Y96.126 E3.22946
G1 X98.325 Y96.033 E3.24025
G1 X98.788 Y95.869 E3.26389
G1 X99.258 Y95.759 E3.28711
G1 X99.743 Y95.702 E3.31059
G1 X100.028 Y95.696 E3.32431
G1 X100.46 Y95.719 E3.34511
G1 X100.946 Y95.799 E3.3688
G1 X101.163 Y95.854 E3.37959
G1 X101.628 Y96.014 E3.40323
G1 X102.064 Y96.222 E3.42645
G1 X102.479 Y96.479 E3.44993
G1 X102.706 Y96.652 E3.46365
G1 X103.029 Y96.94 E3.48445
G1 X103.353 Y97.299 E3.50773
G1 X103.634 Y97.692 E3.53095
G1 X103.874 Y98.12 E3.55458
G1 X103.967 Y98.325 E3.56538
G1 X104.133 Y98.793 E3.58927
G1 X104.203 Y99.07 E3.60299
G1 X104.276 Y99.496 E3.62379
G1 X104.305 Y99.979 E3.64707
G1 X104.28 Y100.467 E3.67055
G1 X104.239 Y100.749 E3.68427
G1 X104.143 Y101.171 E3.70507
G1 X103.986 Y101.628 E3.72835
G1 X103.778 Y102.064 E3.75157
G1 X103.521 Y102.479 E3.77505
G1 X103.348 Y102.706 E3.78877
G1 X103.06 Y103.029 E3.80958
G1 X102.701 Y103.353 E3.83285
G1 X102.308 Y103.634 E3.85607
G1 X101.88 Y103.874 E3.8797
G1 X101.675 Y103.967 E3.8905
G1 X101.207 Y104.133 E3.91439
G1 X100.93 Y104.203 E3.92811
G1 X100.504 Y104.276 E3.94892
G1 X100.021 Y104.305 E3.97219
G1 X99.533 Y104.28 E3.99567
G1 X99.251 Y104.239 E4.00939
G1 X98.829 Y104.143 E4.03019
G1 X98.372 Y103.986 E4.05347
G1 X97.936 Y103.778 E4.07669
G1 X97.521 Y103.521 E4.10017
G1 X97.294 Y103.348 E4.1139
G1 X96.971 Y103.06 E4.1347
G1 X96.647 Y102.701 E4.15797
G1 X96.366 Y102.308 E4.18119
G1 X96.126 Y101.88 E4.20482
G1 X96.033 Y101.675 E4.21562
G1 X95.867 Y101.207 E4.23951
G1 X95.797 Y100.93 E4.25324
G1 X95.724 Y100.504 E4.27404
G1 X95.695 Y100.021 E4.29731
G1 X95.72 Y99.533 E4.32079
G1 X95.761 Y99.251 E4.33452
G1 X95.857 Y98.829 E4.35532
G1 X96.014 Y98.372 E4.37859
G1 X96.222 Y97.936 E4.40181
G1 X96.479 Y97.521 E4.42529
G1 X96.652 Y97.294 E4.43902
G1 X96.94 Y96.971 E4.45982
G1 X97.226 Y96.713 E4.47836
G1 X96.715 Y96.655 F7800
;TYPE:External perimeter
G1 F900
G1 X97.057 Y96.346 E4.50048
G1 X97.484 Y96.04 E4.52579
G1 X97.946 Y95.782 E4.55124
G1 X98.18 Y95.675 E4.5636
G1 X98.679 Y95.498 E4.58906
G1 X99.191 Y95.379 E4.61436
G1 X99.716 Y95.317 E4.63976
G1 X100.034 Y95.31 E4.65508
G1 X100.502 Y95.335 E4.67761
G1 X101.025 Y95.422 E4.70308
G1 X101.274 Y95.484 E4.71544
G1 X101.774 Y95.657 E4.74089
G1 X102.249 Y95.883 E4.7662
G1 X102.698 Y96.162 E4.7916
G1 X102.951 Y96.354 E4.80692
G1 X103.301 Y96.666 E4.82944
G1 X103.654 Y97.057 E4.85477
G1 X103.96 Y97.484 E4.88007
G1 X104.218 Y97.946 E4.90553
G1 X104.325 Y98.18 E4.91788
G1 X104.502 Y98.681 E4.94343
G1 X104.58 Y98.99 E4.95875
G1 X104.659 Y99.451 E4.98128
G1 X104.692 Y99.977 E5.0066
G1 X104.664 Y100.504 E5.032
G1 X104.618 Y100.82 E5.04732
G1 X104.515 Y101.276 E5.06985
G1 X104.343 Y101.774 E5.09517
G1 X104.117 Y102.249 E5.12048
G1 X103.838 Y102.698 E5.14588
G1 X103.646 Y102.951 E5.16119
G1 X103.334 Y103.301 E5.18372
G1 X102.943 Y103.654 E5.20905
G1 X102.516 Y103.96 E5.23435
G1 X102.054 Y104.218 E5.25981
G1 X101.82 Y104.325 E5.27216
G1 X101.319 Y104.502 E5.29771
G1 X101.01 Y104.58 E5.31303
G1 X100.549 Y104.659 E5.33556
G1 X100.023 Y104.692 E5.36088
G1 X99.496 Y104.664 E5.38628
G1 X99.18 Y104.618 E5.4016
G1 X98.724 Y104.515 E5.42413
G1 X98.226 Y104.343 E5.44945
G1 X97.751 Y104.117 E5.47476
G1 X97.302 Y103.838 E5.50016
G1 X97.049 Y103.646 E5.51547
G1 X96.699 Y103.334 E5.538
G1 X96.346 Y102.943 E5.56332
G1 X96.04 Y102.516 E5.58863
G1 X95.782 Y102.054 E5.61408
G1 X95.675 Y101.82 E5.62644
G1 X95.498 Y101.319 E5.65199
G1 X95.42 Y101.01 E5.66731
G1 X95.341 Y100.549 E5.68984
G1 X95.308 Y100.023 E5.71516
G1 X95.336 Y99.496 E5.74056
G1 X95.382 Y99.18 E5.75588
G1 X95.485 Y98.724 E5.77841
G1 X95.657 Y98.226 E5.80373
G1 X95.883 Y97.751 E5.82903
G1 X96.162 Y97.302 E5.85443
G1 X96.354 Y97.049 E5.86975
G1 X96.671 Y96.695 E5.89259
G1 X97.101 Y96.761 F7800
G1 E3.89259 F2400
G92 E0
G1 X101.749 Y103.373 F7800
G1 E2 F2400
;TYPE:Solid infill
;WIDTH:0.466761
G1 F1200
G1 X102.675 Y102.446 E2.06576
G1 X102.964 Y102.095 E2.08858
G1 X103.185 Y101.74 E2.10958
G1 X103.36 Y101.372 E2.13001
G1 X103.455 Y101.098 E2.14459
G1 X101.101 Y103.452 E2.31165
G1 X101.014 Y103.485 E2.31631
G1 X100.376 Y103.608 E2.34893
G1 X103.609 Y100.374 E2.57843
G1 X103.629 Y99.982 E2.59812
G1 X103.618 Y99.796 E2.60747
G1 X99.796 Y103.618 E2.87873
G1 X99.607 Y103.608 E2.88825
G1 X99.297 Y103.548 E2.90407
G1 X103.548 Y99.297 E3.20576
G1 X103.485 Y98.986 E3.2217
G1 X103.431 Y98.845 E3.22927
G1 X98.842 Y103.434 E3.55495
G1 X98.438 Y103.27 E3.57687
G1 X103.273 Y98.434 E3.92008
G1 X103.267 Y98.417 E3.92097
G1 X103.071 Y98.067 E3.94111
G1 X98.071 Y103.067 E4.29602
G1 X97.734 Y102.835 E4.31654
G1 X102.835 Y97.734 E4.67853
G1 X102.566 Y97.434 E4.69876
G1 X97.434 Y102.566 E5.06297
G1 X97.165 Y102.265 E5.08319
G1 X102.266 Y97.165 E5.44518
G1 X101.929 Y96.933 E5.46571
G1 X96.929 Y101.933 E5.82061
G1 X96.727 Y101.566 E5.84163
G1 X101.562 Y96.73 E6.18484
G1 X101.158 Y96.566 E6.20676
G1 X96.569 Y101.155 E6.53244
G1 X96.515 Y101.014 E6.54
G1 X96.452 Y100.703 E6.55595
G1 X100.703 Y96.452 E6.85764
G1 X100.387 Y96.392 E6.87377
G1 X100.199 Y96.387 E6.88324
G1 X96.382 Y100.204 E7.15413
G1 X96.371 Y100.018 E7.16347
G1 X96.391 Y99.626 E7.18317
G1 X99.621 Y96.396 E7.41242
G1 X99.375 Y96.425 E7.42486
G1 X98.899 Y96.548 E7.44949
G1 X96.546 Y98.902 E7.61656
G1 X96.64 Y98.628 E7.63113
G1 X96.815 Y98.26 E7.65156
G1 X97.036 Y97.905 E7.67256
G1 X97.326 Y97.553 E7.69545
G1 X98.251 Y96.627 E7.76112
;LAYER_CHANGE
;Z:4.55
;HEIGHT:0.3
G1 Z4.55 F7800
G1 X97.822 Y96.69
;TYPE:Perimeter
;WIDTH:0.45
G1 F900
G1 X98.274 Y96.429 E7.78624
G1 X98.451 Y96.349 E7.79559
G1 X98.884 Y96.195 E7.81766
G1 X99.317 Y96.094 E7.83904
G1 X99.769 Y96.041 E7.86093
G1 X100.002 Y96.035 E7.87216
G1 X100.424 Y96.058 E7.89246
G1 X100.863 Y96.13 E7.9139
G1 X101.487 Y96.323 E7.94529
G1 X101.91 Y96.525 E7.96785
G1 X102.111 Y96.644 E7.97908
G1 X102.456 Y96.887 E7.99939
G1 X102.79 Y97.183 E8.02082
G1 X103.088 Y97.513 E8.04221
G1 X103.347 Y97.874 E8.06359
G1 X103.651 Y98.452 E8.09499
G1 X103.805 Y98.884 E8.11705
G1 X103.909 Y99.33 E8.1391
G1 X103.965 Y99.981 E8.1705
G1 X103.942 Y100.435 E8.19239
G1 X103.909 Y100.666 E8.20361
G1 X103.816 Y101.078 E8.22392
G1 X103.671 Y101.499 E8.24535
G1 X103.475 Y101.91 E8.26725
G1 X103.356 Y102.111 E8.27847
G1 X103.113 Y102.456 E8.29878
G1 X102.817 Y102.79 E8.32021
G1 X102.487 Y103.088 E8.3416
G1 X102.126 Y103.347 E8.36298
G1 X101.548 Y103.651 E8.39438
G1 X101.116 Y103.805 E8.41644
G1 X100.67 Y103.909 E8.4385
G1 X100.019 Y103.965 E8.46989
G1 X99.565 Y103.942 E8.49178
G1 X99.334 Y103.909 E8.503
G1 X98.922 Y103.816 E8.52331
G1 X98.501 Y103.671 E8.54475
G1 X98.09 Y103.475 E8.56664
G1 X97.889 Y103.356 E8.57786
G1 X97.544 Y103.113 E8.59817
G1 X97.21 Y102.817 E8.6196
G1 X96.912 Y102.487 E8.64099
G1 X96.653 Y102.126 E8.66238
G1 X96.349 Y101.548 E8.69377
G1 X96.195 Y101.116 E8.71583
G1 X96.091 Y100.67 E8.73789
G1 X96.035 Y100.019 E8.76928
G1 X96.058 Y99.565 E8.79117
G1 X96.091 Y99.334 E8.80239
G1 X96.184 Y98.922 E8.8227
G1 X96.329 Y98.501 E8.84414
G1 X96.525 Y98.09 E8.86603
G1 X96.644 Y97.889 E8.87725
G1 X96.887 Y97.544 E8.89756
G1 X97.183 Y97.21 E8.91899
G1 X97.513 Y96.912 E8.94038
G1 X97.773 Y96.725 E8.95581
G1 X97.24 Y96.639 F7800
G1 F900
G1 X97.667 Y96.327 E8.98123
G1 X98.1 Y96.085 E9.00511
G1 X98.307 Y95.991 E9.01603
G1 X98.775 Y95.825 E9.03991
G1 X99.25 Y95.714 E9.06338
G1 X99.741 Y95.656 E9.08716
G1 X100.007 Y95.649 E9.09997
G1 X100.465 Y95.674 E9.12203
G1 X100.947 Y95.753 E9.14553
G1 X101.425 Y95.888 E9.16941
G1 X101.638 Y95.968 E9.18033
G1 X102.092 Y96.184 E9.20452
G1 X102.321 Y96.32 E9.21733
G1 X102.696 Y96.584 E9.23939
G1 X103.062 Y96.908 E9.26289
G1 X103.389 Y97.27 E9.28636
G1 X103.673 Y97.667 E9.30983
G1 X103.915 Y98.1 E9.33371
G1 X104.009 Y98.307 E9.34463
G1 X104.175 Y98.775 E9.36851
G1 X104.288 Y99.258 E9.39239
G1 X104.321 Y99.483 E9.40331
G1 X104.351 Y99.979 E9.42719
G1 X104.326 Y100.472 E9.45097
G1 X104.288 Y100.736 E9.46377
G1 X104.187 Y101.183 E9.48584
G1 X104.028 Y101.645 E9.50934
G1 X103.816 Y102.092 E9.53311
G1 X103.68 Y102.321 E9.54592
G1 X103.416 Y102.696 E9.56798
G1 X103.092 Y103.062 E9.59148
G1 X102.73 Y103.389 E9.61495
G1 X102.333 Y103.673 E9.63842
G1 X101.9 Y103.915 E9.6623
G1 X101.693 Y104.009 E9.67322
G1 X101.225 Y104.175 E9.6971
G1 X100.742 Y104.288 E9.72098
G1 X100.517 Y104.321 E9.7319
G1 X100.021 Y104.351 E9.75578
G1 X99.528 Y104.326 E9.77956
G1 X99.264 Y104.288 E9.79237
G1 X98.817 Y104.187 E9.81443
G1 X98.355 Y104.028 E9.83793
G1 X97.908 Y103.816 E9.86171
G1 X97.679 Y103.68 E9.87452
G1 X97.304 Y103.416 E9.89658
G1 X96.938 Y103.092 E9.92008
G1 X96.611 Y102.73 E9.94355
G1 X96.327 Y102.333 E9.96702
G1 X96.085 Y101.9 E9.9909
G1 X95.991 Y101.693 E10.00182
G1 X95.825 Y101.225 E10.0257
G1 X95.712 Y100.742 E10.04958
G1 X95.679 Y100.517 E10.0605
G1 X95.649 Y100.021 E10.08438
G1 X95.674 Y99.528 E10.10816
G1 X95.712 Y99.264 E10.12096
G1 X95.813 Y98.817 E10.14303
G1 X95.972 Y98.355 E10.16653
G1 X96.184 Y97.908 E10.19031
G1 X96.32 Y97.679 E10.20311
G1 X96.584 Y97.304 E10.22517
G1 X96.908 Y96.938 E10.24867
G1 X97.195 Y96.679 E10.26729
G1 X96.685 Y96.62 F7800
;TYPE:External perimeter
G1 F900
G1 X97.028 Y96.311 E10.28954
G1 X97.46 Y96.001 E10.31509
G1 X97.926 Y95.74 E10.3408
G1 X98.163 Y95.633 E10.35327
G1 X98.666 Y95.454 E10.37898
G1 X99.184 Y95.333 E10.40453
G1 X99.714 Y95.271 E10.4302
G1 X100.013 Y95.263 E10.44458
G1 X100.507 Y95.29 E10.4684
G1 X101.032 Y95.376 E10.49397
G1 X101.546 Y95.522 E10.51967
G1 X101.789 Y95.613 E10.53215
G1 X102.273 Y95.843 E10.55797
G1 X102.531 Y95.996 E10.57236
G1 X102.935 Y96.281 E10.59618
G1 X103.333 Y96.634 E10.62174
G1 X103.689 Y97.028 E10.64729
G1 X103.999 Y97.46 E10.67284
G1 X104.26 Y97.926 E10.69855
G1 X104.367 Y98.163 E10.71103
G1 X104.546 Y98.666 E10.73673
G1 X104.667 Y99.187 E10.76244
G1 X104.705 Y99.443 E10.77491
G1 X104.737 Y99.977 E10.80062
G1 X104.71 Y100.51 E10.82628
G1 X104.668 Y100.806 E10.84067
G1 X104.559 Y101.289 E10.86449
G1 X104.386 Y101.792 E10.89006
G1 X104.157 Y102.273 E10.91572
G1 X104.004 Y102.531 E10.93011
G1 X103.719 Y102.935 E10.95393
G1 X103.366 Y103.333 E10.97949
G1 X102.972 Y103.689 E11.00505
G1 X102.54 Y103.999 E11.0306
G1 X102.074 Y104.26 E11.0563
G1 X101.837 Y104.367 E11.06878
G1 X101.334 Y104.546 E11.09448
G1 X100.813 Y104.667 E11.12019
G1 X100.557 Y104.705 E11.13267
G1 X100.023 Y104.737 E11.15837
G1 X99.49 Y104.71 E11.18404
G1 X99.194 Y104.668 E11.19843
G1 X98.711 Y104.559 E11.22224
G1 X98.208 Y104.386 E11.24781
G1 X97.727 Y104.157 E11.27348
G1 X97.469 Y104.004 E11.28786
G1 X97.065 Y103.719 E11.31168
G1 X96.667 Y103.366 E11.33725
G1 X96.311 Y102.972 E11.3628
G1 X96.001 Y102.54 E11.38835
G1 X95.74 Y102.074 E11.41406
G1 X95.633 Y101.837 E11.42653
G1 X95.454 Y101.334 E11.45224
G1 X95.333 Y100.813 E11.47794
G1 X95.295 Y100.557 E11.49042
G1 X95.263 Y100.023 E11.51612
G1 X95.29 Y99.49 E11.54179
G1 X95.332 Y99.194 E11.55618
G1 X95.441 Y98.711 E11.58
G1 X95.614 Y98.208 E11.60556
G1 X95.843 Y97.727 E11.63123
G1 X95.996 Y97.469 E11.64562
G1 X96.281 Y97.065 E11.66944
G1 X96.64 Y96.661 E11.69541
G1 X97.071 Y96.724 F7800
G1 E9.69541 F2400
G92 E0
G1 X103.396 Y98.199 F7800
G1 E2 F2400
;TYPE:Solid infill
;WIDTH:0.451228
G1 F1200
G1 X102.582 Y97.384 E2.05556
G1 X102.28 Y97.117 E2.07503
G1 X101.771 Y96.779 E2.1045
G1 X101.166 Y96.516 E2.13629
G1 X103.471 Y98.82 E2.29352
G1 X103.526 Y98.965 E2.301
G1 X103.646 Y99.543 E2.32946
G1 X100.46 Y96.357 E2.54686
G1 X99.889 Y96.333 E2.5744
G1 X103.669 Y100.113 E2.83228
G1 X103.654 Y100.4 E2.84615
G1 X103.614 Y100.605 E2.85624
G1 X99.386 Y96.377 E3.14471
G1 X98.944 Y96.482 E3.16664
G1 X103.518 Y101.056 E3.47873
G1 X103.371 Y101.456 E3.49931
G1 X98.549 Y96.634 E3.82837
G1 X98.397 Y96.692 E3.83618
G1 X98.181 Y96.813 E3.84816
G1 X103.188 Y101.82 E4.18984
G1 X102.97 Y102.149 E4.20888
G1 X97.848 Y97.028 E4.55835
G1 X97.546 Y97.272 E4.57712
G1 X102.728 Y102.455 E4.93075
G1 X102.454 Y102.728 E4.94941
G1 X97.272 Y97.546 E5.30304
G1 X97.117 Y97.72 E5.31432
G1 X97.03 Y97.851 E5.32188
G1 X102.152 Y102.973 E5.67135
G1 X101.819 Y103.187 E5.69044
G1 X96.812 Y98.18 E6.03211
G1 X96.629 Y98.544 E6.05177
G1 X101.451 Y103.366 E6.38083
G1 X101.056 Y103.518 E6.40126
G1 X96.482 Y98.944 E6.71335
G1 X96.386 Y99.395 E6.73559
G1 X100.606 Y103.615 E7.02353
G1 X100.439 Y103.65 E7.03177
G1 X100.113 Y103.67 E7.0475
G1 X96.331 Y99.887 E7.30557
G1 X96.354 Y100.457 E7.33309
G1 X99.539 Y103.642 E7.55039
G1 X98.997 Y103.536 E7.57701
G1 X98.827 Y103.477 E7.58571
G1 X96.529 Y101.18 E7.74248
G1 X96.692 Y101.603 E7.76433
G1 X96.898 Y101.971 E7.78468
G1 X97.138 Y102.306 E7.80456
G1 X97.41 Y102.608 E7.82419
G1 X98.204 Y103.402 E7.87837
M106 S232.05
;LAYER_CHANGE
;Z:4.85
;HEIGHT:0.3
G1 Z4.85 F7800
G1 E5.87837 F2400
G92 E0
G1 X97.804 Y96.672 F7800
G1 E2 F2400
;TYPE:Perimeter
;WIDTH:0.45
G1 F900
G1 X98.051 Y96.515 E2.01405
G1 X98.454 Y96.319 E2.03561
G1 X98.876 Y96.169 E2.05714
G1 X99.312 Y96.067 E2.07868
G1 X99.769 Y96.013 E2.1008
G1 X99.984 Y96.007 E2.11114
G1 X100.427 Y96.03 E2.1325
G1 X100.883 Y96.105 E2.15473
G1 X101.51 Y96.304 E2.18635
G1 X101.914 Y96.496 E2.20788
G1 X102.306 Y96.74 E2.23009
G1 X102.809 Y97.163 E2.2617
G1 X103.118 Y97.504 E2.28382
G1 X103.247 Y97.676 E2.29417
G1 X103.485 Y98.051 E2.31552
G1 X103.681 Y98.454 E2.33708
G1 X103.835 Y98.887 E2.3592
G1 X103.889 Y99.096 E2.36955
G1 X103.965 Y99.533 E2.3909
G1 X103.993 Y99.994 E2.41314
G1 X103.939 Y100.65 E2.44475
G1 X103.842 Y101.087 E2.46629
G1 X103.696 Y101.51 E2.48782
G1 X103.504 Y101.914 E2.50936
G1 X103.26 Y102.306 E2.53156
G1 X102.837 Y102.809 E2.56318
G1 X102.496 Y103.118 E2.5853
G1 X102.324 Y103.247 E2.59564
G1 X101.949 Y103.485 E2.617
G1 X101.546 Y103.681 E2.63856
G1 X101.113 Y103.835 E2.66068
G1 X100.904 Y103.889 E2.67102
G1 X100.467 Y103.965 E2.69238
G1 X100.006 Y103.993 E2.71461
G1 X99.35 Y103.939 E2.74623
G1 X98.913 Y103.842 E2.76776
G1 X98.49 Y103.696 E2.7893
G1 X98.086 Y103.504 E2.81083
G1 X97.694 Y103.26 E2.83304
G1 X97.191 Y102.837 E2.86465
G1 X96.882 Y102.496 E2.88677
G1 X96.753 Y102.324 E2.89712
G1 X96.515 Y101.949 E2.91847
G1 X96.319 Y101.546 E2.94003
G1 X96.165 Y101.113 E2.96215
G1 X96.111 Y100.904 E2.9725
G1 X96.035 Y100.467 E2.99385
G1 X96.007 Y100.006 E3.01609
G1 X96.061 Y99.35 E3.0477
G1 X96.158 Y98.913 E3.06924
G1 X96.304 Y98.49 E3.09077
G1 X96.496 Y98.086 E3.11231
G1 X96.74 Y97.694 E3.13451
G1 X97.163 Y97.191 E3.16613
G1 X97.504 Y96.882 E3.18825
G1 X97.754 Y96.704 E3.203
G1 X97.222 Y96.618 F7800
G1 F900
G1 X97.456 Y96.436 E3.21731
G1 X97.863 Y96.178 E3.24046
G1 X98.304 Y95.963 E3.26409
G1 X98.767 Y95.798 E3.28771
G1 X99.245 Y95.687 E3.31133
G1 X99.74 Y95.628 E3.3353
G1 X99.988 Y95.621 E3.34722
G1 X100.469 Y95.646 E3.37036
G1 X100.962 Y95.728 E3.39441
G1 X101.183 Y95.784 E3.4054
G1 X101.656 Y95.946 E3.42943
G1 X102.099 Y96.157 E3.45305
G1 X102.524 Y96.421 E3.47708
G1 X102.707 Y96.557 E3.48807
G1 X103.081 Y96.889 E3.5121
G1 X103.415 Y97.259 E3.53608
G1 X103.564 Y97.456 E3.548
G1 X103.822 Y97.863 E3.57114
G1 X104.037 Y98.304 E3.59477
G1 X104.204 Y98.774 E3.61875
G1 X104.266 Y99.014 E3.63066
G1 X104.349 Y99.488 E3.65381
G1 X104.379 Y99.987 E3.67785
G1 X104.374 Y100.216 E3.68884
G1 X104.321 Y100.712 E3.71288
G1 X104.214 Y101.192 E3.73649
G1 X104.054 Y101.656 E3.76011
G1 X103.843 Y102.099 E3.78373
G1 X103.579 Y102.524 E3.80776
G1 X103.443 Y102.707 E3.81875
G1 X103.111 Y103.081 E3.84278
G1 X102.741 Y103.415 E3.86676
G1 X102.544 Y103.564 E3.87868
G1 X102.137 Y103.822 E3.90182
G1 X101.696 Y104.037 E3.92545
G1 X101.226 Y104.204 E3.94943
G1 X100.986 Y104.266 E3.96135
G1 X100.512 Y104.349 E3.98449
G1 X100.013 Y104.379 E4.00853
G1 X99.784 Y104.374 E4.01952
G1 X99.288 Y104.321 E4.04356
G1 X98.808 Y104.214 E4.06717
G1 X98.344 Y104.054 E4.09079
G1 X97.901 Y103.843 E4.11441
G1 X97.476 Y103.579 E4.13844
G1 X97.293 Y103.443 E4.14943
G1 X96.919 Y103.111 E4.17346
G1 X96.585 Y102.741 E4.19744
G1 X96.436 Y102.544 E4.20936
G1 X96.178 Y102.137 E4.2325
G1 X95.963 Y101.696 E4.25613
G1 X95.796 Y101.226 E4.28011
G1 X95.734 Y100.986 E4.29203
G1 X95.651 Y100.512 E4.31517
G1 X95.621 Y100.013 E4.33921
G1 X95.626 Y99.784 E4.3502
G1 X95.679 Y99.288 E4.37424
G1 X95.786 Y98.808 E4.39785
G1 X95.946 Y98.344 E4.42147
G1 X96.157 Y97.901 E4.44509
G1 X96.421 Y97.476 E4.46912
G1 X96.557 Y97.293 E4.48011
G1 X96.889 Y96.919 E4.50414
G1 X97.177 Y96.659 E4.52283
G1 X96.666 Y96.6 F7800
;TYPE:External perimeter
G1 F900
G1 X97.013 Y96.287 E4.54529
G1 X97.237 Y96.118 E4.55877
G1 X97.675 Y95.841 E4.58371
G1 X98.155 Y95.607 E4.60941
G1 X98.658 Y95.428 E4.63511
G1 X99.179 Y95.306 E4.66081
G1 X99.712 Y95.243 E4.68665
G1 X99.993 Y95.235 E4.70014
G1 X100.51 Y95.262 E4.72507
G1 X101.041 Y95.35 E4.75093
G1 X101.294 Y95.414 E4.76348
G1 X101.802 Y95.589 E4.78933
G1 X102.285 Y95.818 E4.81503
G1 X102.741 Y96.102 E4.84089
G1 X102.95 Y96.258 E4.85344
G1 X103.353 Y96.614 E4.87929
G1 X103.713 Y97.013 E4.90513
G1 X103.882 Y97.237 E4.91861
G1 X104.159 Y97.675 E4.94354
G1 X104.393 Y98.155 E4.96925
G1 X104.573 Y98.661 E4.99508
G1 X104.644 Y98.932 E5.00857
G1 X104.732 Y99.443 E5.0335
G1 X104.765 Y99.98 E5.05936
G1 X104.759 Y100.241 E5.07191
G1 X104.702 Y100.775 E5.09777
G1 X104.585 Y101.297 E5.12347
G1 X104.411 Y101.802 E5.14917
G1 X104.182 Y102.285 E5.17487
G1 X103.898 Y102.741 E5.20072
G1 X103.742 Y102.95 E5.21328
G1 X103.386 Y103.353 E5.23913
G1 X102.987 Y103.713 E5.26496
G1 X102.763 Y103.882 E5.27845
G1 X102.325 Y104.159 E5.30338
G1 X101.845 Y104.393 E5.32909
G1 X101.339 Y104.573 E5.35492
G1 X101.068 Y104.644 E5.36841
G1 X100.557 Y104.732 E5.39334
G1 X100.02 Y104.765 E5.4192
G1 X99.759 Y104.759 E5.43175
G1 X99.225 Y104.702 E5.45761
G1 X98.703 Y104.585 E5.48331
G1 X98.198 Y104.411 E5.50901
G1 X97.715 Y104.182 E5.53471
G1 X97.259 Y103.898 E5.56056
G1 X97.05 Y103.742 E5.57311
G1 X96.647 Y103.386 E5.59897
G1 X96.287 Y102.987 E5.6248
G1 X96.118 Y102.763 E5.63829
G1 X95.841 Y102.325 E5.66322
G1 X95.607 Y101.845 E5.68893
G1 X95.427 Y101.339 E5.71476
G1 X95.356 Y101.068 E5.72825
G1 X95.268 Y100.557 E5.75318
G1 X95.235 Y100.02 E5.77904
G1 X95.241 Y99.759 E5.79159
G1 X95.298 Y99.225 E5.81744
G1 X95.415 Y98.703 E5.84315
G1 X95.589 Y98.198 E5.86885
G1 X95.818 Y97.715 E5.89455
G1 X96.102 Y97.259 E5.9204
G1 X96.258 Y97.05 E5.93295
G1 X96.622 Y96.64 E5.9593
G1 X97.052 Y96.707 F7800
G1 E3.9593 F2400
G92 E0
G1 X103.426 Y101.808 F7800
G1 E2 F2400
;TYPE:Solid infill
;WIDTH:0.453984
G1 F1200
G1 X102.605 Y102.629 E2.05644
G1 X102.311 Y102.894 E2.07567
G1 X101.808 Y103.232 E2.10513
G1 X101.434 Y103.414 E2.12534
G1 X101.178 Y103.505 E2.13852
G1 X103.504 Y101.179 E2.29837
G1 X103.563 Y101.008 E2.30717
G1 X103.669 Y100.464 E2.3341
G1 X100.459 Y103.673 E2.55466
G1 X99.884 Y103.697 E2.58261
G1 X103.689 Y99.892 E2.84405
G1 X103.677 Y99.567 E2.85988
G1 X103.641 Y99.389 E2.8687
G1 X99.38 Y103.65 E3.16151
G1 X98.936 Y103.544 E3.18373
G1 X103.545 Y98.934 E3.5005
G1 X103.397 Y98.531 E3.52136
G1 X98.532 Y103.396 E3.85568
G1 X98.165 Y103.212 E3.87564
G1 X103.213 Y98.165 E4.22253
G1 X102.991 Y97.835 E4.24182
G1 X97.83 Y102.997 E4.59653
G1 X97.53 Y102.745 E4.61554
G1 X102.748 Y97.527 E4.97412
G1 X102.473 Y97.251 E4.99305
G1 X97.252 Y102.473 E5.35188
G1 X97.001 Y102.172 E5.37088
G1 X102.166 Y97.007 E5.72583
G1 X101.833 Y96.789 E5.74516
G1 X96.786 Y101.836 E6.09201
G1 X96.603 Y101.469 E6.11197
G1 X101.468 Y96.604 E6.44628
G1 X101.064 Y96.456 E6.46715
G1 X96.455 Y101.066 E6.78391
G1 X96.354 Y100.615 E6.80632
G1 X100.61 Y96.36 E7.09879
G1 X100.396 Y96.319 E7.10938
G1 X100.107 Y96.311 E7.12342
G1 X96.311 Y100.107 E7.38429
G1 X96.301 Y99.82 E7.39826
G1 X96.331 Y99.536 E7.41213
G1 X99.536 Y96.332 E7.63233
G1 X99.362 Y96.352 E7.64083
G1 X98.821 Y96.495 E7.66799
G1 X96.496 Y98.821 E7.8278
G1 X96.572 Y98.6 E7.83916
G1 X96.749 Y98.228 E7.85917
G1 X97.087 Y97.713 E7.88913
G1 X97.351 Y97.415 E7.90846
G1 X98.189 Y96.577 E7.96603
;LAYER_CHANGE
;Z:5.15
;HEIGHT:0.3
G1 Z5.15 F7800
G1 X97.592 Y96.809
;TYPE:Perimeter
;WIDTH:0.45
G1 F900
G1 X97.854 Y96.622 E7.98153
G1 X98.246 Y96.403 E8.00312
G1 X98.66 Y96.229 E8.0247
G1 X99.09 Y96.103 E8.04629
G1 X99.742 Y96.005 E8.07798
G1 X100.205 Y96.003 E8.10024
G1 X100.651 Y96.051 E8.12183
G1 X101.089 Y96.149 E8.14341
G1 X101.527 Y96.3 E8.16567
G1 X102.125 Y96.608 E8.19804
G1 X102.652 Y97.003 E8.22973
G1 X103.109 Y97.478 E8.26142
G1 X103.378 Y97.854 E8.28368
G1 X103.597 Y98.246 E8.30527
G1 X103.771 Y98.66 E8.32685
G1 X103.897 Y99.09 E8.34844
G1 X103.977 Y99.546 E8.3707
G1 X103.997 Y100.205 E8.40239
G1 X103.949 Y100.651 E8.42398
G1 X103.851 Y101.089 E8.44556
G1 X103.621 Y101.707 E8.47725
G1 X103.284 Y102.289 E8.50962
G1 X102.997 Y102.652 E8.53188
G1 X102.522 Y103.109 E8.56357
G1 X102.146 Y103.378 E8.58583
G1 X101.754 Y103.597 E8.60741
G1 X101.34 Y103.771 E8.629
G1 X100.91 Y103.897 E8.65059
G1 X100.454 Y103.977 E8.67285
G1 X99.795 Y103.997 E8.70454
G1 X99.349 Y103.949 E8.72612
G1 X98.911 Y103.851 E8.74771
G1 X98.293 Y103.621 E8.7794
G1 X97.711 Y103.284 E8.81177
G1 X97.348 Y102.997 E8.83403
G1 X96.891 Y102.522 E8.86572
G1 X96.622 Y102.146 E8.88798
G1 X96.403 Y101.754 E8.90956
G1 X96.229 Y101.34 E8.93115
G1 X96.103 Y100.91 E8.95274
G1 X96.005 Y100.258 E8.98443
G1 X96.003 Y99.795 E9.00669
G1 X96.051 Y99.349 E9.02827
G1 X96.149 Y98.911 E9.04986
G1 X96.3 Y98.473 E9.07212
G1 X96.608 Y97.875 E9.10448
G1 X97.003 Y97.348 E9.13618
G1 X97.328 Y97.019 E9.15844
G1 X97.544 Y96.844 E9.17176
G1 X96.995 Y96.808 F7800
G1 F900
G1 X97.24 Y96.587 E9.1876
G1 X97.647 Y96.296 E9.21169
G1 X98.077 Y96.056 E9.23536
G1 X98.53 Y95.865 E9.25903
G1 X99.003 Y95.726 E9.2827
G1 X99.496 Y95.64 E9.30678
G1 X99.724 Y95.62 E9.3178
G1 X100.225 Y95.617 E9.34188
G1 X100.714 Y95.67 E9.36555
G1 X101.194 Y95.777 E9.38922
G1 X101.668 Y95.94 E9.4133
G1 X101.877 Y96.033 E9.42431
G1 X102.324 Y96.277 E9.44881
G1 X102.515 Y96.403 E9.45983
G1 X102.908 Y96.714 E9.48391
G1 X103.264 Y97.066 E9.50799
G1 X103.413 Y97.24 E9.51901
G1 X103.704 Y97.647 E9.54309
G1 X103.944 Y98.077 E9.56676
G1 X104.135 Y98.53 E9.59043
G1 X104.274 Y99.003 E9.6141
G1 X104.36 Y99.496 E9.63818
G1 X104.38 Y99.724 E9.6492
G1 X104.383 Y100.225 E9.67328
G1 X104.33 Y100.714 E9.69695
G1 X104.223 Y101.194 E9.72062
G1 X104.06 Y101.668 E9.7447
G1 X103.967 Y101.877 E9.75572
G1 X103.723 Y102.324 E9.78021
G1 X103.597 Y102.515 E9.79123
G1 X103.286 Y102.908 E9.81531
G1 X102.934 Y103.264 E9.83939
G1 X102.76 Y103.413 E9.85041
G1 X102.353 Y103.704 E9.87449
G1 X101.923 Y103.944 E9.89816
G1 X101.47 Y104.135 E9.92183
G1 X100.997 Y104.274 E9.9455
G1 X100.504 Y104.36 E9.96958
G1 X100.276 Y104.38 E9.9806
G1 X99.775 Y104.383 E10.00468
G1 X99.286 Y104.33 E10.02835
G1 X98.806 Y104.223 E10.05202
G1 X98.332 Y104.06 E10.0761
G1 X98.123 Y103.967 E10.08712
G1 X97.676 Y103.723 E10.11161
G1 X97.485 Y103.597 E10.12263
G1 X97.092 Y103.286 E10.14671
G1 X96.736 Y102.934 E10.17079
G1 X96.587 Y102.76 E10.18181
G1 X96.296 Y102.353 E10.20589
G1 X96.056 Y101.923 E10.22956
G1 X95.865 Y101.47 E10.25323
G1 X95.726 Y100.997 E10.2769
G1 X95.64 Y100.504 E10.30098
G1 X95.62 Y100.276 E10.312
G1 X95.617 Y99.775 E10.33608
G1 X95.67 Y99.286 E10.35975
G1 X95.777 Y98.806 E10.38342
G1 X95.94 Y98.332 E10.4075
G1 X96.033 Y98.123 E10.41852
G1 X96.277 Y97.676 E10.44301
G1 X96.403 Y97.485 E10.45403
G1 X96.714 Y97.092 E10.47811
G1 X96.953 Y96.85 E10.49446
G1 X96.424 Y96.836 F7800
;TYPE:External perimeter
G1 F900
G1 X96.803 Y96.453 E10.52037
G1 X97.002 Y96.284 E10.53295
G1 X97.44 Y95.97 E10.55885
G1 X97.907 Y95.708 E10.5846
G1 X98.401 Y95.501 E10.61036
G1 X98.915 Y95.35 E10.63611
G1 X99.445 Y95.258 E10.66201
G1 X99.706 Y95.234 E10.67459
G1 X100.244 Y95.232 E10.7005
G1 X100.777 Y95.289 E10.72625
G1 X101.299 Y95.406 E10.752
G1 X101.809 Y95.581 E10.77791
G1 X102.048 Y95.687 E10.79048
G1 X102.523 Y95.946 E10.81654
G1 X102.741 Y96.091 E10.82912
G1 X103.164 Y96.424 E10.85502
G1 X103.547 Y96.803 E10.88093
G1 X103.716 Y97.002 E10.89351
G1 X104.03 Y97.44 E10.91941
G1 X104.292 Y97.907 E10.94516
G1 X104.499 Y98.401 E10.97092
G1 X104.65 Y98.915 E10.99667
G1 X104.742 Y99.445 E11.02257
G1 X104.766 Y99.706 E11.03515
G1 X104.768 Y100.244 E11.06106
G1 X104.711 Y100.777 E11.08681
G1 X104.594 Y101.299 E11.11256
G1 X104.419 Y101.809 E11.13847
G1 X104.313 Y102.048 E11.15104
G1 X104.054 Y102.523 E11.1771
G1 X103.909 Y102.741 E11.18968
G1 X103.576 Y103.164 E11.21558
G1 X103.197 Y103.547 E11.24149
G1 X102.998 Y103.716 E11.25407
G1 X102.56 Y104.03 E11.27997
G1 X102.093 Y104.292 E11.30572
G1 X101.599 Y104.499 E11.33148
G1 X101.085 Y104.65 E11.35723
G1 X100.555 Y104.742 E11.38313
G1 X100.294 Y104.766 E11.39571
G1 X99.756 Y104.768 E11.42162
G1 X99.223 Y104.711 E11.44737
G1 X98.701 Y104.594 E11.47312
G1 X98.191 Y104.419 E11.49903
G1 X97.952 Y104.313 E11.5116
G1 X97.477 Y104.054 E11.53766
G1 X97.259 Y103.909 E11.55024
G1 X96.836 Y103.576 E11.57614
G1 X96.453 Y103.197 E11.60205
G1 X96.284 Y102.998 E11.61463
G1 X95.97 Y102.56 E11.64053
G1 X95.708 Y102.093 E11.66628
