;START_OF_HEADER
;HEADER_VERSION:0.1
;FLAVOR:Griffin
;GENERATOR.NAME:Cura_SteamEngine
;GENERATOR.VERSION:5.2.1
;GENERATOR.BUILD_DATE:2022-10-19
;TARGET_MACHINE.NAME:Ultimaker S5
;EXTRUDER_TRAIN.0.INITIAL_TEMPERATURE:210
;EXTRUDER_TRAIN.0.MATERIAL.VOLUME_USED:7769
;EXTRUDER_TRAIN.0.MATERIAL.GUID:506c9f0d-e3aa-4bd4-b2d2-23e2425b1aa9
;EXTRUDER_TRAIN.0.NOZZLE.DIAMETER:0.4
;EXTRUDER_TRAIN.0.NOZZLE.NAME:AA 0.4
;BUILD_PLATE.INITIAL_TEMPERATURE:60
;BUILD_VOLUME.TEMPERATURE:28
;PRINT.TIME:1018
;PRINT.GROUPS:1
;PRINT.SIZE.MIN.X:57.018
;PRINT.SIZE.MIN.Y:74.64
;PRINT.SIZE.MIN.Z:0.27
;PRINT.SIZE.MAX.X:119.486
;PRINT.SIZE.MAX.Y:108.379
;PRINT.SIZE.MAX.Z:48.27
;SLICE_UUID:d7c3d16c-fae6-4b3a-ab76-3b04a82b8d97
;END_OF_HEADER
;Generated with Cura_SteamEngine 5.2.1
T0
M82 ;absolute extrusion mode

G92 E0
M109 S210
G280 S1
G0 Z20.001
G1 F2700 E-6.5
;LAYER_COUNT:49
;LAYER:0
M107
M204 S1000
M205 X20 Y20
G1 F600 Z2.27
G0 F3600 X108.43 Y94.54 Z2.27
;TYPE:SKIRT
G1 F600 Z0.27
G1 F2700 E0
G1 F1200 X108.028 Y95.165 E0.0151
G1 X107.439 Y96.01 E0.03602
G1 X106.756 Y96.892 E0.05868
G1 X106.367 Y97.352 E0.07092
G1 X105.429 Y98.367 E0.099
G1 X104.653 Y99.112 E0.12085
G1 X104.003 Y99.694 E0.13858
G1 X103.238 Y100.308 E0.15851
G1 X102.398 Y100.927 E0.1797
G1 X101.741 Y101.374 E0.19585
G1 X100.795 Y101.953 E0.21838
G1 X100.345 Y102.206 E0.22887
G1 X99.281 Y102.753 E0.25317
G1 X98.78 Y102.986 E0.2644
G1 X98.054 Y103.289 E0.28038
G1 X96.864 Y103.734 E0.30619
G1 X95.831 Y104.051 E0.32814
G1 X94.941 Y104.292 E0.34687
G1 X93.789 Y104.525 E0.37075
G1 X92.838 Y104.683 E0.39034
G1 X91.488 Y104.823 E0.41791
G1 X90.278 Y104.886 E0.44252
G1 X89.053 Y104.871 E0.46741
G1 X64.94 Y103.398 E0.95819
G1 X64.199 Y103.313 E0.97334
G1 X63.382 Y103.129 E0.99036
G1 X62.574 Y102.852 E1.00771
G1 X61.882 Y102.573 E1.02287
G1 X61.224 Y102.221 E1.03803
G1 X60.578 Y101.778 E1.05394
G1 X60.153 Y101.45 E1.06485
G1 X59.587 Y100.963 E1.08002
G1 X59.077 Y100.419 E1.09516
G1 X58.648 Y99.868 E1.10935
G1 X58.174 Y99.134 E1.1271
G1 X57.674 Y98.106 E1.15032
G1 X57.345 Y97.151 E1.17084
G1 X57.088 Y95.898 E1.19683
G1 X57.018 Y94.77 E1.21979
G1 X57.023 Y84.858 E1.42116
G1 X57.121 Y83.623 E1.44632
G1 X57.322 Y82.69 E1.46571
G1 X57.672 Y81.662 E1.48777
G1 X58.102 Y80.756 E1.50815
G1 X58.492 Y80.121 E1.52329
G1 X59.018 Y79.43 E1.54093
G1 X59.51 Y78.869 E1.55609
G1 X60.059 Y78.365 E1.57123
G1 X60.705 Y77.873 E1.58773
G1 X61.501 Y77.379 E1.60676
G1 X62.173 Y77.055 E1.62191
G1 X62.657 Y76.874 E1.63241
G1 X63.174 Y76.702 E1.64348
G1 X63.893 Y76.505 E1.65863
G1 X64.948 Y76.359 E1.68026
G1 X88.827 Y74.904 E2.16627
G1 X90.104 Y74.868 E2.19223
G1 X91.555 Y74.944 E2.22174
G1 X92.139 Y74.997 E2.23366
G1 X93.439 Y75.162 E2.26028
G1 X94.625 Y75.402 E2.28486
G1 X95.389 Y75.58 E2.3008
G1 X96.665 Y75.96 E2.32785
G1 X97.754 Y76.348 E2.35133
G1 X98.745 Y76.765 E2.37317
G1 X99.585 Y77.159 E2.39202
G1 X100.237 Y77.497 E2.40694
G1 X100.689 Y77.748 E2.41745
G1 X101.699 Y78.353 E2.44136
G1 X102.764 Y79.082 E2.46758
G1 X103.727 Y79.841 E2.49249
G1 X104.453 Y80.46 E2.51188
G1 X105.318 Y81.272 E2.53598
G1 X106.155 Y82.168 E2.56089
G1 X106.977 Y83.137 E2.5867
G1 X107.521 Y83.864 E2.60515
G1 X108.266 Y84.936 E2.63167
G1 X108.855 Y85.939 E2.6553
G1 X109.198 Y86.601 E2.67045
G1 X109.468 Y87.297 E2.68561
G1 X109.662 Y88.017 E2.70076
G1 X109.816 Y89.011 E2.7212
G1 X109.863 Y90.003 E2.74137
G1 X109.818 Y90.747 E2.75651
G1 X109.693 Y91.483 E2.77168
G1 X109.56 Y91.983 E2.78219
G1 X109.392 Y92.534 E2.79389
G1 X109.137 Y93.235 E2.80905
G1 X108.7 Y94.091 E2.82857
G1 X108.43 Y94.54 E2.83922
G0 F3600 X107.9 Y94.482
G1 F1200 X107.485 Y95.112 E2.85454
G1 X107.125 Y95.622 E2.86722
G1 X106.376 Y96.598 E2.89222
G1 X106.014 Y97.026 E2.90361
G1 X105.083 Y98.034 E2.93148
G1 X104.333 Y98.754 E2.9526
G1 X103.816 Y99.217 E2.9667
G1 X103.171 Y99.752 E2.98373
G1 X102.356 Y100.367 E3.00447
G1 X101.487 Y100.968 E3.02593
G1 X100.344 Y101.667 E3.05315
G1 X99.062 Y102.326 E3.08244
G1 X98.595 Y102.543 E3.0929
G1 X97.608 Y102.949 E3.11458
G1 X96.704 Y103.281 E3.13414
G1 X95.706 Y103.588 E3.15536
G1 X94.844 Y103.821 E3.1735
G1 X93.694 Y104.054 E3.19733
G1 X92.788 Y104.205 E3.21599
G1 X91.451 Y104.344 E3.2433
G1 X90.258 Y104.405 E3.26757
G1 X89.067 Y104.391 E3.29177
G1 X64.969 Y102.919 E3.78224
G1 X64.254 Y102.835 E3.79686
G1 X63.263 Y102.581 E3.81765
G1 X62.729 Y102.398 E3.82912
G1 X62.062 Y102.127 E3.84374
G1 X61.43 Y101.784 E3.85835
G1 X60.871 Y101.398 E3.87215
G1 X60.446 Y101.07 E3.88306
G1 X59.901 Y100.599 E3.89769
G1 X59.413 Y100.071 E3.9123
G1 X58.968 Y99.48 E3.92733
G1 X58.578 Y98.874 E3.94197
G1 X58.117 Y97.918 E3.96353
G1 X57.799 Y96.994 E3.98338
G1 X57.564 Y95.834 E4.00742
G1 X57.498 Y94.771 E4.02906
G1 X57.503 Y84.859 E4.23043
G1 X57.595 Y83.695 E4.25415
G1 X57.792 Y82.792 E4.27292
G1 X58.119 Y81.838 E4.29341
G1 X58.536 Y80.963 E4.3131
G1 X59.223 Y79.923 E4.33843
G1 X59.871 Y79.187 E4.35835
G1 X60.404 Y78.703 E4.37297
G1 X61.143 Y78.166 E4.39153
G1 X61.755 Y77.787 E4.40616
G1 X62.518 Y77.426 E4.4233
G1 X63.325 Y77.157 E4.44059
G1 X64.02 Y76.968 E4.45522
G1 X64.977 Y76.838 E4.47484
G1 X88.856 Y75.383 E4.96085
G1 X90.095 Y75.349 E4.98603
G1 X91.374 Y75.41 E5.01204
G1 X92.36 Y75.505 E5.03217
G1 X93.366 Y75.638 E5.05278
G1 X94.308 Y75.825 E5.07229
G1 X95.263 Y76.043 E5.09219
G1 X96.518 Y76.417 E5.1188
G1 X97.565 Y76.79 E5.14138
G1 X98.544 Y77.201 E5.16295
G1 X99.574 Y77.683 E5.18605
G1 X100.456 Y78.168 E5.2065
G1 X101.429 Y78.749 E5.22952
G1 X102.484 Y79.472 E5.2555
G1 X103.415 Y80.206 E5.27959
G1 X104.023 Y80.725 E5.29583
G1 X104.963 Y81.596 E5.32186
G1 X105.807 Y82.499 E5.34697
G1 X106.6 Y83.434 E5.37188
G1 X107.289 Y84.365 E5.39541
G1 X107.872 Y85.213 E5.41631
G1 X108.441 Y86.182 E5.43914
G1 X108.77 Y86.822 E5.45376
G1 X109.027 Y87.494 E5.46838
G1 X109.208 Y88.191 E5.48301
G1 X109.341 Y89.077 E5.50121
G1 X109.383 Y90.025 E5.52049
G1 X109.335 Y90.743 E5.53511
G1 X109.187 Y91.56 E5.55197
G1 X108.933 Y92.394 E5.56968
G1 X108.685 Y93.07 E5.58431
G1 X108.288 Y93.843 E5.60197
G1 X107.9 Y94.482 E5.61715
G0 F3600 X107.607 Y94.045
G1 F1200 X107.093 Y94.835 E5.6363
G1 X106.573 Y95.561 E5.65444
G1 X105.997 Y96.304 E5.67354
G1 X105.661 Y96.7 E5.68409
G1 X104.728 Y97.71 E5.71203
G1 X104.013 Y98.397 E5.73217
G1 X103.285 Y99.04 E5.7519
G1 X102.664 Y99.539 E5.76809
G1 X101.858 Y100.134 E5.78844
G1 X101.341 Y100.486 E5.80115
G1 X100.117 Y101.243 E5.83038
G1 X98.616 Y102.015 E5.86467
G1 X97.442 Y102.498 E5.89046
G1 X96.544 Y102.828 E5.9099
G1 X95.581 Y103.125 E5.93037
G1 X94.733 Y103.355 E5.94822
G1 X93.599 Y103.584 E5.97172
G1 X92.718 Y103.73 E5.98987
G1 X91.414 Y103.866 E6.0165
G1 X90.254 Y103.925 E6.0401
G1 X89.082 Y103.911 E6.06391
G1 X64.998 Y102.44 E6.5541
G1 X64.31 Y102.358 E6.56817
G1 X63.419 Y102.127 E6.58687
G1 X62.885 Y101.944 E6.59834
G1 X62.244 Y101.682 E6.61241
G1 X61.637 Y101.348 E6.62648
G1 X61.164 Y101.018 E6.6382
G1 X60.739 Y100.69 E6.64911
G1 X60.216 Y100.236 E6.66318
G1 X59.46 Y99.361 E6.68667
G1 X58.983 Y98.615 E6.70466
G1 X58.557 Y97.73 E6.72461
G1 X58.254 Y96.839 E6.74373
G1 X58.041 Y95.771 E6.76585
G1 X57.978 Y94.771 E6.78621
G1 X57.983 Y84.859 E6.98758
G1 X58.07 Y83.768 E7.00981
G1 X58.262 Y82.894 E7.02799
G1 X58.566 Y82.011 E7.04696
G1 X58.97 Y81.171 E7.0659
G1 X59.604 Y80.215 E7.0892
G1 X60.232 Y79.505 E7.10846
G1 X60.747 Y79.043 E7.12251
G1 X61.418 Y78.559 E7.13932
G1 X62.007 Y78.196 E7.15338
G1 X62.96 Y77.785 E7.17446
G1 X63.477 Y77.613 E7.18553
G1 X64.146 Y77.432 E7.19961
G1 X65.006 Y77.317 E7.21724
G1 X88.885 Y75.862 E7.70325
G1 X90.098 Y75.829 E7.7279
G1 X91.468 Y75.901 E7.75577
G1 X92.297 Y75.981 E7.77269
G1 X93.294 Y76.113 E7.79312
G1 X94.407 Y76.337 E7.81618
G1 X95.145 Y76.509 E7.83158
G1 X96.371 Y76.874 E7.85757
G1 X97.53 Y77.295 E7.88262
G1 X98.12 Y77.539 E7.89559
G1 X98.932 Y77.909 E7.91372
G1 X99.59 Y78.24 E7.92868
G1 X100.414 Y78.698 E7.94783
G1 X101.183 Y79.163 E7.96609
G1 X102.178 Y79.844 E7.99058
G1 X102.893 Y80.4 E8.00898
G1 X103.818 Y81.181 E8.03358
G1 X104.636 Y81.949 E8.05637
G1 X105.348 Y82.71 E8.07754
G1 X106.214 Y83.72 E8.10457
G1 X106.752 Y84.439 E8.12282
G1 X107.458 Y85.457 E8.14798
G1 X108.027 Y86.425 E8.17079
G1 X108.343 Y87.042 E8.18488
G1 X108.585 Y87.69 E8.19893
G1 X108.752 Y88.362 E8.213
G1 X108.864 Y89.149 E8.22915
G1 X108.902 Y90.045 E8.24736
G1 X108.852 Y90.736 E8.26144
G1 X108.642 Y91.703 E8.28154
G1 X108.474 Y92.254 E8.29324
G1 X108.234 Y92.904 E8.30732
G1 X107.877 Y93.596 E8.32314
G1 X107.607 Y94.045 E8.33378
G0 F3600 X107.196 Y93.798
G1 F1200 X106.821 Y94.381 E8.34787
G1 X106.341 Y95.068 E8.36489
G1 X105.483 Y96.185 E8.39351
G1 X104.39 Y97.368 E8.42623
G1 X103.693 Y98.039 E8.44588
G1 X102.981 Y98.668 E8.46518
G1 X102.377 Y99.154 E8.48093
G1 X101.588 Y99.737 E8.50086
G1 X100.845 Y100.235 E8.51903
G1 X99.875 Y100.828 E8.54213
G1 X98.428 Y101.572 E8.57518
G1 X97.499 Y101.96 E8.59564
G1 X96.399 Y102.37 E8.61949
G1 X95.455 Y102.661 E8.63955
G1 X94.608 Y102.89 E8.65738
G1 X93.273 Y103.155 E8.68503
G1 X92.494 Y103.27 E8.70103
G1 X91.358 Y103.388 E8.72423
G1 X90.252 Y103.445 E8.74673
G1 X89.096 Y103.431 E8.77021
G1 X65.027 Y101.961 E9.2601
G1 X64.368 Y101.88 E9.27359
G1 X63.574 Y101.673 E9.29025
G1 X63.04 Y101.49 E9.30172
G1 X62.426 Y101.237 E9.31521
G1 X61.719 Y100.84 E9.33169
G1 X61.032 Y100.31 E9.34931
G1 X60.532 Y99.873 E9.3628
G1 X59.845 Y99.075 E9.3842
G1 X59.389 Y98.356 E9.40149
G1 X59 Y97.544 E9.41978
G1 X58.709 Y96.685 E9.43821
G1 X58.516 Y95.707 E9.45846
G1 X58.458 Y94.771 E9.47751
G1 X58.463 Y84.859 E9.67888
G1 X58.544 Y83.841 E9.69962
G1 X58.731 Y82.998 E9.71717
G1 X59.014 Y82.183 E9.73469
G1 X59.403 Y81.379 E9.75284
G1 X59.987 Y80.503 E9.77423
G1 X60.592 Y79.824 E9.7927
G1 X61.467 Y79.091 E9.81589
G1 X62.259 Y78.606 E9.83476
G1 X63.111 Y78.24 E9.8536
G1 X63.628 Y78.068 E9.86467
G1 X64.27 Y77.897 E9.87816
G1 X65.035 Y77.796 E9.89384
G1 X88.914 Y76.341 E10.37985
G1 X90.089 Y76.31 E10.40373
G1 X91.188 Y76.362 E10.42608
G1 X92.009 Y76.432 E10.44282
G1 X93.204 Y76.585 E10.4673
G1 X94.299 Y76.805 E10.48999
G1 X95.028 Y76.975 E10.50519
G1 X96.223 Y77.331 E10.53052
G1 X97.347 Y77.739 E10.55482
G1 X98.141 Y78.073 E10.57232
G1 X98.929 Y78.441 E10.58998
G1 X99.538 Y78.756 E10.60391
G1 X100.166 Y79.109 E10.61855
G1 X100.926 Y79.568 E10.63659
G1 X101.903 Y80.237 E10.66064
G1 X102.792 Y80.937 E10.68363
G1 X103.4 Y81.456 E10.69987
G1 X104.295 Y82.286 E10.72467
G1 X105.178 Y83.241 E10.75109
G1 X105.852 Y84.036 E10.77226
G1 X106.498 Y84.908 E10.79431
G1 X107.056 Y85.721 E10.81434
G1 X107.613 Y86.668 E10.83666
G1 X107.915 Y87.26 E10.85016
G1 X108.143 Y87.884 E10.86366
G1 X108.294 Y88.531 E10.87716
G1 X108.395 Y89.402 E10.89497
G1 X108.422 Y90.065 E10.90845
G1 X108.368 Y90.727 E10.92194
G1 X108.183 Y91.563 E10.93934
G1 X108.015 Y92.114 E10.95104
G1 X107.783 Y92.736 E10.96453
G1 X107.466 Y93.349 E10.97855
G1 X107.196 Y93.798 E10.98919
G0 F3600 X106.692 Y93.698
G1 F1200 X106.309 Y94.281 E11.00336
G1 X105.814 Y94.973 E11.02065
G1 X105.104 Y95.888 E11.04418
G1 X104.06 Y97.019 E11.07544
G1 X103.524 Y97.54 E11.09063
G1 X102.855 Y98.144 E11.10894
G1 X102.261 Y98.636 E11.12461
G1 X101.495 Y99.213 E11.14409
G1 X100.8 Y99.692 E11.16124
G1 X99.646 Y100.406 E11.18881
G1 X98.213 Y101.143 E11.22155
G1 X97.111 Y101.597 E11.24576
G1 X96.127 Y101.952 E11.26701
G1 X95.33 Y102.198 E11.28395
G1 X94.506 Y102.421 E11.3013
G1 X93.409 Y102.643 E11.32403
G1 X92.594 Y102.778 E11.34082
G1 X91.465 Y102.895 E11.36388
G1 X90.237 Y102.966 E11.38887
G1 X88.988 Y102.944 E11.41424
G1 X65.057 Y101.482 E11.90132
G1 X64.427 Y101.403 E11.91422
G1 X63.73 Y101.219 E11.92886
G1 X63.196 Y101.036 E11.94033
G1 X62.61 Y100.793 E11.95322
G1 X61.971 Y100.427 E11.96818
G1 X61.326 Y99.93 E11.98472
G1 X60.849 Y99.511 E11.99762
G1 X60.231 Y98.789 E12.01692
G1 X59.795 Y98.099 E12.03351
G1 X59.44 Y97.35 E12.05035
G1 X59.165 Y96.531 E12.0679
G1 X58.992 Y95.643 E12.08628
G1 X58.938 Y94.771 E12.10402
G1 X58.943 Y84.859 E12.30539
G1 X59.018 Y83.911 E12.32471
G1 X59.201 Y83.103 E12.34154
G1 X59.462 Y82.357 E12.3576
G1 X59.836 Y81.589 E12.37495
G1 X60.37 Y80.794 E12.39441
G1 X60.951 Y80.144 E12.41212
G1 X61.749 Y79.479 E12.43322
G1 X62.51 Y79.016 E12.45132
G1 X63.263 Y78.696 E12.46794
G1 X63.78 Y78.524 E12.47901
G1 X64.394 Y78.362 E12.49191
G1 X65.064 Y78.275 E12.50563
G1 X88.943 Y76.82 E12.99165
G1 X90.074 Y76.789 E13.01463
G1 X91.382 Y76.857 E13.04124
G1 X92.171 Y76.933 E13.05734
G1 X93.146 Y77.062 E13.07732
G1 X94.028 Y77.237 E13.09559
G1 X94.891 Y77.435 E13.11358
G1 X96.062 Y77.784 E13.1384
G1 X97.044 Y78.133 E13.15957
G1 X97.94 Y78.508 E13.17931
G1 X98.529 Y78.78 E13.19249
G1 X99.305 Y79.176 E13.21018
G1 X99.757 Y79.427 E13.22069
G1 X100.669 Y79.974 E13.24229
G1 X101.611 Y80.619 E13.26549
G1 X102.303 Y81.157 E13.28329
G1 X103.088 Y81.821 E13.30418
G1 X103.954 Y82.625 E13.32819
G1 X104.812 Y83.551 E13.35383
G1 X105.464 Y84.32 E13.37431
G1 X106.102 Y85.18 E13.39607
G1 X106.65 Y85.977 E13.41572
G1 X107.199 Y86.912 E13.43775
G1 X107.486 Y87.478 E13.45064
G1 X107.699 Y88.076 E13.46353
G1 X107.908 Y89.162 E13.486
G1 X107.941 Y90.084 E13.50474
G1 X107.885 Y90.716 E13.51763
G1 X107.724 Y91.423 E13.53236
G1 X107.556 Y91.974 E13.54407
G1 X107.333 Y92.568 E13.55696
G1 X107.054 Y93.101 E13.56918
G1 X106.692 Y93.698 E13.58336
G0 F3600 X106.29 Y93.436
G1 F1200 X106.016 Y93.858 E13.59358
G1 X105.556 Y94.515 E13.60988
G1 X104.739 Y95.578 E13.63711
G1 X103.631 Y96.767 E13.67013
G1 X103.19 Y97.196 E13.68263
G1 X102.375 Y97.924 E13.70483
G1 X101.803 Y98.385 E13.71976
G1 X101.208 Y98.829 E13.73484
G1 X100.344 Y99.416 E13.75606
G1 X99.406 Y99.99 E13.7784
G1 X98.022 Y100.702 E13.81002
G1 X97.129 Y101.074 E13.82967
G1 X95.983 Y101.494 E13.85447
G1 X95.204 Y101.735 E13.87103
G1 X94.402 Y101.952 E13.88791
G1 X92.857 Y102.26 E13.91992
G1 X91.297 Y102.43 E13.9518
G1 X90.22 Y102.485 E13.9737
G1 X89.017 Y102.465 E13.99815
G1 X65.086 Y101.003 E14.48522
G1 X64.487 Y100.926 E14.49749
G1 X63.886 Y100.765 E14.51013
G1 X63.352 Y100.582 E14.5216
G1 X62.795 Y100.349 E14.53386
G1 X62.044 Y99.878 E14.55187
G1 X61.619 Y99.55 E14.56278
G1 X61.167 Y99.15 E14.57504
G1 X60.616 Y98.501 E14.59234
G1 X60.202 Y97.842 E14.60815
G1 X59.811 Y96.953 E14.62788
G1 X59.622 Y96.379 E14.64015
G1 X59.469 Y95.579 E14.6567
G1 X59.418 Y94.772 E14.67313
G1 X59.423 Y84.86 E14.87449
G1 X59.493 Y83.982 E14.89239
G1 X59.67 Y83.21 E14.90848
G1 X60.002 Y82.342 E14.92736
G1 X60.268 Y81.8 E14.93962
G1 X60.753 Y81.083 E14.95721
G1 X61.309 Y80.465 E14.9741
G1 X62.032 Y79.867 E14.99316
G1 X62.759 Y79.428 E15.01041
G1 X63.415 Y79.151 E15.02488
G1 X63.932 Y78.979 E15.03595
G1 X64.516 Y78.827 E15.04821
G1 X65.094 Y78.754 E15.06004
G1 X88.973 Y77.299 E15.54605
G1 X90.068 Y77.27 E15.56831
G1 X91.142 Y77.321 E15.59015
G1 X92.108 Y77.408 E15.60985
G1 X93.05 Y77.533 E15.62916
G1 X93.934 Y77.708 E15.64747
G1 X94.788 Y77.904 E15.66527
G1 X96.02 Y78.278 E15.69142
G1 X96.98 Y78.626 E15.71217
G1 X97.739 Y78.944 E15.72889
G1 X98.492 Y79.296 E15.74577
G1 X99.072 Y79.595 E15.75903
G1 X99.524 Y79.846 E15.76953
G1 X100.402 Y80.374 E15.79035
G1 X101.341 Y81.016 E15.81345
G1 X102.169 Y81.667 E15.83485
G1 X102.777 Y82.186 E15.85109
G1 X103.615 Y82.965 E15.87434
G1 X104.297 Y83.694 E15.89462
G1 X105.085 Y84.615 E15.91924
G1 X105.599 Y85.302 E15.93667
G1 X106.243 Y86.233 E15.95967
G1 X106.785 Y87.155 E15.9814
G1 X107.056 Y87.694 E15.99365
G1 X107.253 Y88.265 E16.00592
G1 X107.43 Y89.222 E16.02569
G1 X107.461 Y90.101 E16.04356
G1 X107.401 Y90.701 E16.05581
G1 X107.265 Y91.283 E16.06796
G1 X107.097 Y91.834 E16.07966
G1 X106.883 Y92.398 E16.09191
G1 X106.643 Y92.854 E16.10238
G1 X106.29 Y93.436 E16.11621
G0 F3600 X105.962 Y93.056
G1 F1200 X105.613 Y93.597 E16.12929
G1 X105.056 Y94.385 E16.14889
G1 X104.373 Y95.265 E16.17152
G1 X103.296 Y96.423 E16.20365
G1 X102.855 Y96.852 E16.21615
G1 X102.071 Y97.552 E16.2375
G1 X101.516 Y98 E16.25199
G1 X100.777 Y98.547 E16.27067
G1 X100.26 Y98.899 E16.28338
G1 X99.163 Y99.576 E16.30956
G1 X97.82 Y100.266 E16.34024
G1 X96.78 Y100.696 E16.3631
G1 X96.026 Y100.973 E16.37942
G1 X95.234 Y101.226 E16.39631
G1 X94.283 Y101.487 E16.41634
G1 X93.047 Y101.733 E16.44195
G1 X92.345 Y101.838 E16.45637
G1 X91.152 Y101.957 E16.48072
G1 X90.227 Y102.005 E16.49954
G1 X89.247 Y101.993 E16.51945
G1 X65.115 Y100.523 E17.01061
G1 X64.549 Y100.449 E17.02221
G1 X64.041 Y100.311 E17.0329
G1 X63.507 Y100.128 E17.04437
G1 X62.981 Y99.905 E17.05598
G1 X62.337 Y99.498 E17.07145
G1 X61.912 Y99.17 E17.08236
G1 X61.486 Y98.79 E17.09396
G1 X60.998 Y98.212 E17.10932
G1 X60.61 Y97.587 E17.12427
G1 X60.256 Y96.772 E17.14232
G1 X60.079 Y96.229 E17.15392
G1 X59.93 Y95.282 E17.1734
G1 X59.898 Y94.772 E17.18378
G1 X59.903 Y84.86 E17.38515
G1 X59.967 Y84.053 E17.40159
G1 X60.139 Y83.318 E17.41693
G1 X60.446 Y82.525 E17.4342
G1 X60.699 Y82.013 E17.4458
G1 X61.139 Y81.369 E17.46165
G1 X61.666 Y80.788 E17.47759
G1 X62.315 Y80.254 E17.49466
G1 X63.007 Y79.84 E17.51104
G1 X63.566 Y79.607 E17.52334
G1 X64.083 Y79.435 E17.53441
G1 X64.786 Y79.255 E17.54916
G1 X89.155 Y77.772 E18.04514
G1 X90.07 Y77.751 E18.06373
G1 X91.295 Y77.813 E18.08865
G1 X92.045 Y77.884 E18.10395
G1 X92.977 Y78.007 E18.12305
G1 X93.972 Y78.207 E18.14367
G1 X94.663 Y78.368 E18.15808
G1 X95.859 Y78.73 E18.18347
G1 X96.606 Y78.996 E18.19958
G1 X97.538 Y79.38 E18.22006
G1 X98.273 Y79.723 E18.23654
G1 X98.839 Y80.015 E18.24947
G1 X99.421 Y80.341 E18.26303
G1 X100.048 Y80.72 E18.27791
G1 X101.044 Y81.394 E18.30234
G1 X101.714 Y81.915 E18.31958
G1 X102.465 Y82.551 E18.33958
G1 X103.268 Y83.298 E18.36186
G1 X103.946 Y84.022 E18.38201
G1 X104.719 Y84.926 E18.40617
G1 X105.311 Y85.724 E18.42636
G1 X105.845 Y86.502 E18.44553
G1 X106.372 Y87.398 E18.46665
G1 X106.626 Y87.909 E18.47824
G1 X106.806 Y88.451 E18.48984
G1 X106.955 Y89.289 E18.50713
G1 X106.98 Y90.116 E18.52394
G1 X106.9 Y90.833 E18.5386
G1 X106.638 Y91.694 E18.55688
G1 X106.384 Y92.354 E18.57125
G1 X105.962 Y93.056 E18.58789
G0 F3600 X105.55 Y92.808
G1 F1200 X105.132 Y93.451 E18.60347
G1 X104.676 Y94.091 E18.61943
G1 X104.006 Y94.955 E18.64164
G1 X103.095 Y95.941 E18.66892
G1 X102.412 Y96.609 E18.68832
G1 X101.895 Y97.072 E18.70242
G1 X101.351 Y97.52 E18.71674
G1 X100.634 Y98.059 E18.73496
G1 X99.99 Y98.502 E18.75084
G1 X98.933 Y99.154 E18.77607
G1 X97.622 Y99.828 E18.80602
G1 X96.76 Y100.188 E18.825
G1 X95.696 Y100.578 E18.84802
G1 X94.954 Y100.808 E18.8638
G1 X94.181 Y101.017 E18.88007
G1 X92.972 Y101.259 E18.90512
G1 X92.296 Y101.361 E18.91901
G1 X91.316 Y101.463 E18.93902
G1 X90.216 Y101.524 E18.9614
G1 X89.253 Y101.513 E18.98097
G1 X65.144 Y100.044 E19.47166
G1 X64.48 Y99.954 E19.48527
G1 X63.663 Y99.674 E19.50282
G1 X63.17 Y99.462 E19.51372
G1 X62.631 Y99.118 E19.52671
G1 X62.206 Y98.79 E19.53762
G1 X61.807 Y98.432 E19.54851
G1 X61.3 Y97.79 E19.56513
G1 X61.019 Y97.334 E19.57601
G1 X60.701 Y96.591 E19.59243
G1 X60.536 Y96.081 E19.60332
G1 X60.378 Y95.036 E19.62479
G1 X60.383 Y84.86 E19.83152
G1 X60.441 Y84.125 E19.8465
G1 X60.607 Y83.428 E19.86105
G1 X60.89 Y82.707 E19.87679
G1 X61.13 Y82.227 E19.88769
G1 X61.659 Y81.507 E19.90584
G1 X62.021 Y81.112 E19.91673
G1 X62.602 Y80.639 E19.93195
G1 X63.254 Y80.253 E19.94734
G1 X63.718 Y80.062 E19.95753
G1 X64.235 Y79.89 E19.9686
G1 X64.869 Y79.73 E19.98188
G1 X89.166 Y78.252 E20.4764
G1 X90.066 Y78.231 E20.49469
G1 X91.097 Y78.28 E20.51566
G1 X91.982 Y78.36 E20.53371
G1 X92.897 Y78.481 E20.55246
G1 X93.863 Y78.675 E20.57248
G1 X94.642 Y78.863 E20.58876
G1 X95.698 Y79.183 E20.61117
G1 X96.613 Y79.513 E20.63093
G1 X97.203 Y79.757 E20.64391
G1 X98.055 Y80.151 E20.66298
G1 X98.606 Y80.435 E20.67557
G1 X99.172 Y80.752 E20.68875
G1 X99.97 Y81.241 E20.70776
G1 X100.764 Y81.784 E20.7273
G1 X101.419 Y82.294 E20.74417
G1 X102.153 Y82.916 E20.76371
G1 X102.937 Y83.646 E20.78548
G1 X103.596 Y84.35 E20.80507
G1 X104.337 Y85.218 E20.82825
G1 X104.915 Y85.995 E20.84792
G1 X105.439 Y86.757 E20.86671
G1 X105.958 Y87.641 E20.88754
G1 X106.194 Y88.122 E20.89842
G1 X106.357 Y88.634 E20.90934
G1 X106.485 Y89.593 E20.92899
G1 X106.499 Y90.129 E20.93989
G1 X106.421 Y90.756 E20.95272
G1 X106.178 Y91.554 E20.96967
G1 X105.949 Y92.145 E20.98254
G1 X105.55 Y92.808 E20.99826
G0 F3600 X105.082 Y92.652
G1 F1200 X104.808 Y93.074 E21.00849
G1 X104.297 Y93.797 E21.02647
G1 X103.641 Y94.643 E21.04822
G1 X102.742 Y95.616 E21.07513
G1 X102.186 Y96.163 E21.09098
G1 X101.465 Y96.808 E21.11063
G1 X100.942 Y97.231 E21.1243
G1 X100.347 Y97.675 E21.13938
G1 X99.72 Y98.105 E21.15482
G1 X98.686 Y98.742 E21.1795
G1 X97.418 Y99.394 E21.20846
G1 X96.449 Y99.795 E21.22977
G1 X95.695 Y100.072 E21.24609
G1 X94.828 Y100.345 E21.26455
G1 X94.067 Y100.551 E21.28057
G1 X92.629 Y100.839 E21.31036
G1 X91.266 Y100.985 E21.33821
G1 X90.212 Y101.044 E21.35966
G1 X89.258 Y101.033 E21.37904
G1 X65.174 Y99.565 E21.86922
G1 X64.585 Y99.482 E21.88131
G1 X63.499 Y99.109 E21.90463
G1 X62.924 Y98.738 E21.91854
G1 X62.227 Y98.2 E21.93642
G1 X61.515 Y97.286 E21.95996
G1 X61.022 Y96.119 E21.9857
G1 X60.858 Y94.998 E22.00871
G1 X60.863 Y84.86 E22.21467
G1 X60.957 Y84.025 E22.23174
G1 X61.152 Y83.332 E22.24637
G1 X61.56 Y82.444 E22.26622
G1 X62.226 Y81.55 E22.28887
G1 X63.067 Y80.92 E22.31022
G1 X63.603 Y80.606 E22.32284
G1 X64.386 Y80.346 E22.3396
G1 X64.952 Y80.206 E22.35144
G1 X89.06 Y78.737 E22.84211
G1 X90.054 Y78.711 E22.86231
G1 X91.208 Y78.769 E22.88579
G1 X91.919 Y78.836 E22.9003
G1 X92.817 Y78.955 E22.9187
G1 X93.754 Y79.142 E22.93811
G1 X94.505 Y79.323 E22.9538
G1 X95.537 Y79.635 E22.97571
G1 X96.429 Y79.957 E22.99497
G1 X97.135 Y80.251 E23.01051
G1 X97.724 Y80.523 E23.02369
G1 X98.373 Y80.854 E23.03849
G1 X98.825 Y81.105 E23.04899
G1 X99.699 Y81.637 E23.06978
G1 X100.402 Y82.118 E23.08708
G1 X101.234 Y82.762 E23.10846
G1 X101.842 Y83.281 E23.1247
G1 X102.591 Y83.979 E23.1455
G1 X103.245 Y84.678 E23.16494
G1 X103.964 Y85.521 E23.18745
G1 X104.52 Y86.267 E23.20635
G1 X105.03 Y87.01 E23.22466
G1 X105.544 Y87.884 E23.24526
G1 X105.762 Y88.334 E23.25542
G1 X105.905 Y88.812 E23.26556
G1 X106.048 Y89.97 E23.28926
G1 X105.887 Y90.863 E23.30769
G1 X105.719 Y91.414 E23.3194
G1 X105.509 Y91.948 E23.33105
G1 X105.082 Y92.652 E23.34778
G0 F3600 X104.679 Y92.391
G1 F1200 X104.348 Y92.897 E23.36006
G1 X103.988 Y93.407 E23.37275
G1 X103.266 Y94.342 E23.39674
G1 X102.39 Y95.29 E23.42297
G1 X101.771 Y95.894 E23.44054
G1 X101.254 Y96.357 E23.45464
G1 X100.655 Y96.846 E23.47035
G1 X100.06 Y97.29 E23.48543
G1 X99.342 Y97.778 E23.50306
G1 X98.458 Y98.319 E23.52412
G1 X97.213 Y98.959 E23.55256
G1 X96.283 Y99.344 E23.57301
G1 X95.409 Y99.662 E23.5919
G1 X94.803 Y99.852 E23.6048
G1 X93.872 Y100.101 E23.62438
G1 X92.933 Y100.291 E23.64384
G1 X92.196 Y100.406 E23.659
G1 X91.078 Y100.519 E23.68183
G1 X90.28 Y100.56 E23.69806
G1 X89.264 Y100.553 E23.7187
G1 X65.203 Y99.086 E24.20842
G1 X64.684 Y99.008 E24.21908
G1 X63.974 Y98.765 E24.23432
G1 X63.435 Y98.526 E24.2463
G1 X62.548 Y97.841 E24.26907
G1 X62.078 Y97.227 E24.28478
G1 X61.648 Y96.454 E24.30275
G1 X61.417 Y95.565 E24.32141
G1 X61.338 Y94.773 E24.33758
G1 X61.343 Y84.861 E24.53894
G1 X61.431 Y84.101 E24.55449
G1 X61.596 Y83.515 E24.56685
G1 X61.989 Y82.664 E24.5859
G1 X62.59 Y81.867 E24.60618
G1 X63.342 Y81.314 E24.62514
G1 X63.816 Y81.041 E24.63625
G1 X64.538 Y80.801 E24.65171
G1 X65.21 Y80.671 E24.66561
G1 X89.089 Y79.216 E25.15163
G1 X90.054 Y79.192 E25.17124
G1 X91.051 Y79.239 E25.19151
G1 X91.749 Y79.3 E25.20575
G1 X92.825 Y79.445 E25.2278
G1 X93.561 Y79.591 E25.24305
G1 X94.368 Y79.783 E25.2599
G1 X95.376 Y80.087 E25.28129
G1 X96.246 Y80.4 E25.30007
G1 X96.934 Y80.687 E25.31522
G1 X97.826 Y81.102 E25.3352
G1 X98.592 Y81.525 E25.35298
G1 X99.428 Y82.033 E25.37285
G1 X100.131 Y82.514 E25.39016
G1 X100.922 Y83.127 E25.41049
G1 X101.623 Y83.729 E25.42926
G1 X102.312 Y84.383 E25.44856
G1 X102.895 Y85.006 E25.46589
G1 X103.537 Y85.759 E25.486
G1 X104.062 Y86.452 E25.50366
G1 X104.626 Y87.27 E25.52384
G1 X105.296 Y88.409 E25.55069
G1 X105.481 Y89.201 E25.56721
G1 X105.536 Y90.148 E25.58648
G1 X105.428 Y90.723 E25.59837
G1 X105.26 Y91.274 E25.61007
G1 X104.997 Y91.864 E25.62319
G1 X104.679 Y92.391 E25.6357
G0 F3600 X104.277 Y92.129
G1 F1200 X103.956 Y92.621 E25.64763
G1 X103.596 Y93.131 E25.66031
G1 X102.903 Y94.027 E25.68333
G1 X101.957 Y95.046 E25.71157
G1 X101.451 Y95.536 E25.72588
G1 X100.858 Y96.064 E25.74201
G1 X100.368 Y96.461 E25.75483
G1 X99.773 Y96.905 E25.76991
G1 X99.091 Y97.369 E25.78666
G1 X98.223 Y97.9 E25.80734
G1 X97.014 Y98.521 E25.83495
G1 X96.118 Y98.894 E25.85467
G1 X95.364 Y99.171 E25.87098
G1 X94.577 Y99.418 E25.88774
G1 X93.776 Y99.63 E25.90457
G1 X92.837 Y99.82 E25.92404
G1 X92.147 Y99.928 E25.93823
G1 X91.054 Y100.039 E25.96054
G1 X90.12 Y100.083 E25.97954
G1 X89.163 Y100.069 E25.99898
G1 X65.232 Y98.607 E26.48606
G1 X64.664 Y98.494 E26.49782
G1 X64.13 Y98.311 E26.50929
G1 X63.674 Y98.105 E26.51946
G1 X63.085 Y97.65 E26.53458
G1 X62.553 Y97.1 E26.55012
G1 X62.094 Y96.274 E26.56932
G1 X61.893 Y95.505 E26.58547
G1 X61.818 Y94.773 E26.60042
G1 X61.823 Y84.861 E26.80178
G1 X61.905 Y84.177 E26.81578
G1 X62.222 Y83.254 E26.8356
G1 X62.522 Y82.74 E26.84769
G1 X63.078 Y82.097 E26.86496
G1 X63.617 Y81.707 E26.87848
G1 X64.172 Y81.428 E26.8911
G1 X64.689 Y81.256 E26.90217
G1 X65.24 Y81.15 E26.91357
G1 X89.119 Y79.695 E27.39958
G1 X90.124 Y79.675 E27.42
G1 X91.029 Y79.718 E27.4384
G1 X91.705 Y79.778 E27.45219
G1 X92.731 Y79.916 E27.47322
G1 X93.537 Y80.077 E27.48992
G1 X94.231 Y80.243 E27.50442
G1 X95.215 Y80.539 E27.52529
G1 X95.962 Y80.805 E27.5414
G1 X96.733 Y81.123 E27.55834
G1 X97.322 Y81.395 E27.57152
G1 X97.907 Y81.694 E27.58487
G1 X98.427 Y81.984 E27.59697
G1 X99.157 Y82.429 E27.61434
G1 X99.967 Y82.988 E27.63433
G1 X100.535 Y83.43 E27.64895
G1 X101.218 Y84.011 E27.66717
G1 X101.961 Y84.711 E27.68791
G1 X102.615 Y85.413 E27.7074
G1 X103.171 Y86.069 E27.72487
G1 X103.728 Y86.811 E27.74372
G1 X104.26 Y87.595 E27.76296
G1 X104.863 Y88.621 E27.78714
G1 X105.003 Y89.249 E27.80021
G1 X105.061 Y90.28 E27.82119
G1 X104.801 Y91.134 E27.83933
G1 X104.586 Y91.617 E27.85007
G1 X104.277 Y92.129 E27.86221
G0 F3600 X103.905 Y91.819
G1 F1200 X103.564 Y92.344 E27.87493
G1 X103.204 Y92.854 E27.88761
G1 X102.539 Y93.714 E27.9097
G1 X101.685 Y94.638 E27.93526
G1 X101.131 Y95.178 E27.95098
G1 X100.555 Y95.692 E27.96666
G1 X100.138 Y96.032 E27.97759
G1 X99.426 Y96.563 E27.99564
G1 X98.841 Y96.959 E28.00999
G1 X98.04 Y97.449 E28.02906
G1 X96.867 Y98.057 E28.0559
G1 X95.952 Y98.443 E28.07608
G1 X95.122 Y98.746 E28.09403
G1 X94.452 Y98.955 E28.10829
G1 X93.681 Y99.16 E28.1245
G1 X92.742 Y99.35 E28.14396
G1 X92.097 Y99.451 E28.15722
G1 X91.029 Y99.56 E28.17903
G1 X90.125 Y99.603 E28.19742
G1 X89.193 Y99.59 E28.21635
G1 X65.035 Y98.114 E28.70805
G1 X64.285 Y97.857 E28.72415
G1 X63.804 Y97.598 E28.73525
G1 X63.379 Y97.27 E28.74616
G1 X63.044 Y96.925 E28.75593
G1 X62.66 Y96.311 E28.77064
G1 X62.369 Y95.445 E28.7892
G1 X62.298 Y94.773 E28.80293
G1 X62.303 Y84.861 E29.00429
G1 X62.379 Y84.253 E29.01674
G1 X62.666 Y83.437 E29.03431
G1 X63.169 Y82.694 E29.05254
G1 X63.527 Y82.356 E29.06254
G1 X64.324 Y81.884 E29.08136
G1 X65.05 Y81.642 E29.09691
G1 X89.211 Y80.171 E29.58866
G1 X89.982 Y80.153 E29.60433
G1 X91.006 Y80.198 E29.62515
G1 X91.662 Y80.256 E29.63853
G1 X92.638 Y80.387 E29.65853
G1 X93.374 Y80.533 E29.67378
G1 X94.094 Y80.703 E29.68881
G1 X95.054 Y80.991 E29.70917
G1 X95.801 Y81.257 E29.72528
G1 X96.531 Y81.559 E29.74133
G1 X97.181 Y81.86 E29.75588
G1 X97.674 Y82.113 E29.76714
G1 X98.126 Y82.364 E29.77764
G1 X98.886 Y82.825 E29.7957
G1 X99.589 Y83.306 E29.813
G1 X100.299 Y83.857 E29.83126
G1 X100.907 Y84.376 E29.8475
G1 X101.611 Y85.039 E29.86715
G1 X102.194 Y85.662 E29.88448
G1 X102.805 Y86.38 E29.90363
G1 X103.333 Y87.083 E29.92149
G1 X103.783 Y87.738 E29.93764
G1 X104.436 Y88.841 E29.96368
G1 X104.575 Y89.785 E29.98306
G1 X104.57 Y90.246 E29.99243
G1 X104.281 Y91.193 E30.01254
G1 X103.905 Y91.819 E30.02738
G0 F3600 X103.471 Y91.606
G1 F1200 X103.171 Y92.067 E30.03855
G1 X102.811 Y92.577 E30.05123
G1 X102.136 Y93.442 E30.07352
G1 X101.288 Y94.358 E30.09888
G1 X100.811 Y94.821 E30.11239
G1 X100.294 Y95.284 E30.12649
G1 X99.794 Y95.692 E30.1396
G1 X99.199 Y96.136 E30.15468
G1 X98.59 Y96.55 E30.16964
G1 X97.789 Y97.04 E30.18872
G1 X96.648 Y97.63 E30.21481
G1 X95.787 Y97.992 E30.23379
G1 X94.978 Y98.288 E30.25129
G1 X94.327 Y98.491 E30.26514
G1 X93.586 Y98.689 E30.28072
G1 X92.647 Y98.879 E30.30018
G1 X92.047 Y98.974 E30.31253
G1 X91.067 Y99.076 E30.33254
G1 X90.131 Y99.123 E30.35158
G1 X89.222 Y99.111 E30.37005
G1 X65.13 Y97.639 E30.8604
G1 X64.441 Y97.403 E30.8752
G1 X64.097 Y97.218 E30.88313
G1 X63.511 Y96.766 E30.89817
G1 X63.104 Y96.131 E30.91349
G1 X62.845 Y95.385 E30.92953
G1 X62.778 Y94.773 E30.94204
G1 X62.783 Y84.861 E31.14341
G1 X62.853 Y84.329 E31.15431
G1 X63.11 Y83.619 E31.16965
G1 X63.546 Y82.991 E31.18518
G1 X63.802 Y82.749 E31.19233
G1 X64.475 Y82.339 E31.20834
G1 X65.141 Y82.118 E31.2226
G1 X89.222 Y80.651 E31.71272
G1 X89.993 Y80.633 E31.72839
G1 X90.983 Y80.677 E31.74852
G1 X91.667 Y80.739 E31.76247
G1 X92.468 Y80.845 E31.77889
G1 X93.319 Y81.012 E31.79651
G1 X93.886 Y81.144 E31.80833
G1 X94.833 Y81.424 E31.8284
G1 X95.696 Y81.731 E31.847
G1 X96.286 Y81.975 E31.85997
G1 X96.962 Y82.288 E31.87511
G1 X97.441 Y82.533 E31.88604
G1 X97.931 Y82.806 E31.89743
G1 X98.558 Y83.185 E31.91232
G1 X99.377 Y83.746 E31.93249
G1 X99.987 Y84.222 E31.9482
G1 X100.595 Y84.741 E31.96444
G1 X101.26 Y85.367 E31.983
G1 X101.843 Y85.99 E32.00033
G1 X102.484 Y86.747 E32.02048
G1 X102.937 Y87.354 E32.03587
G1 X103.433 Y88.081 E32.05375
G1 X103.997 Y89.041 E32.07637
G1 X104.126 Y90.06 E32.09724
G1 X103.84 Y90.994 E32.11708
G1 X103.471 Y91.606 E32.1316
G0 F3600 X103.069 Y91.345
G1 F1200 X102.779 Y91.79 E32.14239
G1 X102.4 Y92.326 E32.15572
G1 X101.784 Y93.117 E32.17609
G1 X100.98 Y93.987 E32.20016
G1 X100.49 Y94.463 E32.21404
G1 X99.948 Y94.948 E32.22881
G1 X99.507 Y95.307 E32.24036
G1 X98.912 Y95.751 E32.25545
G1 X98.34 Y96.14 E32.2695
G1 X97.539 Y96.63 E32.28858
G1 X96.428 Y97.203 E32.31397
G1 X95.621 Y97.542 E32.33175
G1 X94.867 Y97.819 E32.34807
G1 X94.201 Y98.028 E32.36225
G1 X93.491 Y98.219 E32.37719
G1 X92.552 Y98.409 E32.39665
G1 X91.998 Y98.496 E32.40805
G1 X90.98 Y98.601 E32.42884
G1 X90.137 Y98.643 E32.44598
G1 X89.251 Y98.632 E32.46398
G1 X65.225 Y97.164 E32.95299
G1 X64.483 Y96.91 E32.96892
G1 X63.873 Y96.439 E32.98458
G1 X63.549 Y95.95 E32.9965
G1 X63.322 Y95.326 E33.00999
G1 X63.258 Y94.774 E33.02128
G1 X63.263 Y84.862 E33.22264
G1 X63.327 Y84.404 E33.23204
G1 X63.554 Y83.801 E33.24513
G1 X63.986 Y83.201 E33.26015
G1 X64.627 Y82.795 E33.27556
G1 X65.235 Y82.593 E33.28858
G1 X89.233 Y81.131 E33.77701
G1 X90.004 Y81.113 E33.79268
G1 X90.991 Y81.159 E33.81275
G1 X91.604 Y81.215 E33.82526
G1 X92.405 Y81.321 E33.84167
G1 X93.21 Y81.48 E33.85834
G1 X93.82 Y81.623 E33.87107
G1 X94.696 Y81.884 E33.88964
G1 X95.479 Y82.162 E33.90652
G1 X96.129 Y82.43 E33.9208
G1 X96.744 Y82.715 E33.93457
G1 X97.208 Y82.953 E33.94517
G1 X97.682 Y83.217 E33.95619
G1 X98.344 Y83.618 E33.97191
G1 X99.047 Y84.099 E33.98922
G1 X99.675 Y84.587 E34.00537
G1 X100.309 Y85.129 E34.02232
G1 X100.91 Y85.695 E34.03909
G1 X101.516 Y86.344 E34.05713
G1 X102.072 Y87 E34.0746
G1 X102.541 Y87.626 E34.09049
G1 X103.019 Y88.324 E34.10768
G1 X103.475 Y89.1 E34.12596
G1 X103.57 Y89.393 E34.13222
G1 X103.592 Y90.163 E34.14787
G1 X103.398 Y90.798 E34.16136
G1 X103.069 Y91.345 E34.17432
G0 F3600 X102.666 Y91.084
G1 F1200 X102.387 Y91.513 E34.18472
G1 X102.021 Y92.032 E34.19762
G1 X101.445 Y92.775 E34.21672
G1 X100.618 Y93.67 E34.24148
G1 X100.17 Y94.106 E34.25418
G1 X99.645 Y94.576 E34.26849
G1 X99.22 Y94.922 E34.27963
G1 X98.616 Y95.372 E34.29493
G1 X98.089 Y95.731 E34.30788
G1 X97.273 Y96.229 E34.3273
G1 X96.209 Y96.776 E34.35161
G1 X95.456 Y97.091 E34.36819
G1 X94.691 Y97.372 E34.38475
G1 X94.076 Y97.565 E34.39784
G1 X93.411 Y97.745 E34.41184
G1 X92.447 Y97.94 E34.43182
G1 X91.948 Y98.019 E34.44208
G1 X90.955 Y98.122 E34.46236
G1 X90.142 Y98.163 E34.4789
G1 X89.28 Y98.153 E34.49641
G1 X65.318 Y96.689 E34.98412
G1 X64.714 Y96.482 E34.99709
G1 X64.258 Y96.13 E35.00879
G1 X64.022 Y95.82 E35.01671
G1 X63.802 Y95.297 E35.02823
G1 X63.738 Y94.774 E35.03894
G1 X63.743 Y84.862 E35.24031
G1 X63.801 Y84.48 E35.24815
G1 X63.998 Y83.984 E35.259
G1 X64.322 Y83.556 E35.2699
G1 X64.778 Y83.25 E35.28106
G1 X65.325 Y83.068 E35.29277
G1 X89.244 Y81.611 E35.77959
G1 X90.032 Y81.593 E35.79561
G1 X90.948 Y81.637 E35.81424
G1 X91.541 Y81.691 E35.82633
G1 X92.358 Y81.8 E35.84308
G1 X93.101 Y81.947 E35.85847
G1 X93.683 Y82.083 E35.87061
G1 X94.571 Y82.348 E35.88943
G1 X95.329 Y82.618 E35.90578
G1 X95.928 Y82.866 E35.91895
G1 X96.525 Y83.142 E35.93231
G1 X96.975 Y83.372 E35.94258
G1 X97.434 Y83.628 E35.95326
G1 X98.073 Y84.014 E35.96842
G1 X98.776 Y84.495 E35.98573
G1 X99.364 Y84.952 E36.00086
G1 X99.98 Y85.479 E36.01733
G1 X100.559 Y86.023 E36.03347
G1 X101.15 Y86.655 E36.05105
G1 X101.715 Y87.322 E36.0688
G1 X102.146 Y87.898 E36.08342
G1 X102.605 Y88.567 E36.0999
G1 X103.09 Y89.392 E36.11934
G1 X103.133 Y90.023 E36.13219
G1 X102.956 Y90.603 E36.14451
G1 X102.666 Y91.084 E36.15592
G1 F2700 E29.65592
G0 F3600 X104.707 Y93.082
G0 X104.001 Y94.622
G0 X100.247 Y97.649
G0 X98.652 Y98.668
G0 X94.934 Y100.512
G0 X91.178 Y100.913
G0 X89.565 Y100.943
G0 X83.916 Y100.63
G0 X84.566 Y89.969
G1 F2700 E36.15592
G1 F1200 X84.479 Y90.665 E36.17017
G1 X84.299 Y91.143 E36.18055
G1 X83.966 Y91.567 E36.1915
G1 X83.599 Y91.779 E36.20011
G1 X83.031 Y91.889 E36.21186
G1 X82.169 Y91.921 E36.22939
G1 X81.793 Y91.623 E36.23913
G1 X81.794 Y91.067 E36.25043
G1 X81.787 Y88.021 E36.31231
G1 X82.263 Y87.774 E36.32321
G1 X83.125 Y87.802 E36.34073
G1 X83.811 Y87.972 E36.35508
G1 X84.092 Y88.2 E36.36244
G1 X84.324 Y88.555 E36.37105
G1 X84.534 Y89.265 E36.38609
G1 X84.566 Y89.969 E36.40041
G1 F2700 E29.90041
;MESH:3DBenchy.3mf
G0 F3600 X82.898 Y88.905
G1 F2700 E36.40041
G0 F3600 X82.268 Y88.256
;TYPE:WALL-OUTER
G1 F1200 X82.275 Y91.438 E36.46505
G1 X82.955 Y91.413 E36.47888
G1 X83.467 Y91.313 E36.48947
G1 X83.622 Y91.225 E36.4931
G1 X83.862 Y90.935 E36.50074
G1 X84.01 Y90.543 E36.50926
G1 X84.085 Y89.969 E36.52102
G1 X84.062 Y89.449 E36.53159
G1 X84.056 Y89.341 E36.53379
G1 X83.878 Y88.737 E36.54658
G1 X83.596 Y88.413 E36.55531
G1 X83.084 Y88.282 E36.56604
G1 X82.268 Y88.256 E36.58263
G0 F3600 X82.268 Y88.456
G0 X82.898 Y88.905
G0 X82.932 Y89.933
G0 X82.844 Y89.932
;TYPE:WALL-INNER
G1 F851.8 X82.833 Y90.328 E36.59356
G1 F873.1 X82.833 Y90.858 E36.60787
G1 X83.262 Y90.784 E36.61963
G1 X83.463 Y90.406 E36.63119
G1 F859.3 X83.494 Y89.475 E36.6567
G1 F844.4 X83.346 Y88.935 E36.67226
G1 X82.838 Y88.843 E36.68662
G1 F838.5 X82.844 Y89.932 E36.71709
G0 F3600 X83.042 Y89.945
G1 F2700 E30.21709
G0 F3600 X83.834 Y90.508
G0 X85.836 Y90.798
G0 X85.59 Y91.294
;TYPE:WALL-OUTER
G1 F2700 E36.71709
G1 F1084.6 X85.342 Y91.719 E36.72804
G0 F3600 X85.061 Y92.46
G0 X84.264 Y93.028
G0 X81.196 Y93.33
G0 X80.372 Y92.322
G0 X80.383 Y87.106
G0 X81.333 Y86.38
G0 X82.79 Y86.385
G0 X83.795 Y86.48
G0 X84.972 Y87.101
G0 X85.557 Y87.879
G0 X85.906 Y88.857
G0 X86.402 Y90.718
G0 X87.327 Y90.901
G0 X88.069 Y91.895
G0 X88.021 Y92.239
G1 F798.3 X87.979 Y92.614 E36.73906
G0 F3600 X87.978 Y93.626
G0 X86.408 Y93.779
G0 X84.264 Y93.028
G0 X81.196 Y93.33
G0 X80.372 Y92.322
G0 X80.383 Y87.106
G0 X80.543 Y86.216
G0 X80.882 Y86.736
G1 F1200 X81.29 Y86.584 E36.74791
G1 X82.785 Y86.584 E36.77828
G1 X83.695 Y86.658 E36.79683
G1 X84.329 Y86.886 E36.81051
G1 X84.792 Y87.197 E36.82184
G1 X85.359 Y87.932 E36.8407
G1 X85.708 Y88.865 E36.86094
G1 X85.787 Y89.97 E36.88345
G1 X85.653 Y90.927 E36.90308
G1 F1103.2 X85.59 Y91.294 E36.91124
G1 X85.978 Y91.052 E36.92127
G1 F1200 X86.313 Y90.935 E36.92847
G1 X86.827 Y90.929 E36.93892
G1 X87.135 Y91.028 E36.94549
G1 X87.522 Y91.295 E36.95504
G1 X87.825 Y91.766 E36.96642
G1 F972.4 X88.021 Y92.239 E36.97899
G1 X88.283 Y91.92 E36.98912
G1 F1200 X89.031 Y90.626 E37.01948
G1 X88.278 Y89.302 E37.05043
G1 X88.164 Y88.947 E37.058
G1 X88.253 Y88.397 E37.06932
G1 X88.632 Y88.084 E37.07931
G1 X89.113 Y88.041 E37.08912
G1 X89.443 Y88.194 E37.09651
G1 X89.804 Y88.626 E37.10795
G1 X90.004 Y89.004 E37.11663
G1 X90.147 Y88.708 E37.12331
G1 X90.588 Y88.183 E37.13724
G1 X91.165 Y88.016 E37.14944
G1 X91.648 Y88.355 E37.16143
G1 F1228.1 X91.778 Y88.81 E37.17084
G1 X91.692 Y89.223 E37.17924
G1 F1200 X91.282 Y89.923 E37.19572
G1 X91.002 Y90.379 E37.20659
G1 X90.962 Y90.633 E37.21181
G1 X91.188 Y91.087 E37.22211
G1 X91.463 Y91.574 E37.23348
G1 X91.754 Y92.06 E37.24498
G1 X91.852 Y92.489 E37.25392
G1 X91.73 Y92.975 E37.2641
G1 X91.419 Y93.244 E37.27246
G1 X91.084 Y93.326 E37.27946
G1 X90.698 Y93.247 E37.28747
G1 X90.402 Y93.024 E37.295
G1 X89.948 Y92.253 E37.31317
G1 X89.446 Y92.997 E37.33141
G1 X89.051 Y93.275 E37.34122
G1 X88.535 Y93.235 E37.35173
G1 X88.274 Y93.048 E37.35826
G1 F953.9 X87.979 Y92.614 E37.37136
G1 X87.671 Y93.026 E37.38421
G1 F1200 X87.363 Y93.34 E37.39314
G1 X87.002 Y93.517 E37.40131
G1 X86.512 Y93.592 E37.41138
G1 X85.921 Y93.431 E37.42382
G1 X85.445 Y92.966 E37.43734
G1 X85.261 Y92.492 E37.44767
G1 X85.245 Y92.144 E37.45475
G1 F1189.1 X85.318 Y91.823 E37.46149
G1 X84.909 Y92.335 E37.47492
G1 F1200 X84.215 Y92.83 E37.49223
G1 X83.571 Y93.049 E37.50605
G1 X82.753 Y93.112 E37.52272
G1 X81.837 Y93.102 E37.54133
G1 X81.219 Y93.129 E37.5539
G1 X80.85 Y92.966 E37.56209
G1 X80.571 Y92.339 E37.57603
G1 F1173.1 X80.581 Y91.637 E37.59059
G1 F1015.5 X80.524 Y91.303 E37.5986
G1 F895.4 X80.514 Y90.671 E37.61529
G1 F918.7 X80.538 Y90.551 E37.61845
G1 F1068.7 X80.591 Y89.794 E37.63557
G1 F1200 X80.591 Y87.726 E37.67758
G1 X80.582 Y87.141 E37.68947
G1 X80.882 Y86.736 E37.69971
G0 F3600 X81.069 Y86.667
G0 X80.873 Y86.075
G0 X79.963 Y86.829
G0 X77.927 Y86.221
G0 X77.106 Y86.233
G0 X76.251 Y86.484
G0 X75.519 Y87.206
G0 X75.39 Y88.5
G0 X75.681 Y87.699
G1 F1222.4 X75.745 Y87.202 E37.70972
G1 F1202.8 X75.967 Y86.914 E37.71709
G1 F1200 X76.353 Y86.656 E37.72652
G1 X77.193 Y86.42 E37.74425
G1 X77.961 Y86.423 E37.75985
G1 X78.745 Y86.633 E37.77634
G1 X79.229 Y87.007 E37.78876
G1 X79.48 Y87.383 E37.79795
G1 X79.603 Y87.879 E37.80833
G1 X79.554 Y88.655 E37.82412
G1 X79.373 Y89.088 E37.83366
G1 X79.053 Y89.353 E37.8421
G1 X79.241 Y89.46 E37.84649
G1 F1132.2 X79.572 Y89.881 E37.85796
G1 F1011.4 X79.848 Y90.647 E37.87726
G1 F918.7 X79.882 Y90.699 E37.87886
G1 F895.4 X79.912 Y91.25 E37.89344
G1 F1015.5 X79.781 Y91.538 E37.90091
G1 F1173.1 X79.639 Y92.028 E37.91149
G1 F1200 X79.318 Y92.535 E37.92368
G1 X78.786 Y92.978 E37.93775
G1 X78.213 Y93.211 E37.95031
G1 X77.56 Y93.283 E37.96366
G1 X76.854 Y93.225 E37.97805
G1 X76.094 Y92.918 E37.9947
G1 X75.778 Y92.531 E38.00485
G1 X75.666 Y91.938 E38.01711
G1 X75.848 Y91.509 E38.02658
G1 X76.274 Y91.237 E38.03685
G1 X76.978 Y91.306 E38.05122
G1 X77.487 Y91.669 E38.06392
G1 X77.718 Y91.678 E38.06861
G1 X77.983 Y91.492 E38.07519
G1 X78.073 Y91.111 E38.08314
G1 X78.003 Y90.909 E38.08749
G1 F1202.8 X77.591 Y90.463 E38.0998
G1 X76.784 Y90.304 E38.11647
G1 X76.395 Y89.909 E38.12771
G1 F1200 X76.348 Y89.467 E38.13674
G1 X76.497 Y89.067 E38.14541
G1 F1186.4 X76.805 Y88.786 E38.15397
G1 F1127.2 X77.518 Y88.579 E38.16993
G1 F1084.6 X77.752 Y88.31 E38.17787
G1 X77.707 Y88.112 E38.18239
G1 X77.562 Y88.033 E38.18607
G1 F1132.2 X77.383 Y88.051 E38.18992
G1 F1236.7 X76.808 Y88.328 E38.20253
G1 F1245.5 X76.359 Y88.427 E38.21156
G1 F1200 X76.031 Y88.274 E38.21892
G1 X75.798 Y88.01 E38.22607
G1 F1222.4 X75.681 Y87.699 E38.23271
G0 F3600 X75.706 Y87.501
G0 X75.169 Y86.923
G1 F1233.8 X75.265 Y87.31 E38.24061
G1 X75.146 Y87.866 E38.25187
G1 F1200 X74.752 Y88.183 E38.26214
G1 X73.997 Y88.226 E38.2775
G1 X73.366 Y88.197 E38.29034
G1 X73.348 Y92.415 E38.37603
G1 X73.214 Y92.765 E38.38364
G1 X73.027 Y92.97 E38.38928
G1 X72.664 Y93.124 E38.39729
G1 X72.213 Y93.081 E38.40649
G1 X71.878 Y92.885 E38.41438
G1 X71.709 Y92.439 E38.42407
G1 X71.736 Y91.966 E38.43369
G1 X71.735 Y89.573 E38.48231
G1 X71.726 Y89.015 E38.49365
G1 X71.768 Y88.377 E38.50663
G1 X71.604 Y88.215 E38.51132
G1 X71.392 Y88.173 E38.51571
G1 X70.545 Y88.283 E38.53306
G1 X70.127 Y88.077 E38.54253
G1 F1213.9 X69.871 Y87.658 E38.5524
G1 X69.916 Y87.036 E38.56494
G1 F1200 X70.229 Y86.66 E38.57487
G1 X70.488 Y86.555 E38.58055
G1 X71.265 Y86.589 E38.59635
G1 X71.884 Y86.579 E38.60893
G1 X74.142 Y86.584 E38.6548
G1 X74.749 Y86.599 E38.66714
G1 X75.169 Y86.923 E38.67791
G0 F3600 X75.217 Y87.117
G0 X75.586 Y86.415
G0 X75.466 Y87.702
G0 X76.249 Y90.636
G0 X76.76 Y90.795
;TYPE:WALL-INNER
G1 F1115.1 X77.347 Y90.946 E38.69107
G0 F3600 X76.142 Y91.085
G0 X75.488 Y91.756
G0 X75.641 Y92.71
G0 X76.833 Y93.423
G0 X77.636 Y93.48
G0 X78.954 Y93.108
G0 X79.856 Y92.025
G0 X79.979 Y89.323
G0 X79.956 Y89.341
G1 F815.9 X80.069 Y88.744 E38.70848
G1 F1064.3 X80.098 Y87.911 E38.72736
G1 F1124.8 X80.095 Y87.815 E38.72942
G0 F3600 X80.006 Y87.14
G0 X78.78 Y86.436
G0 X77.927 Y86.221
G0 X77.106 Y86.233
G0 X76.251 Y86.484
G0 X75.519 Y87.206
G0 X75.125 Y88.745
G0 X74.049 Y88.916
G0 X73.524 Y92.529
G0 X73.011 Y93.222
G0 X71.983 Y93.213
G0 X71.052 Y90.63
G0 X71.036 Y88.92
G0 X69.833 Y88.704
G0 X67.627 Y88.962
G0 X66.886 Y89.512
G0 X66.894 Y90.333
G0 X68.58 Y90.821
G0 X69.8 Y91.119
G0 X69.34 Y91.473
;TYPE:WALL-OUTER
G1 F1200 X69.473 Y91.938 E38.73925
G1 X69.299 Y92.383 E38.74896
G1 X68.823 Y92.886 E38.76303
G1 X68.32 Y93.139 E38.77446
G1 X67.967 Y93.232 E38.78188
G1 X67.242 Y93.279 E38.79664
G1 X66.457 Y93.187 E38.8127
G1 X65.701 Y92.771 E38.83023
G1 X65.087 Y92.146 E38.84803
G1 X64.725 Y91.483 E38.86337
G1 F1303.8 X64.592 Y90.748 E38.87744
G1 F1488.1 X64.546 Y90.079 E38.88862
G1 F1538.6 X64.561 Y89.291 E38.90136
G1 F1377.9 X64.666 Y88.486 E38.9159
G1 F1231 X64.86 Y87.933 E38.92753
G1 F1200 X65.281 Y87.296 E38.94304
G1 X65.971 Y86.745 E38.96098
G1 X66.596 Y86.496 E38.97465
G1 X67.282 Y86.407 E38.9887
G1 X67.912 Y86.442 E39.00152
G1 X68.472 Y86.607 E39.01338
G1 F1211.1 X69.148 Y87.064 E39.02982
G1 F1228.1 X69.431 Y87.593 E39.04175
G1 F1219.5 X69.413 Y88.034 E39.05059
G1 F1200 X69.263 Y88.311 E39.05699
G1 X69.003 Y88.528 E39.06387
G1 X68.606 Y88.607 E39.07209
G1 X68.162 Y88.485 E39.08145
G1 X67.559 Y88.132 E39.09564
G1 X67.243 Y88.089 E39.10212
G1 X66.717 Y88.269 E39.11342
G1 X66.461 Y88.533 E39.12089
G1 X66.24 Y89.11 E39.13344
G1 X66.174 Y89.811 E39.14774
G1 X66.205 Y90.383 E39.15938
G1 X66.348 Y90.947 E39.1712
G1 X66.483 Y91.142 E39.17602
G1 X66.625 Y91.346 E39.18107
G1 X66.911 Y91.521 E39.18788
G1 X67.194 Y91.594 E39.19382
G1 X67.678 Y91.551 E39.20369
G1 X68.299 Y91.112 E39.21914
G1 X68.819 Y91.118 E39.2297
G1 X69.235 Y91.353 E39.23941
G1 X69.34 Y91.473 E39.24265
G0 F3600 X69.395 Y91.665
G0 X70.008 Y91.478
G0 X67.965 Y90.528
G0 X67.149 Y90.869
G0 X66.864 Y89.761
G0 X67.121 Y88.831
G0 X69.694 Y88.842
G0 X71.036 Y88.92
G0 X71.513 Y92.5
G0 X72.132 Y93.27
G0 X73.136 Y93.142
G0 X74.036 Y90.29
G0 X74.049 Y88.916
G0 X75.375 Y88.578
G0 X76.142 Y91.085
G0 X75.488 Y91.756
G0 X75.641 Y92.71
G0 X76.833 Y93.423
G0 X77.636 Y93.48
G0 X78.954 Y93.108
G0 X79.856 Y92.025
G0 X80.391 Y89.72
G0 X80.383 Y87.106
G0 X81.333 Y86.38
G0 X82.79 Y86.385
G0 X83.795 Y86.48
G0 X84.972 Y87.101
G0 X86.406 Y89.073
G0 X86.456 Y90.228
G0 X88.073 Y90.884
G0 X87.517 Y88.515
G0 X88.628 Y87.871
G0 X91.953 Y87.766
G0 X92.406 Y88.222
G1 F1200 X92.911 Y88.022 E39.25368
G1 X93.366 Y88.125 E39.26316
G1 X93.788 Y88.456 E39.27406
G1 X94.042 Y89.352 E39.29298
G1 X94.199 Y89.724 E39.30118
G1 X94.374 Y90.195 E39.31139
G1 X94.672 Y89.365 E39.3293
G1 X95.003 Y88.529 E39.34757
G1 X95.335 Y88.13 E39.35811
G1 X95.925 Y88.061 E39.37018
G1 X96.27 Y88.314 E39.37887
G1 X96.496 Y88.865 E39.39097
G1 X96.448 Y89.22 E39.39825
G1 X96.169 Y89.848 E39.41221
G1 X95.927 Y90.585 E39.42797
G1 X95.001 Y93.174 E39.48383
G1 X94.589 Y94.241 E39.50706
G1 X94.291 Y94.884 E39.52146
G1 X93.948 Y95.341 E39.53307
G1 X93.494 Y95.652 E39.54425
G1 X92.744 Y95.886 E39.56021
G1 X92.179 Y95.716 E39.5722
G1 X91.922 Y95.447 E39.57976
G1 X91.773 Y94.953 E39.59024
G1 X91.873 Y94.555 E39.59857
G1 X92.247 Y94.27 E39.60813
G1 X92.79 Y94.094 E39.61972
G1 X93.029 Y93.887 E39.62615
G1 X93.303 Y93.166 E39.64182
G1 X93.537 Y92.67 E39.65296
G1 X93.519 Y92.472 E39.657
G1 X93.252 Y91.877 E39.67025
G1 X93.166 Y91.639 E39.67539
G1 X92.539 Y89.97 E39.71161
G1 X92.289 Y89.345 E39.72528
G1 F1228.1 X92.227 Y88.621 E39.73974
G1 X92.406 Y88.222 E39.74844
G0 F3600 X92.592 Y88.149
G0 X92.368 Y87.554
G0 X92.013 Y88.636
G0 X92.065 Y94.137
G0 X91.573 Y94.979
G0 X92.001 Y95.839
G0 X92.848 Y96.063
G0 X93.641 Y95.798
G0 X94.356 Y95.133
G0 X96.839 Y90.136
G0 X97.066 Y89.517
G1 F1200 X96.812 Y89.23 E39.75622
G1 X96.732 Y88.864 E39.76383
G1 X96.856 Y88.407 E39.77345
G1 X97.168 Y88.124 E39.78201
G1 X97.628 Y88.013 E39.79162
G1 X99.931 Y88.029 E39.83841
G1 X100.374 Y88.221 E39.84822
G1 X100.615 Y88.666 E39.8585
G1 X100.623 Y89.067 E39.86665
G1 X100.412 Y89.637 E39.879
G1 X99.306 Y91.207 E39.91801
G1 X98.977 Y91.656 E39.92932
G1 X99.453 Y91.62 E39.93902
G1 X100.009 Y91.678 E39.95037
G1 X100.49 Y91.902 E39.96115
G1 X100.69 Y92.28 E39.96984
G1 F1197.3 X100.676 Y92.745 E39.97931
G1 F1173.1 X100.544 Y93.031 E39.98584
G1 F1175.7 X101.072 Y92.472 E40.00176
G1 F1200 X101.647 Y91.728 E40.02086
G1 X102.133 Y91.037 E40.03802
G1 X102.515 Y90.405 E40.05303
G1 X102.66 Y89.929 E40.06313
G1 X102.642 Y89.744 E40.06691
G1 X102.62 Y89.542 E40.07104
G1 X102.195 Y88.819 E40.08808
G1 X101.746 Y88.164 E40.10421
G1 X101.326 Y87.604 E40.11843
G1 X100.778 Y86.961 E40.13559
G1 X100.213 Y86.356 E40.15241
G1 X99.635 Y85.815 E40.16849
G1 X99.056 Y85.323 E40.18393
G1 X98.496 Y84.886 E40.19836
G1 X97.806 Y84.415 E40.21533
G1 X96.969 Y83.908 E40.23521
G1 X96.31 Y83.572 E40.25024
G1 X95.719 Y83.299 E40.26347
G1 X95.151 Y83.066 E40.27594
G1 X94.417 Y82.803 E40.29178
G1 X93.547 Y82.543 E40.31022
G1 X93.009 Y82.42 E40.32144
G1 X92.27 Y82.272 E40.33675
G1 X91.484 Y82.168 E40.35285
G1 X90.91 Y82.116 E40.36456
G1 X90.018 Y82.074 E40.3827
G1 X89.261 Y82.091 E40.39809
G1 X65.418 Y83.544 E40.88337
G1 X64.969 Y83.694 E40.89298
G1 X64.655 Y83.914 E40.90077
G1 X64.432 Y84.197 E40.90809
G1 X64.269 Y84.59 E40.91674
G1 X64.223 Y84.883 E40.92276
G1 X64.223 Y87.842 E40.98287
G1 F1239.7 X64.208 Y88.491 E40.99568
G1 F1392.2 X64.174 Y89.314 E41.01028
G1 F1543 X64.169 Y90.096 E41.02289
G1 F1488.1 X64.187 Y90.807 E41.03475
G1 F1300.6 X64.22 Y91.516 E41.04815
G1 F1200 X64.219 Y94.76 E41.11406
G1 X64.271 Y95.173 E41.12251
G1 X64.577 Y95.768 E41.1361
G1 X64.948 Y96.053 E41.14561
G1 X65.412 Y96.213 E41.15558
G1 X89.303 Y97.673 E41.64184
G1 X90.138 Y97.682 E41.65881
G1 X90.886 Y97.645 E41.67402
G1 X91.883 Y97.541 E41.69438
G1 X92.382 Y97.462 E41.70465
G1 X93.292 Y97.279 E41.7235
G1 X93.959 Y97.098 E41.73755
G1 X94.556 Y96.909 E41.75027
G1 X95.304 Y96.633 E41.76646
G1 X96 Y96.343 E41.78178
G1 X97.045 Y95.806 E41.80565
G1 X97.853 Y95.31 E41.82491
G1 X98.358 Y94.966 E41.83732
G1 X98.937 Y94.532 E41.85203
G1 X99.326 Y94.216 E41.86221
G1 X99.85 Y93.748 E41.87648
G1 F1197.3 X100.281 Y93.327 E41.88875
G1 F1170.4 X100.514 Y93.062 E41.89608
G1 X100.217 Y93.238 E41.90325
G1 F1197.3 X99.717 Y93.309 E41.91353
G1 F1200 X97.932 Y93.304 E41.9498
G1 X97.401 Y93.321 E41.96059
G1 X96.876 Y93.041 E41.97268
G1 X96.707 Y92.57 E41.98284
G1 X96.71 Y92.196 E41.99044
G1 X96.912 Y91.702 E42.00128
G1 X97.224 Y91.256 E42.01234
G1 X98.358 Y89.679 E42.0518
G1 X98.083 Y89.707 E42.05742
G1 X97.467 Y89.663 E42.06996
G1 X97.066 Y89.517 E42.07863
G0 F3600 X96.934 Y89.368
G0 X96.754 Y90.061
G0 X96.391 Y91.245
G0 X96.202 Y91.177
;TYPE:WALL-INNER
G1 F901.9 X96.244 Y91.616 E42.09021
G1 X96.583 Y91.374 E42.10113
G1 F1228.1 X97.319 Y90.16 E42.12938
G1 F1127.2 X96.722 Y89.952 E42.14297
G1 F1228.1 X96.202 Y91.177 E42.16944
G0 F3600 X96.244 Y91.616
G1 F662.2 X96.073 Y92.086 E42.18659
G0 F3600 X96.088 Y92.091
G0 X94.806 Y95.192
G0 X93.7 Y96.214
G0 X92.916 Y96.461
G0 X92.009 Y96.313
G0 X91.413 Y95.773
G0 X91.173 Y94.773
G0 X91.522 Y93.853
G0 X90.316 Y93.727
G0 X89.316 Y93.828
G0 X88.23 Y93.757
G0 X87.169 Y94.097
G0 X86.337 Y94.175
G0 X85.507 Y93.865
G0 X84.869 Y93.175
G0 X83.642 Y93.644
G0 X81.159 Y93.732
G0 X79.996 Y92.773
G0 X79.045 Y93.519
G0 X77.566 Y93.884
G0 X76.608 Y93.776
G0 X75.664 Y93.336
G0 X75.105 Y92.642
G0 X75.044 Y91.611
G0 X75.495 Y90.926
G0 X75.704 Y89.915
G0 X75.801 Y88.942
G0 X74.717 Y88.867
G0 X73.976 Y92.685
G0 X73.185 Y93.585
G0 X72.03 Y93.66
G0 X71.524 Y93.209
G1 F1200 X71.244 Y92.559 E42.20096
G1 X71.256 Y91.946 E42.21342
G1 X71.255 Y89.581 E42.26147
G1 X71.243 Y88.677 E42.27983
G1 X70.558 Y88.765 E42.29386
G1 X70.306 Y88.702 E42.29914
G1 X69.751 Y88.42 E42.31179
G1 X69.647 Y88.599 E42.31599
G1 X69.19 Y88.97 E42.32795
G1 X68.613 Y89.106 E42.33999
G1 X67.957 Y88.924 E42.35382
G1 X67.398 Y88.595 E42.367
G1 X67.253 Y88.575 E42.36998
G1 X67.002 Y88.665 E42.37539
G1 X66.875 Y88.797 E42.37911
G1 X66.712 Y89.22 E42.38832
G1 X66.656 Y89.821 E42.40059
G1 X66.682 Y90.31 E42.41053
G1 X66.792 Y90.745 E42.41965
G1 X66.961 Y90.989 E42.42568
G1 X67.234 Y91.108 E42.43173
G1 X67.507 Y91.085 E42.4373
G1 X68.145 Y90.633 E42.45318
G1 X68.934 Y90.637 E42.46921
G1 X69.473 Y90.936 E42.48173
G1 X69.786 Y91.297 E42.49144
G1 X69.983 Y91.942 E42.50514
G1 X69.732 Y92.62 E42.51983
G1 X69.11 Y93.282 E42.53828
G1 X68.442 Y93.603 E42.55334
G1 X67.986 Y93.715 E42.56287
G1 X67.258 Y93.763 E42.5777
G1 X66.315 Y93.654 E42.59698
G1 X65.408 Y93.158 E42.61798
G1 X64.765 Y92.504 E42.63662
G1 X64.7 Y92.414 E42.63887
G1 X64.699 Y94.968 E42.69076
G1 X64.925 Y95.43 E42.7012
G1 X65.178 Y95.625 E42.70769
G1 X65.506 Y95.738 E42.71474
G1 X89.321 Y97.193 E43.19945
G1 X90.128 Y97.202 E43.21585
G1 X90.909 Y97.161 E43.23174
G1 X92.066 Y97.039 E43.25537
G1 F1165.2 X93.187 Y96.797 E43.2793
G1 F1115.1 X93.809 Y96.621 E43.29334
G1 F1134.7 X94.373 Y96.459 E43.30588
G1 F1186.4 X95.12 Y96.189 E43.32218
G1 F1200 X95.798 Y95.907 E43.3371
G1 X96.809 Y95.387 E43.3602
G1 X97.583 Y94.913 E43.37864
G1 X98.071 Y94.581 E43.39063
G1 X98.635 Y94.159 E43.40494
G1 X99.086 Y93.788 E43.4168
G1 X97.95 Y93.784 E43.43988
G1 X97.329 Y93.796 E43.4525
G1 X96.704 Y93.493 E43.46661
G1 X96.453 Y93.251 E43.47369
G1 X96.253 Y92.726 E43.48511
G1 F860.8 X96.073 Y92.086 E43.50328
G1 F851.8 X95.788 Y92.404 E43.51507
G1 F1183.7 X95.449 Y93.347 E43.53568
G1 F1200 X95.042 Y94.401 E43.55863
G1 X94.751 Y95.043 E43.57295
G1 F1160 X94.344 Y95.641 E43.58811
G1 F1107.9 X93.76 Y96.094 E43.60425
G1 F1119.9 X92.89 Y96.351 E43.62387
G1 F1173.1 X92.543 Y96.327 E43.63108
G1 F1200 X91.959 Y96.143 E43.64352
G1 X91.537 Y95.733 E43.65547
G1 X91.296 Y95.009 E43.67098
G1 X91.368 Y94.488 E43.68166
G1 X91.517 Y94.233 E43.68766
G1 F1294.3 X91.982 Y93.899 E43.69852
G1 F1297.4 X92.587 Y93.616 E43.71115
G1 F1100.8 X92.979 Y92.566 E43.73577
G1 F987.7 X92.779 Y92.123 E43.74754
G1 F993.5 X92.828 Y92.078 E43.74914
G1 F976.2 X92.149 Y90.465 E43.79195
G1 F936 X91.925 Y89.895 E43.80751
G1 F957.6 X91.522 Y90.566 E43.82698
G1 F1001.4 X91.905 Y91.305 E43.84689
G1 F1055.5 X92.198 Y91.841 E43.86082
G1 F1025.8 X92.364 Y92.268 E43.87155
G1 F966.8 X92.379 Y92.551 E43.87854
G1 F987.7 X92.192 Y93.23 E43.89559
G1 F1178.4 X91.636 Y93.638 E43.90983
G1 F1294.3 X91.087 Y93.806 E43.92072
G1 F1200 X90.459 Y93.663 E43.9338
G1 X90.053 Y93.347 E43.94426
G1 X89.922 Y93.154 E43.94899
G1 X89.782 Y93.34 E43.95372
G1 X89.334 Y93.67 E43.96503
G1 X89.091 Y93.76 E43.97029
G1 X88.4 Y93.716 E43.98436
G1 X87.967 Y93.411 E43.99512
G1 X87.634 Y93.737 E44.00459
G1 X87.076 Y93.991 E44.01704
G1 X86.43 Y94.067 E44.03025
G1 X85.853 Y93.91 E44.0424
G1 X85.581 Y93.768 E44.04864
G1 X85.08 Y93.278 E44.06287
G1 X84.905 Y92.928 E44.07082
G1 X84.413 Y93.275 E44.08305
G1 X83.672 Y93.522 E44.09892
G1 X82.79 Y93.591 E44.11689
G1 X81.845 Y93.582 E44.13609
G1 X81.19 Y93.608 E44.14941
G1 X80.933 Y93.544 E44.15479
G1 X80.558 Y93.336 E44.1635
G1 X80.381 Y93.093 E44.16961
G1 X80.154 Y92.58 E44.18101
G1 X80.094 Y92.205 E44.18872
G1 X79.685 Y92.853 E44.20429
G1 X79.034 Y93.397 E44.22152
G1 X78.332 Y93.68 E44.2369
G1 X77.594 Y93.767 E44.252
G1 X76.741 Y93.697 E44.26938
G1 X75.815 Y93.323 E44.28967
G1 X75.415 Y92.872 E44.30192
G1 X75.316 Y92.664 E44.3066
G1 X75.179 Y91.976 E44.32085
G1 X75.321 Y91.446 E44.332
G1 X75.553 Y91.13 E44.33996
G1 X76.051 Y90.818 E44.3519
G1 X76.35 Y90.763 E44.35808
G1 F1183.7 X76.76 Y90.795 E44.36654
G1 X76.449 Y90.645 E44.37364
G1 F1200 X76.046 Y90.26 E44.38496
G1 X75.917 Y90.025 E44.39041
G1 X75.869 Y89.431 E44.40251
G1 X76.077 Y88.837 E44.4153
G1 X75.759 Y88.671 E44.42259
G1 X75.407 Y88.278 E44.43331
G1 X75.024 Y88.572 E44.44311
G1 X74.755 Y88.662 E44.44888
G1 X73.841 Y88.717 E44.46748
G1 X73.828 Y92.501 E44.54435
G1 X73.604 Y93.045 E44.5563
G1 X73.365 Y93.311 E44.56357
G1 X73.12 Y93.47 E44.5695
G1 X72.718 Y93.601 E44.57809
G1 X72.161 Y93.559 E44.58944
G1 X71.844 Y93.445 E44.59628
G1 X71.524 Y93.209 E44.60436
G0 F3600 X71.412 Y93.288
G0 X72.727 Y93.318
G0 X74.028 Y92.177
G0 X74.049 Y88.916
G0 X75.375 Y88.578
G0 X76.142 Y91.085
G0 X75.488 Y91.756
G0 X75.641 Y92.71
G0 X76.833 Y93.423
G0 X77.636 Y93.48
G0 X78.954 Y93.108
G0 X79.856 Y92.025
G0 X80.393 Y90.318
G0 X80.383 Y87.106
G0 X81.333 Y86.38
G0 X82.79 Y86.385
G0 X83.795 Y86.48
G0 X84.972 Y87.101
G0 X86.406 Y89.073
G0 X86.456 Y90.228
G0 X88.073 Y90.884
G0 X87.671 Y88.307
G0 X89.172 Y87.418
G0 X89.145 Y87.556
G1 F1200 X89.685 Y87.784 E44.61627
G1 X90.01 Y88.124 E44.62582
G1 X90.39 Y87.72 E44.63709
G1 X91.065 Y87.555 E44.65121
G1 X91.386 Y87.601 E44.6578
G1 X91.996 Y87.973 E44.67231
G1 X92.09 Y87.86 E44.6753
G1 X92.684 Y87.58 E44.68864
G1 X92.973 Y87.529 E44.6946
G1 X93.634 Y87.719 E44.70857
G1 X94.112 Y88.09 E44.72087
G1 X94.255 Y88.347 E44.72684
G1 X94.383 Y88.793 E44.73627
G1 X94.683 Y88.145 E44.75077
G1 X94.998 Y87.799 E44.76028
G1 X95.259 Y87.662 E44.76627
G1 X95.857 Y87.567 E44.77857
G1 X96.092 Y87.611 E44.78343
G1 X96.597 Y87.97 E44.79601
G1 X96.993 Y87.677 E44.80602
G1 X97.548 Y87.535 E44.81766
G1 X99.934 Y87.549 E44.86613
G1 X100.207 Y87.603 E44.87179
G1 F1007.4 X100.803 Y87.856 E44.88719
G1 F1005.4 X100.579 Y87.451 E44.89821
G1 F1197.3 X99.873 Y86.695 E44.91927
G1 F1200 X99.323 Y86.18 E44.93458
G1 X98.735 Y85.681 E44.95025
G1 X98.213 Y85.274 E44.96369
G1 X97.546 Y84.819 E44.9801
G1 X96.735 Y84.328 E44.99936
G1 X96.1 Y84.004 E45.01384
G1 X95.527 Y83.739 E45.02666
G1 X94.979 Y83.514 E45.0387
G1 X94.267 Y83.259 E45.05406
G1 X93.425 Y83.007 E45.07192
G1 X92.878 Y82.884 E45.08331
G1 X92.191 Y82.746 E45.09754
G1 X91.431 Y82.645 E45.11312
G1 X90.877 Y82.595 E45.12442
G1 X90.012 Y82.554 E45.14201
G1 X89.236 Y82.573 E45.15778
G1 X65.51 Y84.019 E45.64068
G1 X65.187 Y84.128 E45.64761
G1 X64.85 Y84.442 E45.65696
G1 X64.703 Y84.92 E45.66712
G1 X64.702 Y87.302 E45.71551
G1 X65.01 Y86.898 E45.72583
G1 X65.727 Y86.325 E45.74448
G1 X66.457 Y86.034 E45.76045
G1 X67.268 Y85.927 E45.77706
G1 X67.996 Y85.966 E45.79188
G1 X68.677 Y86.166 E45.80629
G1 X69.414 Y86.667 E45.8244
G1 X69.515 Y86.787 E45.82758
G1 X69.965 Y86.259 E45.84168
G1 X70.409 Y86.074 E45.85145
G1 X71.272 Y86.109 E45.869
G1 X71.885 Y86.099 E45.88145
G1 X74.154 Y86.104 E45.92755
G1 X74.693 Y86.117 E45.9385
G1 X74.983 Y86.185 E45.94455
G1 X75.437 Y86.498 E45.95575
G1 X75.558 Y86.654 E45.95977
G1 X75.699 Y86.516 E45.96377
G1 X76.206 Y86.193 E45.97599
G1 X77.125 Y85.941 E45.99535
G1 X78.025 Y85.943 E46.01363
G1 X78.955 Y86.192 E46.03319
G1 X79.616 Y86.7 E46.05012
G1 X79.932 Y87.222 E46.06252
G1 F1157.4 X80.095 Y87.815 E46.07543
G1 F1137.1 X80.105 Y87.059 E46.09156
G1 F1178.4 X80.214 Y86.795 E46.09746
G1 F1200 X80.621 Y86.325 E46.11009
G1 X81.21 Y86.105 E46.12286
G1 X82.824 Y86.106 E46.15565
G1 X83.799 Y86.186 E46.17552
G1 X84.462 Y86.424 E46.18984
G1 X85.118 Y86.834 E46.20555
G1 X85.784 Y87.695 E46.22766
G1 X86.182 Y88.761 E46.25078
G1 X86.267 Y89.946 E46.27492
G1 X86.209 Y90.438 E46.28498
G1 X86.915 Y90.457 E46.29933
G1 X87.285 Y90.572 E46.3072
G1 X87.824 Y90.922 E46.32026
G1 X88.094 Y91.285 E46.32945
G1 X88.478 Y90.622 E46.34501
G1 X87.847 Y89.514 E46.37092
G1 X87.685 Y88.982 E46.38221
G1 X87.726 Y88.466 E46.39273
G1 X87.873 Y88.103 E46.40069
G1 X88.357 Y87.676 E46.4138
G1 X88.572 Y87.598 E46.41844
G1 X89.145 Y87.556 E46.43012
G0 F3600 X89.172 Y87.418
G0 X90.009 Y87.793
G0 X94.159 Y87.874
G0 X100.073 Y87.849
G0 X100.871 Y87.949
G0 X100.803 Y87.856
G1 F814.5 X101.128 Y88.332 E46.44666
G0 F3600 X101.087 Y89.187
G1 F1200 X100.852 Y89.845 E46.46085
G1 X99.916 Y91.174 E46.49387
G1 X100.205 Y91.24 E46.4999
G1 X100.784 Y91.522 E46.51298
G1 X101.009 Y91.801 E46.52026
G1 X101.731 Y90.774 E46.54576
G1 X102.073 Y90.208 E46.5592
G1 X102.164 Y89.793 E46.56783
G1 X102.154 Y89.695 E46.56983
G1 X101.782 Y89.066 E46.58468
G1 F1186.4 X101.44 Y88.575 E46.59696
G1 F1046.9 X101.116 Y88.323 E46.60639
G1 F1057.7 X101.087 Y89.187 E46.62608
G0 F3600 X101.268 Y89.215
G0 X100.341 Y90.816
G0 X100.545 Y90.961
;TYPE:SKIN
G1 F1233.8 X100.975 Y91.163 E46.63502
G1 F1236.7 X101.405 Y90.553 E46.64903
G1 F1233.8 X101.701 Y90.058 E46.65988
G1 F1245.5 X101.757 Y89.788 E46.66503
G1 F1260.4 X101.462 Y89.285 E46.67579
G1 F1266.4 X101.219 Y90 E46.68967
G1 F1254.4 X101.016 Y90.297 E46.69633
G1 F1236.7 X100.545 Y90.961 E46.71162
G0 F3600 X100.341 Y90.815
G0 X100.83 Y89.036
G0 X100.527 Y88.089
G0 X95.762 Y87.824
G0 X93.892 Y88.284
G0 X92.957 Y87.82
G0 X92.208 Y88.135
G0 X92.065 Y94.137
G0 X91.573 Y94.979
G0 X92.001 Y95.839
G0 X92.848 Y96.063
G0 X93.641 Y95.798
G0 X97.452 Y89.86
G0 X96.51 Y92.176
G0 X96.644 Y93.62
G0 X96.49 Y93.834
G1 F1200 X96.098 Y93.438 E46.72237
G1 X95.971 Y93.112 E46.72913
G1 X95.389 Y94.604 E46.76004
G1 X95.114 Y95.211 E46.7729
G1 X94.627 Y95.944 E46.78988
G1 X94.955 Y95.823 E46.79663
G1 X95.643 Y95.536 E46.81101
G1 X96.615 Y95.036 E46.83211
G1 X97.335 Y94.596 E46.8484
G1 X97.931 Y94.187 E46.86235
G1 X97.306 Y94.211 E46.87442
G1 X96.49 Y93.834 E46.89177
G0 F3600 X96.723 Y94.687
G1 F1200 X95.924 Y93.888 E46.91357
G0 F3600 X95.734 Y94.376
G1 F1200 X96.29 Y94.932 E46.92875
G0 F3600 X95.841 Y95.162
G1 F1200 X95.536 Y94.857 E46.93707
G0 F3600 X95.325 Y95.325
G1 F1200 X95.392 Y95.392 E46.9389
G0 F3600 X95.581 Y95.845
G0 X94.312 Y96.263
G0 X92.628 Y96.471
G0 X91.74 Y96.149
G0 X91.095 Y94.837
G0 X91.49 Y93.955
G0 X90.359 Y93.838
G0 X89.073 Y93.965
G0 X87.985 Y93.697
G0 X87.169 Y94.097
G0 X86.337 Y94.175
G0 X84.929 Y93.411
G0 X83.642 Y93.644
G0 X81.159 Y93.732
G0 X80.278 Y93.207
G0 X79.045 Y93.519
G0 X77.566 Y93.884
G0 X76.608 Y93.776
G0 X75.664 Y93.336
G0 X75.178 Y92.67
G0 X75.206 Y91.27
G0 X76.064 Y90.594
G0 X75.801 Y88.942
G0 X74.717 Y88.867
G0 X73.91 Y92.641
G0 X73.185 Y93.585
G0 X72.03 Y93.66
G0 X71.251 Y93.035
G0 X71.036 Y88.92
G0 X70.073 Y88.814
G0 X68.898 Y89.263
G0 X67.627 Y88.962
G0 X66.837 Y89.392
G0 X67.136 Y89.422
G1 F1464 X67.098 Y89.825 E46.94541
G1 X67.162 Y90.337 E46.95371
G1 X67.84 Y90.337 E46.96461
G1 X68.27 Y90.195 E46.9719
G1 X68.853 Y90.2 E46.98127
G1 X68.853 Y89.647 E46.99017
G1 X68.853 Y89.503 E46.99248
G1 X68.635 Y89.529 E46.99602
G1 X68.104 Y89.423 E47.00472
G1 X67.136 Y89.422 E47.02029
G0 F3600 X66.837 Y89.392
G0 X68.265 Y89.158
G0 X68.136 Y89.632
;TYPE:SKIN
G1 F1200 X68.506 Y90.002 E47.02915
G0 F3600 X68.007 Y90.069
G1 F1200 X67.56 Y89.622 E47.03985
G0 F3600 X67.33 Y89.958
G1 F1200 X67.508 Y90.135 E47.0441
G0 F3600 X67.876 Y90.651
G0 X66.949 Y90.546
G0 X66.934 Y89.203
G0 X68.676 Y89.293
G0 X69.694 Y88.842
G0 X70.904 Y88.923
G0 X71.064 Y92.295
G0 X71.025 Y93.163
;TYPE:SKIN
G1 F1205.5 X70.849 Y92.644 E47.05464
G1 F1211.1 X70.859 Y91.937 E47.06817
G1 X70.855 Y89.103 E47.12241
G1 F1208.3 X70.291 Y89.124 E47.13323
G1 F1202.8 X69.869 Y88.931 E47.14217
G1 F1200 X69.555 Y89.223 E47.15044
G1 X69.213 Y89.359 E47.15755
G1 X69.213 Y90.335 E47.17638
G1 X69.698 Y90.605 E47.1871
G1 X70.156 Y91.134 E47.2006
G1 F1202.8 X70.398 Y91.955 E47.21709
G1 X70.075 Y92.847 E47.23536
G1 F1200 X69.342 Y93.617 E47.25587
G1 X68.579 Y93.977 E47.27216
G1 X68.058 Y94.108 E47.28252
G1 X67.211 Y94.164 E47.29891
G1 X66.193 Y94.044 E47.31869
G1 X65.314 Y93.564 E47.33802
G1 X65.099 Y93.38 E47.34348
G1 X65.1 Y94.875 E47.37233
G1 X65.233 Y95.16 E47.3784
G1 X65.586 Y95.34 E47.38605
G1 X89.336 Y96.793 E47.84527
G1 X90.12 Y96.802 E47.86041
G1 X90.848 Y96.764 E47.87448
G1 X91.739 Y96.671 E47.89176
G1 X92.107 Y96.609 E47.89897
G1 X91.752 Y96.491 E47.90619
G1 X91.216 Y95.972 E47.92059
G1 X91.031 Y95.59 E47.92878
G1 X90.889 Y94.847 E47.94338
G1 X91.07 Y94.209 E47.95618
G1 X90.287 Y94.026 E47.9717
G1 X89.91 Y93.74 E47.98083
G1 X89.531 Y94.018 E47.9899
G1 X89.147 Y94.156 E47.99777
G1 X88.409 Y94.114 E48.01204
G1 X88.019 Y93.92 E48.02045
G1 X87.823 Y94.088 E48.02543
G1 X87.162 Y94.385 E48.03941
G1 X86.457 Y94.47 E48.05312
G1 X85.734 Y94.295 E48.06748
G1 X85.318 Y94.073 E48.07658
G1 X84.756 Y93.52 E48.09179
G1 X84.552 Y93.654 E48.0965
G1 X83.747 Y93.919 E48.11286
G1 X82.82 Y93.99 E48.1308
G1 X81.825 Y93.983 E48.15001
G1 X81.173 Y94.008 E48.1626
G1 X80.8 Y93.918 E48.17001
G1 X80.323 Y93.657 E48.1805
G1 X79.965 Y93.143 E48.19259
G1 X79.234 Y93.747 E48.21089
G1 X78.438 Y94.071 E48.22748
G1 X77.574 Y94.168 E48.24425
G1 X76.644 Y94.091 E48.26226
G1 X75.781 Y93.739 E48.28025
G1 X75.482 Y93.548 E48.2871
G1 X75.089 Y93.105 E48.29853
G1 X74.945 Y92.809 E48.30488
G1 F1162.6 X74.748 Y91.98 E48.32181
G1 F1137.1 X74.949 Y91.29 E48.33637
G1 F1173.1 X75.31 Y90.811 E48.34819
G1 F1200 X75.755 Y90.534 E48.3583
G1 X75.523 Y90.136 E48.36719
G1 X75.47 Y89.437 E48.38072
G1 X75.586 Y89 E48.38945
G1 X75.37 Y88.814 E48.39495
G1 X75.18 Y88.941 E48.39936
G1 X74.803 Y89.06 E48.40699
G1 X74.238 Y89.094 E48.41792
G1 X74.232 Y91.25 E48.45953
G1 F1147.2 X74.251 Y91.86 E48.4718
G1 F1122.4 X74.226 Y92.59 E48.48677
G1 F1173.1 X73.947 Y93.252 E48.50093
G1 F1200 X73.651 Y93.592 E48.50963
G1 X73.242 Y93.853 E48.51899
G1 X72.765 Y94.003 E48.52864
G1 X72.098 Y93.956 E48.54155
G1 X71.605 Y93.768 E48.55173
G1 X71.221 Y93.467 E48.56115
G1 X71.025 Y93.163 E48.56813
G0 F3600 X71.269 Y93.066
G0 X71.026 Y92.265
G0 X71.036 Y88.92
G0 X70.073 Y88.814
G0 X68.898 Y89.263
G0 X67.627 Y88.962
G0 X66.886 Y89.512
G0 X66.894 Y90.333
G0 X67.546 Y90.811
G0 X68.347 Y90.432
G0 X69.188 Y90.542
G0 X69.975 Y91.229
G0 X70.104 Y92.195
G0 X69.329 Y93.342
G0 X67.217 Y93.987
G0 X66.083 Y93.759
G0 X64.924 Y92.986
G0 X64.839 Y94.529
G0 X65.34 Y94.529
G1 F1200 X65.929 Y95.118 E48.5842
G0 F3600 X66.652 Y95.163
G1 F1200 X65.34 Y93.85 E48.62003
G0 F3600 X65.581 Y93.414
G0 X66.546 Y93.823
G0 X66.487 Y94.318
G1 F1200 X67.375 Y95.206 E48.64426
G0 F3600 X68.098 Y95.251
G1 F1200 X67.249 Y94.402 E48.66744
G0 F3600 X67.887 Y94.361
G1 F1200 X68.821 Y95.295 E48.69293
G0 F3600 X69.544 Y95.339
G1 F1200 X68.46 Y94.255 E48.72251
G0 F3600 X68.95 Y94.067
G1 F1200 X70.268 Y95.384 E48.75847
G0 F3600 X70.99 Y95.428
G1 F1200 X69.411 Y93.849 E48.80157
G0 F3600 X69.763 Y93.521
G1 F1200 X71.714 Y95.472 E48.85482
G0 F3600 X72.436 Y95.516
G1 F1200 X70.094 Y93.174 E48.91874
G0 F3600 X70.359 Y92.761
G1 F1200 X70.777 Y93.178 E48.93014
G0 F3600 X70.613 Y92.336
G1 F1200 X70.538 Y92.26 E48.9322
G0 F3600 X70.611 Y91.655
G1 F1200 X70.54 Y91.583 E48.93415
G0 F3600 X70.611 Y90.976
G1 F1200 X69.452 Y89.817 E48.96578
G0 F3600 X69.715 Y89.4
G1 F1200 X70.611 Y90.297 E48.99025
G0 F3600 X70.611 Y89.618
G1 F1200 X70.34 Y89.347 E48.99765
G0 F3600 X70.432 Y88.88
G0 X71.119 Y92.578
G0 X71.449 Y93.318
G0 X72.81 Y93.712
G0 X73.774 Y92.997
G0 X73.978 Y89.409
G0 X74.476 Y89.41
G1 F1200 X75.344 Y90.278 E49.02134
G0 F3600 X75.094 Y90.707
G1 F1200 X74.474 Y90.087 E49.03826
G0 F3600 X74.472 Y90.764
G1 F1200 X74.798 Y91.09 E49.04716
G0 F3600 X74.485 Y91.455
G1 F1200 X74.605 Y91.575 E49.05044
G0 F3600 X75.095 Y91.663
G0 X75.495 Y90.926
G0 X75.704 Y89.915
G0 X75.801 Y88.942
G0 X74.717 Y88.867
G0 X73.941 Y92.596
G0 X74.419 Y92.747
G1 F1200 X74.869 Y93.198 E49.06273
G0 F3600 X74.217 Y93.224
G1 F1200 X76.775 Y95.782 E49.13255
G0 F3600 X76.052 Y95.738
G1 F1200 X73.937 Y93.623 E49.19028
G0 F3600 X73.561 Y93.925
G1 F1200 X75.329 Y95.694 E49.23854
G0 F3600 X74.606 Y95.649
G1 F1200 X73.1 Y94.144 E49.27964
G0 F3600 X72.503 Y94.225
G1 F1200 X73.882 Y95.605 E49.31729
G0 F3600 X73.16 Y95.561
G1 F1200 X71.644 Y94.045 E49.35866
G0 F3600 X71.813 Y93.576
G0 X73.432 Y93.522
G0 X73.999 Y92.609
G0 X74.049 Y88.916
G0 X75.237 Y88.67
G0 X75.755 Y90.142
G0 X75.433 Y90.969
G0 X74.985 Y91.936
G0 X75.257 Y92.861
G0 X75.803 Y93.446
G0 X75.54 Y93.868
G1 F1200 X77.498 Y95.826 E49.41211
G0 F3600 X78.221 Y95.87
G1 F1200 X76.685 Y94.335 E49.45402
G0 F3600 X77.425 Y94.395
G1 F1200 X78.944 Y95.914 E49.49547
G0 F3600 X79.667 Y95.959
G1 F1200 X78.063 Y94.355 E49.53925
G0 F3600 X78.635 Y94.248
G1 F1200 X80.39 Y96.003 E49.58715
G0 F3600 X81.113 Y96.047
G1 F1200 X79.118 Y94.052 E49.64161
G0 F3600 X79.547 Y93.802
G1 F1200 X81.837 Y96.092 E49.70411
G0 F3600 X82.559 Y96.136
G1 F1200 X80.383 Y93.959 E49.76351
G0 F3600 X80.609 Y93.546
G0 X81.343 Y94.241
G1 F1200 X83.283 Y96.18 E49.81645
G0 F3600 X84.006 Y96.225
G1 F1200 X82.005 Y94.224 E49.87106
G0 F3600 X82.687 Y94.227
G1 F1200 X84.729 Y96.269 E49.9268
G0 F3600 X85.452 Y96.313
G1 F1200 X83.33 Y94.191 E49.98472
G0 F3600 X83.929 Y94.111
G1 F1200 X86.175 Y96.357 E50.04602
G0 F3600 X86.898 Y96.401
G1 F1200 X84.439 Y93.943 E50.11312
G0 F3600 X84.282 Y93.466
G0 X85.129 Y93.601
G0 X85.843 Y94.054
G0 X85.711 Y94.536
G1 F1200 X87.621 Y96.445 E50.16524
G0 F3600 X88.344 Y96.49
G1 F1200 X86.554 Y94.699 E50.21411
G0 F3600 X87.159 Y94.626
G1 F1200 X89.067 Y96.534 E50.26618
G0 F3600 X89.768 Y96.556
G1 F1200 X87.643 Y94.431 E50.32418
G0 F3600 X88.136 Y94.246
G1 F1200 X90.434 Y96.544 E50.3869
G0 F3600 X91.067 Y96.498
G1 F1200 X88.958 Y94.388 E50.44448
G0 F3600 X89.52 Y94.272
G1 F1200 X90.776 Y95.528 E50.47876
G0 F3600 X90.676 Y94.749
G1 F1200 X90.122 Y94.195 E50.49388
G0 F3600 X90.385 Y93.783
G0 X89.316 Y93.828
G0 X88.23 Y93.757
G0 X87.169 Y94.097
G0 X86.337 Y94.175
G0 X85.507 Y93.865
G0 X84.869 Y93.175
G0 X83.642 Y93.644
G0 X81.159 Y93.732
G0 X80.278 Y93.207
G0 X79.045 Y93.519
G0 X77.566 Y93.884
G0 X76.608 Y93.776
G0 X75.664 Y93.336
G0 X75.178 Y92.67
G0 X75.099 Y91.644
G0 X75.995 Y90.707
G0 X75.731 Y89.482
G0 X75.232 Y89.487
G1 F1200 X74.99 Y89.246 E50.50047
G0 F3600 X74.892 Y88.775
G0 X75.466 Y87.702
G0 X75.858 Y86.744
G0 X77.19 Y86.221
G0 X78.01 Y86.23
G0 X78.892 Y86.494
G0 X80.383 Y87.106
G0 X81.333 Y86.38
G0 X82.79 Y86.385
G0 X83.795 Y86.48
G0 X86.024 Y87.763
G0 X86.456 Y90.228
G0 X88.073 Y90.884
G0 X87.667 Y88.316
G0 X88.314 Y87.556
G0 X88.16 Y87.316
G1 F1200 X88.967 Y87.15 E50.51637
G1 X89.395 Y87.207 E50.52471
G1 X89.877 Y87.433 E50.53498
G1 X90.007 Y87.537 E50.53819
G1 X90.269 Y87.34 E50.54452
G1 X90.996 Y87.158 E50.55898
G1 X91.529 Y87.223 E50.56935
G1 X91.966 Y87.488 E50.57921
G1 X92.57 Y87.194 E50.59218
G1 X93.169 Y87.163 E50.60375
G1 X93.825 Y87.363 E50.61699
G1 X94.456 Y87.85 E50.63237
G1 X94.786 Y87.461 E50.64222
G1 X95.161 Y87.274 E50.6503
G1 X95.865 Y87.168 E50.66404
G1 X96.25 Y87.243 E50.67161
G1 X96.593 Y87.467 E50.67952
G1 X96.837 Y87.307 E50.68515
G1 X97.495 Y87.135 E50.69828
G1 X99.748 Y87.148 E50.74176
G1 X99.593 Y86.982 E50.74614
G1 X99.071 Y86.495 E50.75992
G1 X98.484 Y85.995 E50.7748
G1 X97.977 Y85.599 E50.78722
G1 X97.329 Y85.156 E50.80237
G1 X96.54 Y84.679 E50.82016
G1 X95.914 Y84.357 E50.83375
G1 X95.378 Y84.113 E50.84511
G1 X94.836 Y83.889 E50.85643
G1 X94.142 Y83.64 E50.87066
G1 X93.198 Y83.358 E50.88968
G1 X92.124 Y83.142 E50.91082
G1 X91.383 Y83.043 E50.92525
G1 X90.85 Y82.995 E50.93558
G1 X90.008 Y82.955 E50.95184
G1 X89.341 Y82.969 E50.96472
G1 X65.587 Y84.416 E51.42401
G1 X65.389 Y84.483 E51.42805
G1 X65.19 Y84.668 E51.43329
G1 X65.103 Y84.875 E51.43763
G1 X65.104 Y86.31 E51.46532
G1 X65.555 Y85.962 E51.47631
G1 X66.375 Y85.635 E51.49335
G1 X67.282 Y85.523 E51.51099
G1 X68.075 Y85.571 E51.52632
G1 X68.853 Y85.801 E51.54198
G1 X69.458 Y86.21 E51.55607
G1 X69.786 Y85.901 E51.56477
G1 X70.344 Y85.672 E51.57641
G1 X71.274 Y85.709 E51.59437
G1 X71.868 Y85.699 E51.60584
G1 X74.143 Y85.704 E51.64975
G1 X74.742 Y85.723 E51.66131
G1 X75.197 Y85.846 E51.67041
G1 X75.585 Y86.115 E51.67952
G1 X76.043 Y85.827 E51.68996
G1 X77.071 Y85.541 E51.71056
G1 X78.084 Y85.543 E51.73011
G1 X79.14 Y85.828 E51.75122
G1 X79.795 Y86.333 E51.76718
G1 X79.945 Y86.519 E51.77179
G1 X80.095 Y86.276 E51.7773
G1 X80.414 Y85.99 E51.78557
G1 X81.135 Y85.705 E51.80053
G1 X82.856 Y85.706 E51.83375
G1 X83.88 Y85.789 E51.85358
G1 X84.736 Y86.098 E51.87114
G1 X85.398 Y86.541 E51.88651
G1 X86.146 Y87.517 E51.91024
G1 X86.455 Y88.349 E51.92737
G1 F1051.2 X86.64 Y88.706 E51.93612
G1 F950.3 X86.654 Y89.052 E51.94436
G1 F941.3 X86.767 Y89.972 E51.96661
G1 F887.3 X87.425 Y90.109 E51.98361
G1 F862.3 X87.738 Y90.296 E51.99307
G1 F874.7 X87.389 Y89.685 E52.01109
G1 F900.3 X87.233 Y89.035 E52.02778
G1 F1003.4 X87.308 Y88.435 E52.04149
G1 F1129.7 X87.549 Y87.86 E52.0542
G1 F1175.7 X88.16 Y87.316 E52.07028
G0 F3600 X88.315 Y87.555
G0 X89.794 Y87.616
G0 X90.963 Y87.41
G0 X91.954 Y87.706
G0 X93.643 Y87.478
G0 X94.41 Y88.179
G0 X95.154 Y87.457
G0 X96.252 Y87.441
G0 X99.117 Y87.402
G0 X99.12 Y86.902
G1 F1200 X98.792 Y86.573 E52.07925
G0 F3600 X98.439 Y86.899
G1 F1200 X96.44 Y84.9 E52.13381
G0 F3600 X96.701 Y84.471
G0 X95.327 Y83.81
G0 X95.135 Y84.274
G1 F1200 X97.758 Y86.897 E52.2054
G0 F3600 X97.155 Y86.973
G1 F1200 X94.044 Y83.862 E52.29031
G0 F3600 X94.188 Y83.382
G0 X93.191 Y83.099
G0 X93.082 Y83.579
G1 F1200 X96.646 Y87.143 E52.38759
G0 F3600 X95.761 Y86.936
G1 F1200 X92.234 Y83.409 E52.48385
G0 F3600 X91.438 Y83.292
G1 F1200 X95.175 Y87.029 E52.58585
G0 F3600 X94.702 Y87.235
G1 F1200 X90.694 Y83.227 E52.69524
G0 F3600 X89.983 Y83.195
G1 F1200 X93.934 Y87.145 E52.80307
G0 F3600 X93.037 Y86.928
G1 F1200 X89.32 Y83.21 E52.90453
G0 F3600 X88.68 Y83.249
G1 F1200 X92.428 Y86.998 E53.00684
G0 F3600 X91.948 Y87.196
G1 F1200 X88.04 Y83.288 E53.11351
G0 F3600 X87.401 Y83.328
G1 F1200 X90.983 Y86.91 E53.21127
G0 F3600 X90.441 Y87.047
G1 F1200 X86.761 Y83.367 E53.31172
G0 F3600 X86.121 Y83.406
G1 F1200 X89.893 Y87.177 E53.41465
G0 F3600 X88.947 Y86.911
G1 F1200 X85.481 Y83.444 E53.50927
G0 F3600 X84.841 Y83.483
G1 F1200 X88.383 Y87.025 E53.60594
G0 F3600 X87.901 Y87.223
G1 F1200 X84.201 Y83.522 E53.70694
G0 F3600 X83.561 Y83.561
G1 F1200 X87.543 Y87.543 E53.81563
G0 F3600 X87.256 Y87.935
G1 F1200 X82.922 Y83.601 E53.93392
G0 F3600 X82.282 Y83.64
G1 F1200 X84.341 Y85.699 E53.99012
G0 F3600 X83.478 Y85.514
G1 F1200 X81.642 Y83.679 E54.04021
G0 F3600 X81.002 Y83.717
G1 F1200 X82.75 Y85.465 E54.08792
G0 F3600 X82.071 Y85.465
G1 F1200 X80.362 Y83.756 E54.13457
G0 F3600 X79.722 Y83.795
G1 F1200 X81.391 Y85.464 E54.18012
G0 F3600 X80.82 Y85.571
G1 F1200 X79.082 Y83.834 E54.22755
G0 F3600 X78.443 Y83.874
G1 F1200 X80.332 Y85.763 E54.2791
G0 F3600 X79.964 Y86.073
G1 F1200 X77.803 Y83.913 E54.33807
G0 F3600 X77.163 Y83.951
G1 F1200 X78.659 Y85.448 E54.37892
G0 F3600 X77.834 Y85.301
G1 F1200 X76.523 Y83.99 E54.4147
G0 F3600 X75.883 Y84.029
G1 F1200 X77.154 Y85.3 E54.44939
G0 F3600 X76.596 Y85.421
G1 F1200 X75.243 Y84.068 E54.48632
G0 F3600 X74.604 Y84.107
G1 F1200 X76.064 Y85.568 E54.52618
G0 F3600 X75.622 Y85.805
G1 F1200 X73.964 Y84.147 E54.57143
G0 F3600 X73.324 Y84.186
G1 F1200 X74.613 Y85.474 E54.6066
G0 F3600 X73.922 Y85.462
G1 F1200 X72.684 Y84.224 E54.64039
G0 F3600 X72.044 Y84.263
G1 F1200 X73.242 Y85.46 E54.67308
G0 F3600 X72.561 Y85.459
G1 F1200 X71.405 Y84.302 E54.70464
G0 F3600 X70.765 Y84.341
G1 F1200 X71.881 Y85.458 E54.73511
G0 F3600 X71.21 Y85.465
G1 F1200 X70.125 Y84.38 E54.76473
G0 F3600 X69.485 Y84.42
G1 F1200 X70.504 Y85.438 E54.79253
G0 F3600 X69.956 Y85.569
G1 F1200 X68.846 Y84.458 E54.82284
G0 F3600 X68.206 Y84.497
G1 F1200 X69.524 Y85.815 E54.85881
G0 F3600 X69.842 Y86.184
G0 X68.321 Y85.915
G0 X68.463 Y85.434
G1 F1200 X67.566 Y84.536 E54.88331
G0 F3600 X66.926 Y84.575
G1 F1200 X67.655 Y85.304 E54.9032
G0 F3600 X66.989 Y85.317
G1 F1200 X66.286 Y84.614 E54.92239
G0 F3600 X65.646 Y84.653
G1 F1200 X66.386 Y85.393 E54.94259
G0 F3600 X65.886 Y85.572
G1 F1200 X65.343 Y85.028 E54.95742
G0 F3600 X64.843 Y85.032
G0 X64.926 Y86.681
G0 X66.443 Y85.835
G0 X68.132 Y85.797
G0 X69.478 Y86.454
G0 X70.313 Y85.9
G0 X74.833 Y86.001
G0 X75.615 Y86.425
G0 X77.16 Y85.821
G0 X78.085 Y85.836
G0 X79.107 Y86.154
G0 X79.738 Y86.672
G0 X80.668 Y86.161
G0 X82.807 Y85.985
G0 X83.908 Y86.095
G0 X85.271 Y86.833
G0 X85.797 Y87.541
G0 X86.544 Y87.902
G1 F1200 X87.056 Y88.413 E54.97138
;MESH:NONMESH
G0 F600 X87.056 Y88.413 Z1.27
G0 F3600 X87.586 Y88.461
G0 X88.228 Y90.657
G0 X86.456 Y90.228
G0 X85.509 Y87.796
G0 X84.899 Y87.029
G0 X83.713 Y86.461
G0 X82.108 Y86.024
G0 X81.228 Y86.396
G0 X79.424 Y86.922
G0 X78.78 Y86.436
G0 X77.927 Y86.221
G0 X77.106 Y86.233
G0 X76.251 Y86.484
G0 X75.519 Y87.206
G0 X75.125 Y88.745
G0 X73.557 Y88.966
G0 X73.524 Y92.529
G0 X73.011 Y93.222
G0 X71.983 Y93.213
G0 X71.501 Y92.384
G0 X71.036 Y88.92
G0 X69.833 Y88.704
G0 X69.167 Y89.103
;TIME_ELAPSED:161.432150
;LAYER:1
M106 S85
;TYPE:WALL-OUTER
;MESH:3DBenchy.3mf
G1 F1620 X69.252 Y89.281 E54.98375
G1 X69.252 Y90.548 E55.0632
G1 X68.974 Y90.736 E55.08424
G1 X66.254 Y90.737 E55.25479
G1 X64.596 Y90.738 E55.35875
G1 X63.877 Y90.738 E55.40383
G1 X63.88 Y95.179 E55.68229
G1 X63.88 Y95.331 E55.69182
G1 X64.036 Y95.816 E55.72376
G1 X64.188 Y96.059 E55.74174
G1 X64.468 Y96.327 E55.76604
G1 X65.102 Y96.588 E55.80903
G1 X65.559 Y96.618 E55.83774
G1 X75.034 Y97.24 E56.43312
;TYPE:WALL-OUTER
;BRIDGE
M106 S255
G1 F1320 X89.247 Y98.174 E57.32623
;TYPE:WALL-OUTER
M106 S85
G1 F1620 X90.054 Y98.178 E57.37683
G1 X90.975 Y98.139 E57.43463
G1 X91.852 Y98.05 E57.4899
G1 X92.446 Y97.959 E57.52758
G1 X93.298 Y97.791 E57.58203
G1 X94.125 Y97.581 E57.63553
G1 X94.826 Y97.365 E57.68152
G1 X95.478 Y97.134 E57.72489
G1 X96.218 Y96.823 E57.77523
G1 X96.815 Y96.539 E57.81668
G1 X97.414 Y96.224 E57.85911
G1 X98.1 Y95.821 E57.909
G1 X98.665 Y95.452 E57.95131
G1 X99.195 Y95.075 E57.99209
G1 X99.714 Y94.67 E58.03337
G1 X100.213 Y94.245 E58.07447
G1 X100.695 Y93.799 E58.11565
G1 X101.159 Y93.33 E58.15701
G1 X101.689 Y92.746 E58.20646
G1 X102.195 Y92.123 E58.25679
G1 X102.711 Y91.427 E58.31111
G1 X103.329 Y90.457 E58.38323
G1 X103.481 Y89.884 E58.4204
G1 X103.481 Y89.747 E58.42899
G1 X103.307 Y89.27 E58.46083
G1 X102.777 Y88.442 E58.52247
G1 X102.423 Y87.94 E58.56098
G1 X102.087 Y87.498 E58.5958
G1 X101.68 Y87.003 E58.63598
G1 X101.145 Y86.412 E58.68596
G1 X100.681 Y85.946 E58.7272
G1 X100.202 Y85.503 E58.76811
G1 X99.7 Y85.077 E58.80939
G1 X99.284 Y84.751 E58.84253
G1 X98.859 Y84.44 E58.87555
G1 X98.198 Y83.999 E58.92537
G1 X97.515 Y83.591 E58.97526
G1 X96.801 Y83.213 E59.02591
G1 X96.319 Y82.983 E59.0594
G1 X95.818 Y82.766 E59.09363
G1 X95.305 Y82.564 E59.1282
G1 X94.616 Y82.321 E59.17401
G1 X93.843 Y82.098 E59.22446
G1 X92.768 Y81.845 E59.2937
G1 X91.706 Y81.692 E59.36098
G1 X90.957 Y81.619 E59.40817
G1 X90.198 Y81.58 E59.45582
G1 X89.277 Y81.585 E59.51357
;TYPE:WALL-OUTER
;BRIDGE
M106 S255
G1 F1320 X75.749 Y82.475 E60.36363
;TYPE:WALL-OUTER
M106 S85
G1 X74.752 Y82.54 E60.44052
G1 F1395 X73.755 Y82.605 E60.51327
G1 F1451.2 X72.758 Y82.67 E60.5832
G1 F1620 X65.536 Y83.147 E61.03702
G1 X65.131 Y83.174 E61.06247
G1 X64.835 Y83.244 E61.08154
G1 X64.474 Y83.427 E61.10692
G1 X64.188 Y83.7 E61.13171
G1 X64.036 Y83.942 E61.14963
G1 X63.879 Y84.428 E61.18165
G1 X63.879 Y84.601 E61.1925
G1 X63.876 Y89.02 E61.46958
G1 X64.602 Y89.02 E61.5151
G1 X66.229 Y89.021 E61.61712
G1 X69.041 Y89.022 E61.79344
G1 X69.167 Y89.103 E61.80283
M204 S1250
G0 F6300 X69.252 Y89.281
G0 X69.252 Y89.284
G0 X69.953 Y89.284
G0 X69.809 Y90.996
G0 X69.503 Y90.887
;TYPE:WALL-INNER
G1 F2100 X69.017 Y91.134 E61.83701
G1 X66.429 Y91.136 E61.99928
G1 X64.687 Y91.138 E62.10851
G1 X64.277 Y91.138 E62.13422
G1 X64.28 Y95.268 E62.39318
G1 X64.34 Y95.455 E62.40549
G1 X64.402 Y95.646 E62.41808
G1 X64.69 Y95.985 E62.44597
G1 X64.91 Y96.076 E62.4609
G1 X65.014 Y96.119 E62.46796
G1 X65.194 Y96.193 E62.48016
G1 X65.234 Y96.196 E62.48267
G1 X75.483 Y96.869 E63.12669
M204 S1500
;TYPE:WALL-INNER
;BRIDGE
M106 S255
G1 F1320 X89.261 Y97.774 E63.99246
M204 S1250
;TYPE:WALL-INNER
M106 S85
G1 F2100 X90.046 Y97.778 E64.04168
G1 X90.946 Y97.74 E64.09816
G1 X91.802 Y97.653 E64.15211
G1 X92.377 Y97.565 E64.18858
G1 X93.21 Y97.401 E64.24182
G1 X94.017 Y97.196 E64.29402
G1 X94.7 Y96.985 E64.33885
G1 X95.334 Y96.761 E64.38101
G1 X96.054 Y96.458 E64.42999
G1 X96.636 Y96.181 E64.4704
G1 X97.22 Y95.874 E64.51177
G1 X97.889 Y95.481 E64.56042
G1 X98.439 Y95.122 E64.6016
G1 X98.956 Y94.754 E64.6414
G1 X99.461 Y94.36 E64.68156
G1 X99.947 Y93.946 E64.72159
G1 X100.417 Y93.511 E64.76174
G1 X100.869 Y93.055 E64.802
G1 X101.385 Y92.485 E64.85021
G1 X101.879 Y91.878 E64.89928
G1 X102.381 Y91.2 E64.95218
G1 X102.966 Y90.282 E65.02043
G1 X103.081 Y89.884 E65.04641
G1 X102.946 Y89.448 E65.07503
G1 X102.475 Y88.71 E65.12992
G1 X102.1 Y88.176 E65.17084
G1 X101.773 Y87.746 E65.20471
G1 X101.377 Y87.265 E65.24377
G1 X100.855 Y86.688 E65.29256
G1 X100.403 Y86.234 E65.33273
G1 X99.936 Y85.803 E65.37258
G1 X99.447 Y85.387 E65.41283
G1 X99.043 Y85.07 E65.44503
G1 X98.63 Y84.768 E65.47711
G1 X97.984 Y84.337 E65.5258
G1 X97.319 Y83.94 E65.57437
G1 X96.621 Y83.571 E65.62387
G1 X96.153 Y83.347 E65.6564
G1 X95.665 Y83.136 E65.68974
G1 X95.165 Y82.939 E65.72344
G1 X94.494 Y82.702 E65.76806
G1 X93.742 Y82.485 E65.81713
G1 X92.694 Y82.239 E65.88463
G1 X91.658 Y82.089 E65.95027
G1 X90.927 Y82.018 E65.99632
G1 X90.189 Y81.98 E66.04265
G1 X89.291 Y81.985 E66.09896
M204 S1500
;TYPE:WALL-INNER
;BRIDGE
M106 S255
G1 F1320 X76.086 Y82.854 E66.92873
M204 S1250
;TYPE:WALL-INNER
M106 S85
G1 X75.089 Y82.919 E67.02839
G1 F1515 X74.092 Y82.984 E67.11523
G1 F1661.2 X73.095 Y83.049 E67.19442
G1 F1770.9 X72.098 Y83.114 E67.26871
G1 F1853.2 X71.101 Y83.179 E67.3397
G1 F2100 X65.214 Y83.569 E67.70963
G1 X65.19 Y83.571 E67.71114
G1 X65.076 Y83.615 E67.71881
G1 X64.923 Y83.674 E67.72909
G1 X64.708 Y83.757 E67.74354
G1 X64.402 Y84.112 E67.77293
G1 X64.331 Y84.33 E67.7873
G1 X64.279 Y84.491 E67.79791
G1 X64.276 Y88.62 E68.05681
G1 X64.671 Y88.62 E68.08157
G1 X66.382 Y88.621 E68.18886
G1 X69.109 Y88.622 E68.35984
G1 X69.49 Y88.867 E68.38825
G1 X69.649 Y89.245 E68.41396
G1 X69.65 Y90.558 E68.49629
G1 X69.503 Y90.887 E68.51888
M204 S1000
G1 F2700 E62.01888
G0 F6300 X69.809 Y90.996
G0 X72.232 Y92.88
G0 X76.161 Y88.121
G0 X75.927 Y87.274
G0 X77.221 Y86.621
G0 X78.677 Y86.833
G0 X80.812 Y88.903
G0 X82.029 Y88.901
G0 X83.451 Y88.905
;TYPE:SKIN
G1 F2700 E68.51888
G1 F1260 X83.61 Y89.376 E68.54849
G1 X83.643 Y89.956 E68.5831
G1 X83.579 Y90.438 E68.61206
G1 X83.483 Y90.636 E68.62517
G1 X83.289 Y90.894 E68.6444
G1 X82.889 Y90.97 E68.66865
G1 X82.713 Y90.823 E68.68231
G1 X82.709 Y88.867 E68.79882
G1 X82.875 Y88.717 E68.81215
G1 X83.338 Y88.802 E68.84019
G1 X83.451 Y88.905 E68.8493
G1 F2700 E62.3493
G1 F600 Z3.27
G0 F6300 X83.451 Y88.905 Z3.27
G0 X91.944 Y89.946
G1 F600 Z1.27
G1 F2700 E68.8493
G1 F1260 X92.089 Y90.036 E68.85946
G1 X92.649 Y91.501 E68.95288
G1 X92.859 Y92.076 E68.98935
G1 X93.047 Y92.606 E69.02285
G1 X92.672 Y93.592 E69.08568
G1 X92.574 Y93.691 E69.09398
G1 X91.981 Y93.908 E69.1316
G1 F1372.4 X91.815 Y93.792 E69.14275
G1 X91.85 Y93.991 E69.15389
G1 F1260 X91.564 Y94.232 E69.17616
G1 X91.41 Y94.495 E69.19432
G1 X91.334 Y95.018 E69.2258
G1 X91.47 Y95.527 E69.25718
G1 X91.894 Y96.055 E69.29752
G1 X92.125 Y96.179 E69.31314
G1 X92.588 Y96.297 E69.3416
G1 X92.885 Y96.304 E69.35929
G1 X93.696 Y96.047 E69.40997
G1 X94.325 Y95.611 E69.45556
G1 X94.693 Y95.073 E69.49439
G1 X94.989 Y94.42 E69.53709
G1 X95.395 Y93.364 E69.60448
G1 X95.871 Y92.049 E69.68779
G1 F1209.9 X96.083 Y91.969 E69.70179
G1 X96.259 Y92.125 E69.71633
G1 F1260 X96.278 Y92.677 E69.74923
G1 X96.476 Y93.229 E69.78416
G1 X96.739 Y93.49 E69.80623
G1 X97.285 Y93.768 E69.84273
G1 X97.942 Y93.744 E69.88189
G1 X99.682 Y93.747 E69.98553
G1 X100.271 Y93.204 E70.03325
G1 X100.37 Y93.103 E70.04168
G1 X100.552 Y92.919 E70.05709
G1 X100.65 Y92.819 E70.06543
G1 X101.118 Y92.297 E70.10719
G1 X101.084 Y92.089 E70.11975
G1 X100.811 Y91.602 E70.153
G1 X100.596 Y91.442 E70.16897
G1 X100.073 Y91.23 E70.20258
G1 X99.991 Y91.08 E70.21277
G1 X100.005 Y90.978 E70.2189
G1 X100.825 Y89.807 E70.30405
G1 X101.067 Y89.165 E70.34492
G1 X101.057 Y88.651 E70.37555
G1 X100.961 Y88.338 E70.39505
G1 X100.75 Y87.992 E70.41919
G1 X100.408 Y87.715 E70.4454
G1 X99.988 Y87.59 E70.47151
G1 X97.576 Y87.574 E70.61518
G1 X97.009 Y87.701 E70.6498
G1 X96.549 Y87.949 E70.68092
G1 X96.045 Y87.641 E70.71611
G1 X95.686 Y87.595 E70.73767
G1 X95.323 Y87.67 E70.75975
G1 X95.068 Y87.795 E70.77666
G1 X94.492 Y88.398 E70.82634
G1 X94.256 Y88.4 E70.84039
G1 X94.105 Y88.173 E70.85663
G1 X93.543 Y87.718 E70.89971
G1 X92.975 Y87.575 E70.9346
G1 X92.654 Y87.617 E70.95388
G1 X91.945 Y87.983 E71.00141
G1 X91.419 Y87.658 E71.03824
G1 X90.981 Y87.57 E71.06485
G1 X90.459 Y87.75 E71.09774
G1 X90.096 Y88.054 E71.12594
G1 X89.889 Y88.029 E71.13836
G1 X89.632 Y87.802 E71.15879
G1 X89.106 Y87.596 E71.19244
G1 X88.62 Y87.631 E71.22146
G1 X88.37 Y87.72 E71.23727
G1 X87.878 Y88.141 E71.27584
G1 X87.735 Y88.528 E71.30042
G1 X87.724 Y88.947 E71.32539
G1 X87.913 Y89.551 E71.36308
G1 X88.5 Y90.577 E71.43349
G1 X88.483 Y90.702 E71.44101
G1 X88.178 Y91.151 E71.47334
G1 X88.041 Y91.164 E71.48154
G1 X87.806 Y90.961 E71.50004
G1 X87.354 Y90.645 E71.53289
G1 X87.019 Y90.525 E71.55408
G1 X86.306 Y90.472 E71.59667
G1 X86.201 Y90.317 E71.60782
G1 X86.225 Y89.936 E71.63056
G1 X86.14 Y88.76 E71.7008
G1 X85.755 Y87.724 E71.76663
G1 X85.102 Y86.877 E71.83034
G1 X84.523 Y86.489 E71.87186
G1 X83.803 Y86.228 E71.91747
G1 X82.811 Y86.146 E71.97677
G1 X81.233 Y86.139 E72.07076
G1 X80.71 Y86.33 E72.10393
G1 X80.299 Y86.71 E72.13727
G1 X80.159 Y87.017 E72.15737
G1 X80.053 Y87.113 E72.16589
G1 X79.848 Y87.079 E72.17827
G1 X79.558 Y86.703 E72.20655
G1 X78.945 Y86.232 E72.2526
G1 X77.993 Y85.981 E72.31125
G1 X77.118 Y85.98 E72.36337
G1 X76.193 Y86.237 E72.42055
G1 X75.618 Y86.619 E72.46167
G1 X75.454 Y86.561 E72.47204
G1 X75.126 Y86.301 E72.49697
G1 X74.807 Y86.16 E72.51774
G1 X74.135 Y86.145 E72.55778
G1 X71.872 Y86.14 E72.69258
G1 X71.264 Y86.15 E72.7288
G1 X70.563 Y86.118 E72.7706
G1 X70.113 Y86.226 E72.79817
G1 X69.875 Y86.377 E72.81496
G1 X69.596 Y86.669 E72.83902
G1 X69.4 Y86.706 E72.8509
G1 X68.69 Y86.22 E72.90215
G1 X67.951 Y86.002 E72.94804
G1 X67.281 Y85.963 E72.98802
G1 X66.469 Y86.073 E73.03683
G1 X65.761 Y86.354 E73.0822
G1 X64.977 Y86.974 E73.14174
G1 X64.597 Y87.536 E73.18215
G1 X64.597 Y88.3 E73.22766
G1 X64.766 Y88.3 E73.23773
G1 X66.629 Y88.301 E73.3487
G1 X67.927 Y88.301 E73.42602
G1 X69.163 Y88.302 E73.49964
G1 X69.199 Y88.321 E73.50207
G1 X69.631 Y88.548 E73.53114
G1 X69.832 Y88.466 E73.54407
G1 X70.415 Y88.688 E73.58123
G1 X71.115 Y88.66 E73.62296
G1 X71.284 Y88.762 E73.63472
G1 X71.296 Y89.57 E73.68285
G1 X71.296 Y91.951 E73.82468
G1 X71.263 Y92.338 E73.84782
G1 X71.379 Y92.905 E73.88229
G1 X71.533 Y93.153 E73.89968
G1 X71.914 Y93.441 E73.92813
G1 X72.109 Y93.508 E73.94041
G1 X72.739 Y93.553 E73.97803
G1 X73.145 Y93.415 E74.00358
G1 X73.55 Y93.046 E74.03621
G1 X73.787 Y92.481 E74.07271
G1 X73.799 Y88.768 E74.29388
G1 X73.964 Y88.667 E74.30541
G1 X74.746 Y88.622 E74.35206
G1 X75.033 Y88.528 E74.37005
G1 X75.293 Y88.337 E74.38927
G1 X75.423 Y88.317 E74.39711
G1 X76.015 Y88.793 E74.44235
G1 X76.058 Y88.949 E74.45199
G1 X75.916 Y89.404 E74.48039
G1 X75.914 Y89.818 E74.50505
G1 X76.018 Y90.14 E74.5252
G1 X76.351 Y90.556 E74.55694
G1 X76.291 Y90.768 E74.57007
G1 X75.655 Y91.093 E74.61261
G1 X75.46 Y91.283 E74.62883
G1 X75.276 Y91.643 E74.65291
G1 X75.219 Y91.944 E74.67116
G1 X75.332 Y92.624 E74.71222
G1 X75.477 Y92.881 E74.7298
G1 X75.944 Y93.327 E74.76826
G1 X76.736 Y93.655 E74.81933
G1 X77.6 Y93.726 E74.87097
G1 X78.328 Y93.637 E74.91465
G1 X79.051 Y93.344 E74.96112
G1 X79.663 Y92.815 E75.00931
G1 X79.903 Y92.508 E75.03252
G1 X80.093 Y92.492 E75.04388
G1 X80.189 Y92.58 E75.05163
G1 X80.39 Y93.06 E75.08263
G1 X80.571 Y93.292 E75.10016
G1 X81.078 Y93.576 E75.13478
G1 X81.849 Y93.541 E75.18075
G1 X82.776 Y93.55 E75.23597
G1 X83.659 Y93.483 E75.28872
G1 X84.316 Y93.265 E75.32995
G1 X84.776 Y92.987 E75.36197
G1 X84.942 Y93.012 E75.37197
G1 X85.116 Y93.257 E75.38987
G1 X85.57 Y93.703 E75.42778
G1 X85.843 Y93.864 E75.44666
G1 X86.464 Y94.044 E75.48517
G1 X87.121 Y93.943 E75.52476
G1 X87.631 Y93.685 E75.55881
G1 X87.945 Y93.434 E75.58276
G1 X88.444 Y93.67 E75.61564
G1 X88.995 Y93.738 E75.64871
G1 X89.306 Y93.639 E75.66815
G1 X89.828 Y93.251 E75.70689
G1 X90.033 Y93.272 E75.71917
G1 X90.566 Y93.666 E75.75865
G1 X91.001 Y93.761 E75.78517
G1 F1277.5 X91.654 Y93.655 E75.82408
G1 F1392.9 X91.805 Y93.776 E75.8346
G1 F1372.4 X91.77 Y93.578 E75.84568
G1 F1260 X92.017 Y93.332 E75.86644
G1 X92.174 Y93.061 E75.8851
G1 X92.287 Y92.41 E75.92446
G1 X92.111 Y91.793 E75.96268
G1 X91.461 Y90.724 E76.0372
G1 X91.464 Y90.464 E76.05269
G1 X91.798 Y89.975 E76.08796
G1 X91.944 Y89.946 E76.09683
G0 F6300 X92.532 Y88.382
G0 X95.856 Y88.252
G0 X97.309 Y90.093
G1 F1260 X97.357 Y90.307 E76.10989
G1 X97.332 Y90.355 E76.11312
G1 X96.925 Y90.919 E76.15455
G1 X96.491 Y91.541 E76.19973
G1 F1209.9 X96.231 Y91.554 E76.21581
G1 X96.118 Y91.359 E76.22974
G1 F1260 X96.349 Y90.707 E76.27095
G1 X96.598 Y89.944 E76.31875
G1 X96.768 Y89.863 E76.32997
G1 X97.309 Y90.093 E76.36499
G0 F6300 X96.896 Y92.498
G0 X99.351 Y93.547
G1 F1260 X100.856 Y92.041 E76.49181
G0 F6300 X100.634 Y91.699
G1 F1260 X98.786 Y93.546 E76.64745
G0 F6300 X98.222 Y93.545
G1 F1260 X100.257 Y91.51 E76.81887
G0 F6300 X99.888 Y91.312
G1 F1260 X97.662 Y93.538 E77.00639
G0 F6300 X97.156 Y93.479
G1 F1260 X99.996 Y90.639 E77.24563
G0 F6300 X100.819 Y89.25
G1 F1260 X96.8 Y93.27 E77.58424
G0 F6300 X96.579 Y92.925
G1 F1260 X100.846 Y88.658 E77.94369
G0 F6300 X100.665 Y88.273
G1 F1260 X96.468 Y92.47 E78.29725
G0 F6300 X96.39 Y91.982
G1 F1260 X100.404 Y87.969 E78.63534
G0 F6300 X100.004 Y87.802
G1 F1260 X97.562 Y90.245 E78.8411
G0 F6300 X97.34 Y89.901
G1 F1260 X99.455 Y87.785 E79.01931
G0 F6300 X98.893 Y87.782
G1 F1260 X96.949 Y89.726 E79.18307
G0 F6300 X96.219 Y90.456
G1 F1260 X91.566 Y95.11 E79.57508
G0 F6300 X91.718 Y95.523
G1 F1260 X95.92 Y91.321 E79.92906
G0 F6300 X96.115 Y91.691
G1 F1260 X95.984 Y91.822 E79.9401
G0 F6300 X95.599 Y92.208
G1 F1260 X91.971 Y95.836 E80.24572
G0 F6300 X92.362 Y96.01
G1 F1260 X95.277 Y93.095 E80.49128
G0 F6300 X94.932 Y94.006
G1 F1260 X92.836 Y96.102 E80.66785
G0 F6300 X93.716 Y95.788
G1 F1260 X94.489 Y95.014 E80.73301
G0 F6300 X92.779 Y95.665
G0 X92.058 Y95.274
G0 X93.11 Y93
G1 F1260 X98.332 Y87.778 E81.17291
G0 F6300 X97.77 Y87.774
G1 F1260 X93.2 Y92.344 E81.55789
G0 F6300 X93.026 Y91.952
G1 F1260 X97.091 Y87.887 E81.90032
G0 F6300 X96.375 Y88.038
G1 F1260 X92.875 Y91.537 E82.19512
G0 F6300 X92.721 Y91.126
G1 F1260 X96.001 Y87.846 E82.47143
G0 F6300 X95.386 Y87.895
G1 F1260 X92.565 Y90.716 E82.70907
G0 F6300 X92.41 Y90.306
G1 F1260 X94.15 Y88.565 E82.85569
G0 F6300 X93.894 Y88.256
G1 F1260 X92.231 Y89.919 E82.99578
G0 F6300 X91.805 Y89.779
G1 F1260 X93.584 Y88 E83.14564
G0 F6300 X93.185 Y87.833
G1 F1260 X87.483 Y93.536 E83.62602
G0 F6300 X88.243 Y93.341
G1 F1260 X91.433 Y90.151 E83.89475
G0 F6300 X91.345 Y90.805
G1 F1260 X88.656 Y93.494 E84.12127
G0 F6300 X89.395 Y93.321
G1 F1260 X91.515 Y91.2 E84.2999
G0 F6300 X91.729 Y91.552
G1 F1260 X90.163 Y93.118 E84.43182
G0 F6300 X90.487 Y93.36
G1 F1260 X91.935 Y91.911 E84.55384
G0 F6300 X92.061 Y92.351
G1 F1260 X90.883 Y93.529 E84.65308
G0 F6300 X91.503 Y93.475
G1 F1260 X91.96 Y93.018 E84.69158
G0 F6300 X91.967 Y94.142
G1 F1260 X91.677 Y94.432 E84.71601
G0 F6300 X88.435 Y92.924
G0 X87.976 Y91.345
G1 F1260 X85.747 Y93.574 E84.90378
G0 F6300 X85.451 Y93.305
G1 F1260 X87.657 Y91.099 E85.08961
G0 F6300 X87.324 Y90.866
G1 F1260 X85.173 Y93.017 E85.27081
G0 F6300 X84.823 Y92.801
G1 F1260 X86.909 Y90.716 E85.44649
G0 F6300 X86.381 Y90.677
G1 F1260 X83.851 Y93.207 E85.65962
G0 F6300 X83.175 Y93.318
G1 F1260 X86.049 Y90.443 E85.90177
G0 F6300 X86.021 Y89.906
G1 F1260 X82.58 Y93.347 E86.19164
G0 F6300 X82.02 Y93.342
G1 F1260 X85.983 Y89.379 E86.52548
G0 F6300 X85.946 Y88.85
G1 F1260 X81.438 Y93.357 E86.9052
G0 F6300 X80.954 Y93.276
G1 F1260 X83.105 Y91.125 E87.0864
G0 F6300 X82.628 Y91.037
G1 F1260 X80.627 Y93.037 E87.25492
G0 F6300 X80.439 Y92.659
G1 F1260 X82.512 Y90.587 E87.42951
G0 F6300 X82.51 Y90.023
G1 F1260 X80.2 Y92.334 E87.62414
G0 F6300 X78.697 Y93.27
G1 F1260 X82.509 Y89.458 E87.94527
G0 F6300 X82.508 Y88.893
G1 F1260 X77.917 Y93.485 E88.33206
G0 F6300 X77.334 Y93.502
G1 F1260 X84.239 Y86.597 E88.91373
G0 F6300 X84.613 Y86.788
G1 F1260 X82.877 Y88.525 E89.06002
G0 F6300 X83.362 Y88.606
G1 F1260 X84.952 Y87.015 E89.194
G0 F6300 X85.201 Y87.332
G1 F1260 X83.654 Y88.879 E89.32432
G0 F6300 X83.796 Y89.303
G1 F1260 X85.447 Y87.652 E89.4634
G0 F6300 X85.649 Y88.015
G1 F1260 X83.835 Y89.83 E89.61625
G0 F6300 X83.776 Y90.454
G1 F1260 X85.803 Y88.427 E89.78701
G0 F6300 X87.937 Y88.555
G1 F1260 X88.622 Y87.871 E89.84467
G0 F6300 X89.208 Y87.85
G1 F1260 X87.976 Y89.082 E89.94846
G0 F6300 X88.118 Y89.506
G1 F1260 X89.591 Y88.033 E90.07254
G0 F6300 X89.939 Y88.251
G1 F1260 X88.324 Y89.866 E90.20859
G0 F6300 X88.529 Y90.226
G1 F1260 X90.972 Y87.783 E90.41439
G0 F6300 X91.425 Y87.896
G1 F1260 X88.688 Y90.634 E90.64499
G0 F6300 X87.526 Y92.885
G0 X86.638 Y93.814
G1 F1260 X92.573 Y87.88 E91.14492
G0 F6300 X91.781 Y88.106
G1 F1260 X86.144 Y93.743 E91.61978
G0 F6300 X85.587 Y92.809
G0 X85.586 Y89.985
G0 X85.502 Y88.88
G0 X85.176 Y88.019
G0 X83.823 Y86.447
G1 F1260 X76.81 Y93.46 E92.21056
G0 F6300 X76.404 Y93.301
G1 F1260 X83.318 Y86.387 E92.79299
G0 F6300 X82.795 Y86.344
G1 F1260 X76.018 Y93.121 E93.36389
G0 F6300 X75.729 Y92.845
G1 F1260 X82.232 Y86.341 E93.91174
G0 F6300 X81.668 Y86.339
G1 F1260 X75.514 Y92.494 E94.4302
G0 F6300 X75.433 Y92.009
G1 F1260 X80.195 Y87.247 E94.83135
G1 X80.275 Y87.167
G1 X81.01 Y86.432 E94.89327
G0 F6300 X79.686 Y87.19
G1 F1260 X76.479 Y90.397 E95.16342
G0 F6300 X76.229 Y90.081
G1 F1260 X79.437 Y86.873 E95.43367
G0 F6300 X79.125 Y86.62
G1 F1260 X76.115 Y89.63 E95.68723
G0 F6300 X76.245 Y88.934
G1 F1260 X78.785 Y86.395 E95.90116
G0 F6300 X78.336 Y86.277
G1 F1260 X76.051 Y88.563 E96.09369
G0 F6300 X75.749 Y88.299
G1 F1260 X77.868 Y86.18 E96.27219
G0 F6300 X77.303 Y86.179
G1 F1260 X75.347 Y88.135 E96.43697
G0 F6300 X74.48 Y88.437
G1 F1260 X76.582 Y86.334 E96.61408
G0 F6300 X75.556 Y86.795
G1 F1260 X73.807 Y88.543 E96.76138
G0 F6300 X73.651 Y88.7
G1 F1260 X71.495 Y90.856 E96.943
G0 F6300 X71.495 Y91.421
G1 F1260 X73.596 Y89.321 E97.11994
G0 F6300 X73.594 Y89.888
G1 F1260 X71.493 Y91.989 E97.29693
G0 F6300 X71.509 Y92.539
G1 F1260 X73.592 Y90.455 E97.47245
G0 F6300 X73.59 Y91.023
G1 F1260 X71.651 Y92.962 E97.63579
G0 F6300 X71.957 Y93.222
G1 F1260 X73.589 Y91.59 E97.77327
G0 F6300 X73.587 Y92.158
G1 F1260 X72.417 Y93.328 E97.87183
G0 F6300 X71.495 Y90.29
G1 F1260 X75.184 Y86.601 E98.18259
G0 F6300 X74.831 Y86.388
G1 F1260 X71.495 Y89.724 E98.46362
G0 F6300 X71.489 Y89.164
G1 F1260 X74.307 Y86.347 E98.70096
G0 F6300 X73.746 Y86.342
G1 F1260 X71.422 Y88.666 E98.89674
G0 F6300 X71.058 Y88.464
G1 F1260 X73.181 Y86.341 E99.07558
G0 F6300 X72.617 Y86.34
G1 F1260 X70.473 Y88.484 E99.25619
G0 F6300 X70.058 Y88.333
G1 F1260 X72.052 Y86.339 E99.42416
G0 F6300 X71.48 Y86.345
G1 F1260 X69.553 Y88.272 E99.58649
G0 F6300 X69.159 Y88.101
G1 F1260 X70.927 Y86.333 E99.73543
G0 F6300 X70.311 Y86.382
G1 F1260 X68.593 Y88.101 E99.8802
G0 F6300 X68.027 Y88.101
G1 F1260 X69.27 Y86.858 E99.98491
G0 F6300 X68.935 Y86.628
G1 F1260 X67.462 Y88.1 E100.10895
G0 F6300 X66.897 Y88.1
G1 F1260 X68.597 Y86.399 E100.2522
G0 F6300 X68.16 Y86.271
G1 F1260 X66.331 Y88.1 E100.40628
G0 F6300 X65.766 Y88.099
G1 F1260 X67.68 Y86.185 E100.56751
G0 F6300 X67.114 Y86.186
G1 F1260 X65.2 Y88.099 E100.72871
G0 F6300 X64.797 Y87.937
G1 F1260 X66.434 Y86.3 E100.86661
G0 F6300 X68.418 Y86.808
G0 X69.25 Y87.668
G0 X69.891 Y89.129
G0 X69.892 Y90.581
G0 X69.146 Y91.375
G0 X64.627 Y91.375
G0 X64.598 Y91.458
G1 F1260 X64.598 Y92.16 E100.90842
G1 X64.8 Y92.485 E100.93122
G1 X65.447 Y93.137 E100.98593
G1 X66.333 Y93.611 E101.04579
G1 X67.244 Y93.723 E101.10046
G1 X68.002 Y93.671 E101.14572
G1 X68.525 Y93.536 E101.17789
G1 X69.085 Y93.245 E101.21548
G1 X69.634 Y92.669 E101.26288
G1 X69.877 Y92.173 E101.29578
G1 X69.896 Y91.81 E101.31744
G1 X69.901 Y91.718 E101.32292
G1 X69.706 Y91.188 E101.35656
G1 X69.22 Y91.391 E101.38794
G1 X69.069 Y91.454 E101.39768
G1 X67.929 Y91.455 E101.46559
G1 X66.729 Y91.456 E101.53707
G1 X64.759 Y91.458 E101.65441
G1 X64.598 Y91.458 E101.66401
G0 F6300 X64.798 Y91.896
G1 F1260 X65.038 Y91.656 E101.68422
G0 F6300 X65.603 Y91.656
G1 F1260 X64.936 Y92.324 E101.74045
G0 F6300 X65.211 Y92.614
G1 F1260 X66.17 Y91.655 E101.82124
G0 F6300 X66.736 Y91.655
G1 F1260 X65.493 Y92.898 E101.92595
G0 F6300 X65.838 Y93.119
G1 F1260 X67.302 Y91.655 E102.04928
G0 F6300 X67.868 Y91.654
G1 F1260 X66.206 Y93.316 E102.18928
G0 F6300 X66.641 Y93.446
G1 F1260 X68.435 Y91.653 E102.34037
G0 F6300 X69 Y91.653
G1 F1260 X67.145 Y93.509 E102.49668
G0 F6300 X67.731 Y93.488
G1 F1260 X69.637 Y91.583 E102.6572
G0 F6300 X69.679 Y92.106
G1 F1260 X68.433 Y93.352 E102.76216
;MESH:NONMESH
G0 F600 X68.433 Y93.352 Z2.27
G0 F6300 X69.142 Y92.254
G0 X69.705 Y91.101
G0 X69.891 Y89.129
G0 X69.272 Y88.381
G0 X69.167 Y88.675
;TIME_ELAPSED:204.521083
;LAYER:2
M106 S170
;TYPE:WALL-OUTER
;MESH:3DBenchy.3mf
G1 F2040 X69.252 Y88.853 E102.77453
G1 X69.252 Y90.977 E102.90771
G1 X68.973 Y91.166 E102.92884
G1 X63.876 Y91.168 E103.24843
G1 X63.404 Y91.168 E103.27802
;TYPE:WALL-OUTER
;BRIDGE
M106 S255
G1 F1320 X63.403 Y95.748 E103.5652
;TYPE:WALL-OUTER
M106 S170
G1 F2040 X63.563 Y96.328 E103.60292
G1 X63.854 Y96.731 E103.63409
G1 X64.068 Y96.896 E103.65103
G1 X64.632 Y97.107 E103.68879
;TYPE:WALL-OUTER
;BRIDGE
M106 S255
G1 F1320 X88.694 Y98.863 E105.20154
;TYPE:WALL-OUTER
M106 S170
G1 F2040 X89.36 Y98.894 E105.24334
G1 X90.154 Y98.899 E105.29313
G1 X91.217 Y98.848 E105.35986
G1 X92.354 Y98.716 E105.43163
G1 X93.462 Y98.504 E105.50236
G1 X94.384 Y98.278 E105.56188
G1 X95.127 Y98.053 E105.61056
G1 X95.691 Y97.857 E105.648
G1 X96.712 Y97.454 E105.71682
G1 X97.667 Y96.998 E105.78318
G1 X98.335 Y96.627 E105.83109
G1 X98.845 Y96.323 E105.86832
G1 X99.276 Y96.048 E105.90038
G1 X99.759 Y95.716 E105.93713
G1 X100.391 Y95.246 E105.98651
G1 X101.134 Y94.619 E106.04747
G1 X101.57 Y94.219 E106.08457
G1 X102.194 Y93.595 E106.1399
G1 X102.593 Y93.161 E106.17687
G1 X102.976 Y92.713 E106.21382
G1 X103.346 Y92.25 E106.25098
G1 X103.696 Y91.775 E106.28798
G1 X104.038 Y91.28 E106.32571
G1 X104.359 Y90.775 E106.36323
G1 X104.652 Y90.273 E106.39967
G1 X104.699 Y89.779 E106.43079
G1 X104.676 Y89.525 E106.44678
G1 X104.345 Y88.962 E106.48773
G1 X104.023 Y88.456 E106.52533
G1 X103.725 Y88.024 E106.55824
G1 X103.372 Y87.544 E106.5956
G1 X102.963 Y87.029 E106.63684
G1 X102.579 Y86.582 E106.67379
G1 X102.169 Y86.136 E106.71177
G1 X101.813 Y85.774 E106.74361
G1 X101.338 Y85.322 E106.78472
G1 X100.898 Y84.934 E106.8215
G1 X100.355 Y84.486 E106.86564
G1 X99.742 Y84.032 E106.91347
G1 X99.192 Y83.657 E106.95521
G1 X98.695 Y83.344 E106.99204
G1 X98.251 Y83.084 E107.0243
G1 X97.596 Y82.732 E107.07092
G1 X96.794 Y82.348 E107.12668
G1 X95.908 Y81.974 E107.18698
G1 X95.102 Y81.698 E107.2404
G1 X94.346 Y81.471 E107.28989
G1 X93.47 Y81.257 E107.34643
G1 X92.481 Y81.063 E107.40963
G1 X91.615 Y80.955 E107.46435
G1 X90.969 Y80.899 E107.505
G1 X90.075 Y80.856 E107.56113
G1 X88.995 Y80.874 E107.62885
;TYPE:WALL-OUTER
;BRIDGE
M106 S255
G1 F1320 X64.77 Y82.641 E109.15184
;TYPE:WALL-OUTER
M106 S170
G1 F2040 X64.094 Y82.847 E109.19615
G1 X63.711 Y83.19 E109.22839
G1 X63.565 Y83.423 E109.24563
G1 X63.403 Y84.005 E109.28351
;TYPE:WALL-OUTER
;BRIDGE
M106 S255
G1 F1320 X63.403 Y88.592 E109.57112
;TYPE:WALL-OUTER
M106 S170
G1 F2040 X63.875 Y88.592 E109.60072
G1 X69.041 Y88.594 E109.92464
G1 X69.167 Y88.675 E109.93403
M204 S1500
G0 F9000 X69.252 Y88.853
G0 X69.252 Y88.856
G0 X69.953 Y88.856
G0 X69.905 Y90.6
G0 X69.809 Y91.425
G0 X69.503 Y91.316
;TYPE:WALL-INNER
G1 F3000 X69.311 Y91.461 E109.94911
G1 X69.013 Y91.564 E109.96888
G1 X63.877 Y91.568 E110.29092
G1 X63.804 Y91.568 E110.2955
;TYPE:WALL-INNER
;BRIDGE
M106 S255
G1 F1320 X63.803 Y95.694 E110.55421
;TYPE:WALL-INNER
M106 S170
G1 F3000 X63.929 Y96.152 E110.58399
G1 X64.264 Y96.542 E110.61623
G1 X64.718 Y96.712 E110.64662
;TYPE:WALL-INNER
;BRIDGE
M106 S255
G1 F1320 X88.718 Y98.463 E112.15547
;TYPE:WALL-INNER
M106 S170
G1 F3000 X89.371 Y98.494 E112.19646
G1 X90.146 Y98.499 E112.24505
G1 X91.184 Y98.449 E112.31021
G1 X92.293 Y98.32 E112.38022
G1 X93.377 Y98.113 E112.44942
G1 X94.278 Y97.892 E112.50758
G1 X95.003 Y97.673 E112.55507
G1 X95.552 Y97.482 E112.59152
G1 X96.552 Y97.087 E112.65894
G1 X97.483 Y96.642 E112.72364
G1 X98.136 Y96.28 E112.77045
G1 X98.85 Y95.855 E112.82255
G1 X99.526 Y95.39 E112.874
G1 X100.143 Y94.932 E112.92218
G1 X100.87 Y94.319 E112.9818
G1 X101.293 Y93.93 E113.01784
G1 X101.905 Y93.318 E113.07211
G1 X102.294 Y92.895 E113.10814
G1 X102.668 Y92.458 E113.1442
G1 X103.028 Y92.006 E113.18044
G1 X103.37 Y91.543 E113.21653
G1 X103.704 Y91.059 E113.2534
G1 X104.017 Y90.567 E113.28996
G1 X104.274 Y90.127 E113.32191
G1 X104.301 Y89.815 E113.34155
G1 X104.286 Y89.651 E113.35188
G1 X104.004 Y89.171 E113.38678
G1 X103.689 Y88.677 E113.42352
G1 X103.399 Y88.256 E113.45557
G1 X103.054 Y87.787 E113.49208
G1 X102.655 Y87.284 E113.53234
G1 X102.28 Y86.848 E113.56839
G1 X101.703 Y86.22 E113.62187
G1 X101.068 Y85.617 E113.67678
G1 X100.638 Y85.238 E113.71272
G1 X100.109 Y84.802 E113.7557
G1 X99.51 Y84.358 E113.80245
G1 X98.973 Y83.992 E113.8432
G1 X98.487 Y83.686 E113.87921
G1 X98.055 Y83.433 E113.9106
G1 X97.415 Y83.089 E113.95616
G1 X96.63 Y82.713 E114.01073
G1 X95.765 Y82.348 E114.0696
G1 X94.98 Y82.079 E114.12163
G1 X94.241 Y81.857 E114.17001
G1 X93.384 Y81.648 E114.22532
G1 X92.418 Y81.458 E114.28706
G1 X91.573 Y81.353 E114.34045
G1 X90.942 Y81.298 E114.38016
G1 X90.069 Y81.256 E114.43496
G1 X89.004 Y81.274 E114.50175
;TYPE:WALL-INNER
;BRIDGE
M106 S255
G1 F1320 X64.826 Y83.038 E116.02178
;TYPE:WALL-INNER
M106 S170
G1 F3000 X64.317 Y83.184 E116.05499
G1 X63.935 Y83.586 E116.08976
G1 X63.803 Y84.059 E116.12055
;TYPE:WALL-INNER
;BRIDGE
M106 S255
G1 F1320 X63.803 Y88.192 E116.3797
;TYPE:WALL-INNER
M106 S170
G1 F3000 X63.876 Y88.192 E116.38427
G1 X69.109 Y88.194 E116.71239
G1 X69.49 Y88.439 E116.74079
G1 X69.649 Y88.817 E116.76651
G1 X69.65 Y90.987 E116.90257
G1 X69.503 Y91.316 E116.92517
M204 S1000
G0 F9000 X69.809 Y91.425
G0 X103.139 Y89.871
;TYPE:SKIN
G1 F779.8 X102.999 Y90.264 E116.96474
G1 F857.4 X102.385 Y91.211 E117.0634
G1 F881.6 X101.911 Y91.845 E117.13095
G1 F905.1 X101.385 Y92.481 E117.19977
G1 F931.7 X100.862 Y93.048 E117.26249
G1 F953.6 X100.415 Y93.494 E117.3128
G1 F974.3 X99.921 Y93.943 E117.36499
G1 F993.6 X99.468 Y94.326 E117.41057
G1 F1011.3 X98.97 Y94.712 E117.45824
G1 F1029.6 X98.427 Y95.095 E117.50771
G1 F1050.9 X97.889 Y95.439 E117.55441
G1 F1073 X97.213 Y95.833 E117.61057
G1 F1090.7 X96.743 Y96.08 E117.64813
G1 F1098.5 X96.601 Y96.294 E117.66618
G1 X96.723 Y96.583 E117.68823
G1 X96.733 Y96.607 E117.69005
G1 F1088.2 X97.325 Y96.318 E117.73675
G1 F1068 X97.957 Y95.963 E117.789
G1 F1048.5 X98.666 Y95.533 E117.84975
G1 F1027.3 X99.313 Y95.085 E117.90846
G1 F1004.6 X99.911 Y94.631 E117.9656
G1 F976.4 X100.619 Y94.027 E118.03822
G1 F955.6 X101.027 Y93.647 E118.08256
G1 F933.7 X101.623 Y93.041 E118.15154
G1 F910.7 X101.995 Y92.625 E118.19783
G1 F896 X102.358 Y92.197 E118.24505
G1 F879.8 X102.707 Y91.75 E118.29352
G1 F862.5 X103.033 Y91.299 E118.34192
G1 F845.8 X103.479 Y90.628 E118.41319
G1 F806.3 X103.813 Y90.018 E118.4773
G1 F749.3 X103.823 Y89.772 E118.50146
G1 F775.5 X103.489 Y89.148 E118.56891
G1 F842.5 X103.056 Y88.491 E118.63875
G1 F859.1 X102.724 Y88.032 E118.68818
G1 F878.1 X102.338 Y87.537 E118.74193
G1 F896 X101.977 Y87.112 E118.78885
G1 F914.5 X101.423 Y86.503 E118.85689
G1 F949.6 X100.592 Y85.698 E118.94941
G1 F984.9 X99.87 Y85.097 E119.02216
G1 F1006.8 X99.29 Y84.66 E119.07731
G1 F1029.6 X98.766 Y84.298 E119.12473
G1 F1046.1 X98.051 Y83.845 E119.18688
G1 F1078 X97.081 Y83.313 E119.26595
G1 F1103.7 X97.066 Y83.352 E119.26888
G1 X96.95 Y83.667 E119.29237
G1 X96.999 Y83.797 E119.3021
G1 F1080.5 X97.97 Y84.369 E119.38248
G1 F1048.5 X98.829 Y84.94 E119.45806
G1 F1020.4 X99.447 Y85.417 E119.51665
G1 F993.6 X99.916 Y85.809 E119.56362
G1 F974.3 X100.396 Y86.248 E119.61447
G1 F951.6 X100.85 Y86.697 E119.66544
G1 F931.7 X101.373 Y87.264 E119.72816
G1 F908.9 X101.767 Y87.733 E119.77906
G1 F890.5 X102.108 Y88.172 E119.82608
G1 F871.1 X102.481 Y88.693 E119.88133
G1 F849.1 X102.871 Y89.289 E119.94412
G1 F776.9 X103.139 Y89.871 E120.00509
G1 F2700 E113.50509
;MESH:NONMESH
G0 F600 X103.139 Y89.871 Z3.27
G0 F9000 X64.8 Y82.858
G0 X63.061 Y83.007
;TIME_ELAPSED:216.291166
;LAYER:3
M106 S255
;TYPE:WALL-OUTER
;MESH:3DBenchy.3mf
